; HEADER_BLOCK_START
; generated by OrcaSlicer 2.2.0 on 2024-11-04 at 07:45:15
; total layer number: 150
; filament_density: 1.27,1.04
; filament_diameter: 1.75,1.75
; max_z_height: 30.00
; HEADER_BLOCK_END

; THUMBNAIL_BLOCK_START

;
; THUMBNAIL_BLOCK_END

; THUMBNAIL_BLOCK_START

;
; THUMBNAIL_BLOCK_END

; external perimeters extrusion width = 0.40mm
; perimeters extrusion width = 0.40mm
; infill extrusion width = 0.40mm
; solid infill extrusion width = 0.40mm
; top infill extrusion width = 0.40mm
; first layer extrusion width = 0.45mm

; EXECUTABLE_BLOCK_START
M73 P0 R28
;TYPE:Custom
START_PRINT EXTRUDER_TEMP=245,248 EXTRUDER_OTHER_LAYER_TEMP=245,243 BED_TEMP=85 CHAMBER_TEMP=0 INITIAL_TOOL=0 TOTAL_LAYER_COUNT=150 X0=133 Y0=133 X1=167 Y1=167
G90
G21
M83 ; use relative distances for extrusion
; filament start gcode
SET_PRESSURE_ADVANCE ADVANCE=0.045; Override pressure advance value
T0
M106 S0
;LAYER_CHANGE
;Z:0.2
;HEIGHT:0.2
;BEFORE_LAYER_CHANGE
;0.2
G92 E0

G1 E-1 F7200
;AFTER_LAYER_CHANGE
;0.2
G92 E0
_ON_LAYER_CHANGE LAYER=1
;_SET_FAN_SPEED_CHANGING_LAYER
SET_VELOCITY_LIMIT ACCEL=500 ACCEL_TO_DECEL=250
G1 Z.6 F21000
G1 X163.961 Y163.961
G1 Z.2
G1 E1 F7200
;TYPE:Inner wall
;WIDTH:0.449999
G1 F3000
G1 X136.039 Y163.961 E.88841
G1 X136.039 Y136.039 E.88841
G1 X163.961 Y136.039 E.88841
G1 X163.961 Y163.921 E.88713
G1 X164.368 Y164.368 F21000
G1 F3000
G1 X135.632 Y164.368 E.91431
G1 X135.632 Y135.632 E.91431
G1 X164.368 Y135.632 E.91431
G1 X164.368 Y164.328 E.91304
G1 X164.775 Y164.775 F21000
;TYPE:Outer wall
G1 F3000
G1 X135.225 Y164.775 E.94022
G1 X135.225 Y135.225 E.94022
G1 X164.775 Y135.225 E.94022
G1 X164.775 Y164.735 E.93894
G1 E-.7 F7200
;WIPE_START
G1 F3000
G1 X163.775 Y164.736 E-.3
;WIPE_END
G1 Z.6 F21000
M73 P0 R27
G1 X163.839 Y136.987 Z.6
M73 P0 R27
G1 Z.2
G1 E1 F7200
;TYPE:Bottom surface
;WIDTH:0.451246
G1 F6300
G1 X163.196 Y136.344 E.02899
G1 X162.619 Y136.344 E.01843
G1 X163.656 Y137.381 E.04679
G1 X163.656 Y137.959 E.01843
G1 X162.041 Y136.344 E.07285
G1 X161.464 Y136.344 E.01843
G1 X163.656 Y138.536 E.09892
G1 X163.656 Y139.113 E.01843
G1 X160.887 Y136.344 E.12498
G1 X160.309 Y136.344 E.01843
G1 X163.656 Y139.691 E.15104
G1 X163.656 Y140.268 E.01843
G1 X159.732 Y136.344 E.17711
G1 X159.154 Y136.344 E.01843
G1 X163.656 Y140.846 E.20317
G1 X163.656 Y141.423 E.01843
G1 X158.577 Y136.344 E.22923
G1 X157.999 Y136.344 E.01843
G1 X163.656 Y142.001 E.2553
G1 X163.656 Y142.578 E.01843
G1 X157.422 Y136.344 E.28136
G1 X156.844 Y136.344 E.01843
G1 X163.656 Y143.156 E.30743
G1 X163.656 Y143.733 E.01843
G1 X156.267 Y136.344 E.33349
G1 X155.689 Y136.344 E.01843
G1 X163.656 Y144.311 E.35955
G1 X163.656 Y144.888 E.01843
G1 X155.112 Y136.344 E.38562
G1 X154.534 Y136.344 E.01843
G1 X163.656 Y145.466 E.41168
G1 X163.656 Y146.043 E.01843
G1 X153.957 Y136.344 E.43774
G1 X153.38 Y136.344 E.01843
G1 X163.656 Y146.62 E.46381
G1 X163.656 Y147.198 E.01843
G1 X152.802 Y136.344 E.48987
G1 X152.225 Y136.344 E.01843
G1 X163.656 Y147.775 E.51594
G1 X163.656 Y148.353 E.01843
G1 X151.647 Y136.344 E.542
G1 X151.07 Y136.344 E.01843
G1 X163.656 Y148.93 E.56806
G1 X163.656 Y149.508 E.01843
G1 X150.492 Y136.344 E.59413
G1 X149.915 Y136.344 E.01843
G1 X163.656 Y150.085 E.62019
M73 P1 R27
G1 X163.656 Y150.663 E.01843
M73 P1 R27
G1 X149.337 Y136.344 E.64625
G1 X148.76 Y136.344 E.01843
G1 X163.656 Y151.24 E.67232
G1 X163.656 Y151.818 E.01843
G1 X148.182 Y136.344 E.69838
G1 X147.605 Y136.344 E.01843
G1 X163.656 Y152.395 E.72444
G1 X163.656 Y152.973 E.01843
G1 X147.027 Y136.344 E.75051
G1 X146.45 Y136.344 E.01843
G1 X163.656 Y153.55 E.77657
G1 X163.656 Y154.127 E.01843
G1 X145.873 Y136.344 E.80264
G1 X145.295 Y136.344 E.01843
G1 X163.656 Y154.705 E.8287
G1 X163.656 Y155.282 E.01843
G1 X144.718 Y136.344 E.85476
G1 X144.14 Y136.344 E.01843
G1 X163.656 Y155.86 E.88083
G1 X163.656 Y156.437 E.01843
G1 X143.563 Y136.344 E.90689
G1 X142.985 Y136.344 E.01843
G1 X163.656 Y157.015 E.93295
G1 X163.656 Y157.592 E.01843
G1 X142.408 Y136.344 E.95902
G1 X141.83 Y136.344 E.01843
G1 X163.656 Y158.17 E.98508
G1 X163.656 Y158.747 E.01843
G1 X141.253 Y136.344 E1.01115
G1 X140.675 Y136.344 E.01843
G1 X163.656 Y159.325 E1.03721
G1 X163.656 Y159.902 E.01843
G1 X140.098 Y136.344 E1.06327
G1 X139.52 Y136.344 E.01843
G1 X163.656 Y160.48 E1.08934
G1 X163.656 Y161.057 E.01843
G1 X138.943 Y136.344 E1.1154
G1 X138.366 Y136.344 E.01843
G1 X163.656 Y161.634 E1.14146
G1 X163.656 Y162.212 E.01843
G1 X137.788 Y136.344 E1.16753
G1 X137.211 Y136.344 E.01843
G1 X163.656 Y162.789 E1.19359
G1 X163.656 Y163.367 E.01843
G1 X136.633 Y136.344 E1.21966
G1 X136.344 Y136.344 E.00921
G1 X136.344 Y136.633 E.00922
G1 X163.367 Y163.656 E1.21965
G1 X162.789 Y163.656 E.01843
G1 X136.344 Y137.211 E1.19359
G1 X136.344 Y137.788 E.01843
G1 X162.212 Y163.656 E1.16753
G1 X161.634 Y163.656 E.01843
G1 X136.344 Y138.366 E1.14146
G1 X136.344 Y138.943 E.01843
G1 X161.057 Y163.656 E1.1154
G1 X160.479 Y163.656 E.01843
G1 X136.344 Y139.521 E1.08934
G1 X136.344 Y140.098 E.01843
G1 X159.902 Y163.656 E1.06327
G1 X159.325 Y163.656 E.01843
G1 X136.344 Y140.675 E1.03721
G1 X136.344 Y141.253 E.01843
G1 X158.747 Y163.656 E1.01114
G1 X158.17 Y163.656 E.01843
G1 X136.344 Y141.83 E.98508
M73 P2 R27
G1 X136.344 Y142.408 E.01843
M73 P2 R27
G1 X157.592 Y163.656 E.95902
G1 X157.015 Y163.656 E.01843
G1 X136.344 Y142.985 E.93295
G1 X136.344 Y143.563 E.01843
G1 X156.437 Y163.656 E.90689
G1 X155.86 Y163.656 E.01843
G1 X136.344 Y144.14 E.88083
G1 X136.344 Y144.718 E.01843
G1 X155.282 Y163.656 E.85476
G1 X154.705 Y163.656 E.01843
G1 X136.344 Y145.295 E.8287
G1 X136.344 Y145.873 E.01843
G1 X154.127 Y163.656 E.80263
G1 X153.55 Y163.656 E.01843
G1 X136.344 Y146.45 E.77657
G1 X136.344 Y147.027 E.01843
G1 X152.973 Y163.656 E.75051
G1 X152.395 Y163.656 E.01843
G1 X136.344 Y147.605 E.72444
G1 X136.344 Y148.182 E.01843
G1 X151.818 Y163.656 E.69838
G1 X151.24 Y163.656 E.01843
G1 X136.344 Y148.76 E.67232
G1 X136.344 Y149.337 E.01843
G1 X150.663 Y163.656 E.64625
G1 X150.085 Y163.656 E.01843
G1 X136.344 Y149.915 E.62019
G1 X136.344 Y150.492 E.01843
G1 X149.508 Y163.656 E.59413
G1 X148.93 Y163.656 E.01843
G1 X136.344 Y151.07 E.56806
G1 X136.344 Y151.647 E.01843
G1 X148.353 Y163.656 E.542
G1 X147.775 Y163.656 E.01843
G1 X136.344 Y152.225 E.51593
G1 X136.344 Y152.802 E.01843
G1 X147.198 Y163.656 E.48987
G1 X146.62 Y163.656 E.01843
G1 X136.344 Y153.38 E.46381
G1 X136.344 Y153.957 E.01843
G1 X146.043 Y163.656 E.43774
G1 X145.466 Y163.656 E.01843
G1 X136.344 Y154.534 E.41168
G1 X136.344 Y155.112 E.01843
G1 X144.888 Y163.656 E.38562
G1 X144.311 Y163.656 E.01843
G1 X136.344 Y155.689 E.35955
G1 X136.344 Y156.267 E.01843
G1 X143.733 Y163.656 E.33349
G1 X143.156 Y163.656 E.01843
G1 X136.344 Y156.844 E.30742
G1 X136.344 Y157.422 E.01843
G1 X142.578 Y163.656 E.28136
G1 X142.001 Y163.656 E.01843
G1 X136.344 Y157.999 E.2553
G1 X136.344 Y158.577 E.01843
G1 X141.423 Y163.656 E.22923
G1 X140.846 Y163.656 E.01843
G1 X136.344 Y159.154 E.20317
G1 X136.344 Y159.732 E.01843
G1 X140.268 Y163.656 E.17711
G1 X139.691 Y163.656 E.01843
G1 X136.344 Y160.309 E.15104
G1 X136.344 Y160.887 E.01843
G1 X139.113 Y163.656 E.12498
G1 X138.536 Y163.656 E.01843
G1 X136.344 Y161.464 E.09892
G1 X136.344 Y162.041 E.01843
G1 X137.959 Y163.656 E.07285
G1 X137.381 Y163.656 E.01843
G1 X136.344 Y162.619 E.04679
G1 X136.344 Y163.196 E.01843
G1 X136.987 Y163.839 E.02899
;LAYER_CHANGE
;Z:0.4
;HEIGHT:0.2
;BEFORE_LAYER_CHANGE
;0.4
G92 E0

G1 E-.7 F7200
;WIPE_START
G1 F6300
G1 X136.344 Y163.196 E-.27252
G1 X136.344 Y163.105 E-.02748
;WIPE_END
;AFTER_LAYER_CHANGE
;0.4
G92 E0
_ON_LAYER_CHANGE LAYER=2
;_SET_FAN_SPEED_CHANGING_LAYER
SET_VELOCITY_LIMIT ACCEL=5000 ACCEL_TO_DECEL=2500
M140 S80 ; set bed temperature
G1 Z.8 F21000
G1 X164.086 Y164.086 Z.8
G1 Z.4
G1 E1 F7200
;TYPE:Inner wall
;WIDTH:0.399999
G1 F9241.652
G1 X135.914 Y164.086 E.78627
G1 X135.914 Y135.914 E.78627
G1 X164.086 Y135.914 E.78627
G1 X164.086 Y164.046 E.78515
G1 X164.443 Y164.443 F21000
G1 F9241.652
G1 X135.557 Y164.443 E.8062
G1 X135.557 Y135.557 E.8062
G1 X164.443 Y135.557 E.8062
G1 X164.443 Y164.403 E.80508
G1 X164.8 Y164.8 F21000
SET_VELOCITY_LIMIT ACCEL=3000 ACCEL_TO_DECEL=1500
;TYPE:Outer wall
G1 F7200
G1 X135.2 Y164.8 E.82613
G1 X135.2 Y135.2 E.82613
G1 X164.8 Y135.2 E.82613
G1 X164.8 Y164.76 E.82501
SET_VELOCITY_LIMIT ACCEL=5000 ACCEL_TO_DECEL=2500
G1 E-.7
;WIPE_START
G1 X163.8 Y164.761 E-.3
;WIPE_END
G1 Z.8 F21000
G1 X163.779 Y163.721 Z.8
G1 Z.4
G1 E1 F7200
;TYPE:Internal solid infill
;WIDTH:0.38292
G1 F9705.882
G1 X163.715 Y163.757 E.00196
G1 X163.78 Y163.792 E.00196
G1 X163.979 Y163.122 F21000
;WIDTH:0.40066
G1 F9224.576
G1 X163.282 Y163.818 E.02754
G1 X162.776 Y163.818 E.01415
G1 X163.818 Y162.776 E.04119
G1 X163.818 Y162.27 E.01415
G1 X162.27 Y163.818 E.0612
G1 X161.764 Y163.818 E.01415
G1 X163.818 Y161.764 E.0812
G1 X163.818 Y161.259 E.01415
G1 X161.259 Y163.818 E.10121
G1 X160.753 Y163.818 E.01415
G1 X163.818 Y160.753 E.12122
G1 X163.818 Y160.247 E.01415
G1 X160.247 Y163.818 E.14122
G1 X159.741 Y163.818 E.01415
G1 X163.818 Y159.741 E.16123
M73 P3 R27
G1 X163.818 Y159.235 E.01415
M73 P3 R27
G1 X159.235 Y163.818 E.18123
G1 X158.729 Y163.818 E.01415
G1 X163.818 Y158.729 E.20124
G1 X163.818 Y158.223 E.01415
G1 X158.223 Y163.818 E.22124
G1 X157.717 Y163.818 E.01415
G1 X163.818 Y157.717 E.24125
G1 X163.818 Y157.211 E.01415
G1 X157.211 Y163.818 E.26126
G1 X156.705 Y163.818 E.01415
G1 X163.818 Y156.705 E.28126
G1 X163.818 Y156.199 E.01415
G1 X156.199 Y163.818 E.30127
G1 X155.693 Y163.818 E.01415
G1 X163.818 Y155.693 E.32127
G1 X163.818 Y155.188 E.01415
G1 X155.188 Y163.818 E.34128
G1 X154.682 Y163.818 E.01415
G1 X163.818 Y154.682 E.36129
G1 X163.818 Y154.176 E.01415
G1 X154.176 Y163.818 E.38129
G1 X153.67 Y163.818 E.01415
G1 X163.818 Y153.67 E.4013
G1 X163.818 Y153.164 E.01415
G1 X153.164 Y163.818 E.4213
G1 X152.658 Y163.818 E.01415
G1 X163.818 Y152.658 E.44131
G1 X163.818 Y152.152 E.01415
G1 X152.152 Y163.818 E.46132
G1 X151.646 Y163.818 E.01415
G1 X163.818 Y151.646 E.48132
G1 X163.818 Y151.14 E.01415
G1 X151.14 Y163.818 E.50133
G1 X150.634 Y163.818 E.01415
G1 X163.818 Y150.634 E.52133
G1 X163.818 Y150.128 E.01415
G1 X150.128 Y163.818 E.54134
G1 X149.622 Y163.818 E.01415
G1 X163.818 Y149.622 E.56134
G1 X163.818 Y149.116 E.01415
G1 X149.116 Y163.818 E.58135
G1 X148.611 Y163.818 E.01415
G1 X163.818 Y148.611 E.60136
G1 X163.818 Y148.105 E.01415
G1 X148.105 Y163.818 E.62136
G1 X147.599 Y163.818 E.01415
G1 X163.818 Y147.599 E.64137
G1 X163.818 Y147.093 E.01415
G1 X147.093 Y163.818 E.66137
G1 X146.587 Y163.818 E.01415
G1 X163.818 Y146.587 E.68138
G1 X163.818 Y146.081 E.01415
G1 X146.081 Y163.818 E.70139
G1 X145.575 Y163.818 E.01415
G1 X163.818 Y145.575 E.72139
G1 X163.818 Y145.069 E.01415
G1 X145.069 Y163.818 E.7414
G1 X144.563 Y163.818 E.01415
G1 X163.818 Y144.563 E.7614
G1 X163.818 Y144.057 E.01415
G1 X144.057 Y163.818 E.78141
G1 X143.551 Y163.818 E.01415
G1 X163.818 Y143.551 E.80141
G1 X163.818 Y143.045 E.01415
G1 X143.045 Y163.818 E.82142
G1 X142.54 Y163.818 E.01415
G1 X163.818 Y142.54 E.84143
G1 X163.818 Y142.034 E.01415
G1 X142.034 Y163.818 E.86143
G1 X141.528 Y163.818 E.01415
G1 X163.818 Y141.528 E.88144
G1 X163.818 Y141.022 E.01415
G1 X141.022 Y163.818 E.90144
G1 X140.516 Y163.818 E.01415
G1 X163.818 Y140.516 E.92145
G1 X163.818 Y140.01 E.01415
G1 X140.01 Y163.818 E.94146
G1 X139.504 Y163.818 E.01415
G1 X163.818 Y139.504 E.96146
G1 X163.818 Y138.998 E.01415
G1 X138.998 Y163.818 E.98147
G1 X138.492 Y163.818 E.01415
G1 X163.818 Y138.492 E1.00147
G1 X163.818 Y137.986 E.01415
G1 X137.986 Y163.818 E1.02148
G1 X137.48 Y163.818 E.01415
G1 X163.818 Y137.48 E1.04148
G1 X163.818 Y136.974 E.01415
G1 X136.974 Y163.818 E1.06149
G1 X136.468 Y163.818 E.01415
G1 X163.818 Y136.468 E1.0815
G1 X163.818 Y136.182 E.00801
G1 X163.599 Y136.182 E.00614
G1 X136.182 Y163.599 E1.08415
G1 X136.182 Y163.093 E.01415
G1 X163.093 Y136.182 E1.06414
G1 X162.587 Y136.182 E.01415
G1 X136.182 Y162.587 E1.04414
G1 X136.182 Y162.081 E.01415
G1 X162.081 Y136.182 E1.02413
G1 X161.575 Y136.182 E.01415
G1 X136.182 Y161.575 E1.00413
G1 X136.182 Y161.069 E.01415
G1 X161.069 Y136.182 E.98412
G1 X160.563 Y136.182 E.01415
G1 X136.182 Y160.563 E.96411
G1 X136.182 Y160.057 E.01415
G1 X160.057 Y136.182 E.94411
G1 X159.551 Y136.182 E.01415
G1 X136.182 Y159.551 E.9241
G1 X136.182 Y159.045 E.01415
G1 X159.045 Y136.182 E.9041
G1 X158.539 Y136.182 E.01415
G1 X136.182 Y158.539 E.88409
G1 X136.182 Y158.033 E.01415
G1 X158.033 Y136.182 E.86408
G1 X157.528 Y136.182 E.01415
G1 X136.182 Y157.528 E.84408
G1 X136.182 Y157.022 E.01415
G1 X157.022 Y136.182 E.82407
G1 X156.516 Y136.182 E.01415
G1 X136.182 Y156.516 E.80407
G1 X136.182 Y156.01 E.01415
G1 X156.01 Y136.182 E.78406
G1 X155.504 Y136.182 E.01415
G1 X136.182 Y155.504 E.76405
G1 X136.182 Y154.998 E.01415
G1 X154.998 Y136.182 E.74405
G1 X154.492 Y136.182 E.01415
G1 X136.182 Y154.492 E.72404
G1 X136.182 Y153.986 E.01415
G1 X153.986 Y136.182 E.70404
G1 X153.48 Y136.182 E.01415
G1 X136.182 Y153.48 E.68403
G1 X136.182 Y152.974 E.01415
G1 X152.974 Y136.182 E.66403
G1 X152.468 Y136.182 E.01415
G1 X136.182 Y152.468 E.64402
G1 X136.182 Y151.962 E.01415
G1 X151.962 Y136.182 E.62401
G1 X151.457 Y136.182 E.01415
G1 X136.182 Y151.457 E.60401
G1 X136.182 Y150.951 E.01415
G1 X150.951 Y136.182 E.584
G1 X150.445 Y136.182 E.01415
G1 X136.182 Y150.445 E.564
G1 X136.182 Y149.939 E.01415
G1 X149.939 Y136.182 E.54399
G1 X149.433 Y136.182 E.01415
G1 X136.182 Y149.433 E.52398
G1 X136.182 Y148.927 E.01415
G1 X148.927 Y136.182 E.50398
G1 X148.421 Y136.182 E.01415
G1 X136.182 Y148.421 E.48397
G1 X136.182 Y147.915 E.01415
G1 X147.915 Y136.182 E.46397
G1 X147.409 Y136.182 E.01415
G1 X136.182 Y147.409 E.44396
G1 X136.182 Y146.903 E.01415
G1 X146.903 Y136.182 E.42396
G1 X146.397 Y136.182 E.01415
G1 X136.182 Y146.397 E.40395
G1 X136.182 Y145.891 E.01415
G1 X145.891 Y136.182 E.38394
G1 X145.385 Y136.182 E.01415
G1 X136.182 Y145.385 E.36394
G1 X136.182 Y144.88 E.01415
G1 X144.88 Y136.182 E.34393
G1 X144.374 Y136.182 E.01415
G1 X136.182 Y144.374 E.32393
M73 P4 R27
G1 X136.182 Y143.868 E.01415
M73 P4 R27
G1 X143.868 Y136.182 E.30392
G1 X143.362 Y136.182 E.01415
G1 X136.182 Y143.362 E.28391
G1 X136.182 Y142.856 E.01415
G1 X142.856 Y136.182 E.26391
G1 X142.35 Y136.182 E.01415
G1 X136.182 Y142.35 E.2439
G1 X136.182 Y141.844 E.01415
G1 X141.844 Y136.182 E.2239
G1 X141.338 Y136.182 E.01415
G1 X136.182 Y141.338 E.20389
G1 X136.182 Y140.832 E.01415
G1 X140.832 Y136.182 E.18389
G1 X140.326 Y136.182 E.01415
G1 X136.182 Y140.326 E.16388
G1 X136.182 Y139.82 E.01415
G1 X139.82 Y136.182 E.14387
G1 X139.314 Y136.182 E.01415
G1 X136.182 Y139.314 E.12387
G1 X136.182 Y138.808 E.01415
G1 X138.808 Y136.182 E.10386
G1 X138.303 Y136.182 E.01415
G1 X136.182 Y138.303 E.08386
G1 X136.182 Y137.797 E.01415
G1 X137.797 Y136.182 E.06385
G1 X137.291 Y136.182 E.01415
G1 X136.182 Y137.291 E.04384
G1 X136.182 Y136.785 E.01415
G1 X136.945 Y136.021 E.03019
G1 X136.284 Y136.225 F21000
;WIDTH:0.38292
G1 F9705.882
G1 X136.22 Y136.262 E.00196
G1 X136.285 Y136.297 E.00196
;LAYER_CHANGE
;Z:0.6
;HEIGHT:0.2
;BEFORE_LAYER_CHANGE
;0.6
G92 E0

G1 E-.89075 F7200
;WIPE_START
G1 F9705.882
G1 X136.22 Y136.262 E-.05464
G1 X136.284 Y136.225 E-.05461
;WIPE_END
;AFTER_LAYER_CHANGE
;0.6
G92 E0
_ON_LAYER_CHANGE LAYER=3
;_SET_FAN_SPEED_CHANGING_LAYER
G1 Z1 F21000
G1 X164.086 Y164.086 Z1
G1 Z.6
G1 E1 F7200
;TYPE:Inner wall
;WIDTH:0.399999
G1 F9241.652
G1 X135.914 Y164.086 E.78627
G1 X135.914 Y135.914 E.78627
M73 P4 R26
G1 X164.086 Y135.914 E.78627
M73 P4 R26
G1 X164.086 Y164.046 E.78515
G1 X164.443 Y164.443 F21000
G1 F9241.652
G1 X135.557 Y164.443 E.8062
G1 X135.557 Y135.557 E.8062
G1 X164.443 Y135.557 E.8062
G1 X164.443 Y164.403 E.80508
G1 X164.8 Y164.8 F21000
SET_VELOCITY_LIMIT ACCEL=3000 ACCEL_TO_DECEL=1500
;TYPE:Outer wall
G1 F7200
G1 X135.2 Y164.8 E.82613
G1 X135.2 Y135.2 E.82613
G1 X164.8 Y135.2 E.82613
G1 X164.8 Y164.76 E.82501
SET_VELOCITY_LIMIT ACCEL=5000 ACCEL_TO_DECEL=2500
G1 E-.7
;WIPE_START
G1 X163.8 Y164.761 E-.3
;WIPE_END
G1 Z1 F21000
G1 X163.979 Y136.878 Z1
G1 Z.6
G1 E1 F7200
