; generated by PrusaSlicer 2.8.1+win64 on 2024-11-13 at 11:41:56 UTC


;
;

;
;
; 

; external perimeters extrusion width = 0.45mm
; perimeters extrusion width = 0.45mm
; infill extrusion width = 0.45mm
; solid infill extrusion width = 0.45mm
; top infill extrusion width = 0.45mm
; first layer extrusion width = 0.45mm

M73 P0 R13
;TYPE:Custom
START_PRINT EXTRUDER_TEMP=250,250 EXTRUDER_OTHER_LAYER_TEMP=250,250 BED_TEMP=85 START_CHAMBER_TEMP=0,0 CHAMBER_TEMP=0,0 INITIAL_TOOL=0 TOTAL_LAYER_COUNT=150 X0=135 Y0=135 X1=165 Y1=165
G21 ; set units to millimeters
G90 ; use absolute coordinates
M83 ; use relative distances for extrusion
; Filament gcode
SET_PRESSURE_ADVANCE ADVANCE=0.04
M107
;LAYER_CHANGE
;Z:0.2
;HEIGHT:0.2
G1 E-2 F7200
G1 Z.2 F12000
G1 X163.961 Y163.961 F30000
G1 Z.2 F12000
G1 E2 F7200
M204 S2500
;TYPE:Perimeter
;WIDTH:0.449999
G1 F1200
G1 X136.039 Y163.961 E.85061
G1 X136.039 Y136.039 E.85061
G1 X163.961 Y136.039 E.85061
G1 X163.961 Y150 E.42531
G1 X163.961 Y163.901 E.42348
M204 S15000
G1 X163.961 Y163.901 F30000
G1 X164.368 Y164.368
M204 S2500
G1 F1200
G1 X135.632 Y164.368 E.87541
G1 X135.632 Y135.632 E.87541
G1 X164.368 Y135.632 E.87541
M73 P1 R13
G1 X164.368 Y150 E.43771
G1 X164.368 Y164.308 E.43588
M204 S15000
G1 X164.775 Y164.775 F30000
M204 S2500
;TYPE:External perimeter
G1 F1200
G1 X135.225 Y164.775 E.90021
G1 X135.225 Y135.225 E.90021
G1 X164.775 Y135.225 E.90021
G1 X164.775 Y150 E.4501
M73 P2 R13
G1 X164.775 Y164.715 E.44828
M204 S15000
;WIPE_START
G1 F24000
G1 X164.775 Y164.775 E-.0171
G1 X157.817 Y164.775 E-1.9829
;WIPE_END
G1 Z1.2 F12000
G1 X163.81 Y137.014 F30000
G1 Z.2 F12000
G1 E2 F7200
M204 S2500
;TYPE:Solid infill
;WIDTH:0.450407
G1 F1200
G1 X163.17 Y136.373 E.02762
G1 X162.593 Y136.373 E.0176
G1 X163.627 Y137.407 E.04459
G1 X163.627 Y137.983 E.01756
G1 X162.017 Y136.373 E.06943
G1 X161.441 Y136.373 E.01756
G1 X163.627 Y138.559 E.09427
G1 X163.627 Y139.135 E.01756
G1 X160.865 Y136.373 E.11911
G1 X160.288 Y136.373 E.0176
G1 X163.627 Y139.712 E.144
G1 X163.627 Y140.288 E.01756
G1 X159.712 Y136.373 E.16884
G1 X159.136 Y136.373 E.01756
G1 X163.627 Y140.864 E.19368
G1 X163.627 Y141.441 E.0176
G1 X158.559 Y136.373 E.21856
G1 X157.983 Y136.373 E.01756
G1 X163.627 Y142.017 E.2434
G1 X163.627 Y142.593 E.01756
G1 X157.407 Y136.373 E.26824
G1 X156.831 Y136.373 E.01756
G1 X163.627 Y143.169 E.29308
G1 X163.627 Y143.746 E.0176
G1 X156.254 Y136.373 E.31797
G1 X155.678 Y136.373 E.01756
G1 X163.627 Y144.322 E.34281
G1 X163.627 Y144.898 E.01756
G1 X155.102 Y136.373 E.36765
G1 X154.526 Y136.373 E.01756
G1 X163.627 Y145.474 E.39249
G1 X163.627 Y146.051 E.0176
G1 X153.949 Y136.373 E.41737
G1 X153.373 Y136.373 E.01756
M73 P3 R13
G1 X163.627 Y146.627 E.44221
G1 X163.627 Y147.203 E.01756
G1 X152.797 Y136.373 E.46705
G1 X152.22 Y136.373 E.0176
G1 X163.627 Y147.78 E.49193
G1 X163.627 Y148.356 E.01756
G1 X151.644 Y136.373 E.51677
G1 X151.068 Y136.373 E.01756
G1 X163.627 Y148.932 E.54161
G1 X163.627 Y149.508 E.01756
G1 X150.492 Y136.373 E.56645
G1 X149.915 Y136.373 E.0176
G1 X163.627 Y150.085 E.59134
G1 X163.627 Y150.661 E.01756
G1 X149.339 Y136.373 E.61618
G1 X148.763 Y136.373 E.01756
G1 X163.627 Y151.237 E.64102
G1 X163.627 Y151.813 E.01756
G1 X148.187 Y136.373 E.66586
G1 X147.61 Y136.373 E.0176
M73 P4 R13
G1 X163.627 Y152.39 E.69074
G1 X163.627 Y152.966 E.01756
G1 X147.034 Y136.373 E.71558
G1 X146.458 Y136.373 E.01756
G1 X163.627 Y153.542 E.74042
G1 X163.627 Y154.119 E.0176
G1 X145.881 Y136.373 E.76531
G1 X145.305 Y136.373 E.01756
G1 X163.627 Y154.695 E.79015
G1 X163.627 Y155.271 E.01756
G1 X144.729 Y136.373 E.81499
G1 X144.153 Y136.373 E.01756
M73 P5 R13
G1 X163.627 Y155.847 E.83983
G1 X163.627 Y156.424 E.0176
G1 X143.576 Y136.373 E.86471
G1 X143 Y136.373 E.01756
G1 X163.627 Y157 E.88955
G1 X163.627 Y157.576 E.01756
G1 X142.424 Y136.373 E.91439
G1 X141.848 Y136.373 E.01756
G1 X163.627 Y158.152 E.93923
G1 X163.627 Y158.729 E.0176
G1 X141.271 Y136.373 E.96412
G1 X140.695 Y136.373 E.01756
M73 P6 R13
G1 X163.627 Y159.305 E.98896
G1 X163.627 Y159.881 E.01756
G1 X140.119 Y136.373 E1.0138
G1 X139.542 Y136.373 E.0176
G1 X163.627 Y160.458 E1.03868
G1 X163.627 Y161.034 E.01756
G1 X138.966 Y136.373 E1.06352
G1 X138.39 Y136.373 E.01756
M73 P6 R12
G1 X163.627 Y161.61 E1.08836
G1 X163.627 Y162.186 E.01756
M73 P7 R12
G1 X137.814 Y136.373 E1.1132
G1 X137.237 Y136.373 E.0176
G1 X163.627 Y162.763 E1.13808
G1 X163.627 Y163.339 E.01756
G1 X136.661 Y136.373 E1.16293
G1 X136.373 Y136.373 E.00878
G1 X136.373 Y136.661 E.00878
G1 X163.339 Y163.627 E1.16293
G1 X162.763 Y163.627 E.01756
M73 P8 R12
G1 X136.373 Y137.237 E1.13808
G1 X136.373 Y137.814 E.0176
G1 X162.186 Y163.627 E1.1132
G1 X161.61 Y163.627 E.01756
G1 X136.373 Y138.39 E1.08836
G1 X136.373 Y138.966 E.01756
G1 X161.034 Y163.627 E1.06352
G1 X160.457 Y163.627 E.0176
G1 X136.373 Y139.543 E1.03864
G1 X136.373 Y140.119 E.01756
M73 P9 R12
G1 X159.881 Y163.627 E1.0138
G1 X159.305 Y163.627 E.01756
G1 X136.373 Y140.695 E.98896
G1 X136.373 Y141.271 E.01756
G1 X158.729 Y163.627 E.96412
G1 X158.152 Y163.627 E.0176
G1 X136.373 Y141.848 E.93923
G1 X136.373 Y142.424 E.01756
G1 X157.576 Y163.627 E.91439
G1 X157 Y163.627 E.01756
M73 P10 R12
G1 X136.373 Y143 E.88955
G1 X136.373 Y143.576 E.01756
G1 X156.424 Y163.627 E.86471
G1 X155.847 Y163.627 E.0176
G1 X136.373 Y144.153 E.83983
G1 X136.373 Y144.729 E.01756
G1 X155.271 Y163.627 E.81499
G1 X154.695 Y163.627 E.01756
G1 X136.373 Y145.305 E.79015
G1 X136.373 Y145.882 E.0176
G1 X154.118 Y163.627 E.76526
G1 X153.542 Y163.627 E.01756
M73 P11 R12
G1 X136.373 Y146.458 E.74042
G1 X136.373 Y147.034 E.01756
G1 X152.966 Y163.627 E.71558
G1 X152.39 Y163.627 E.01756
G1 X136.373 Y147.61 E.69074
G1 X136.373 Y148.187 E.0176
G1 X151.813 Y163.627 E.66586
G1 X151.237 Y163.627 E.01756
G1 X136.373 Y148.763 E.64102
G1 X136.373 Y149.339 E.01756
G1 X150.661 Y163.627 E.61618
G1 X150.085 Y163.627 E.01756
G1 X136.373 Y149.915 E.59134
G1 X136.373 Y150.492 E.0176
M73 P12 R12
G1 X149.508 Y163.627 E.56645
G1 X148.932 Y163.627 E.01756
G1 X136.373 Y151.068 E.54161
G1 X136.373 Y151.644 E.01756
G1 X148.356 Y163.627 E.51677
G1 X147.779 Y163.627 E.0176
G1 X136.373 Y152.221 E.49189
G1 X136.373 Y152.797 E.01756
G1 X147.203 Y163.627 E.46705
G1 X146.627 Y163.627 E.01756
G1 X136.373 Y153.373 E.44221
G1 X136.373 Y153.949 E.01756
G1 X146.051 Y163.627 E.41737
G1 X145.474 Y163.627 E.0176
G1 X136.373 Y154.526 E.39249
G1 X136.373 Y155.102 E.01756
G1 X144.898 Y163.627 E.36765
G1 X144.322 Y163.627 E.01756
G1 X136.373 Y155.678 E.34281
G1 X136.373 Y156.254 E.01756
G1 X143.746 Y163.627 E.31797
G1 X143.169 Y163.627 E.0176
M73 P13 R12
G1 X136.373 Y156.831 E.29308
G1 X136.373 Y157.407 E.01756
G1 X142.593 Y163.627 E.26824
G1 X142.017 Y163.627 E.01756
G1 X136.373 Y157.983 E.2434
G1 X136.373 Y158.56 E.0176
G1 X141.44 Y163.627 E.21852
G1 X140.864 Y163.627 E.01756
G1 X136.373 Y159.136 E.19368
G1 X136.373 Y159.712 E.01756
G1 X140.288 Y163.627 E.16884
G1 X139.712 Y163.627 E.01756
G1 X136.373 Y160.288 E.144
G1 X136.373 Y160.865 E.0176
G1 X139.135 Y163.627 E.11911
G1 X138.559 Y163.627 E.01756
G1 X136.373 Y161.441 E.09427
G1 X136.373 Y162.017 E.01756
G1 X137.983 Y163.627 E.06943
G1 X137.407 Y163.627 E.01756
G1 X136.373 Y162.593 E.04459
G1 X136.373 Y163.17 E.0176
G1 X137.013 Y163.81 E.0276
M204 S15000
M106 S127.5
;LAYER_CHANGE
;Z:0.4
;HEIGHT:0.2
;BEFORE_LAYER_CHANGE
;0.4

;WIPE_START
G1 F24000
G1 X136.373 Y163.17 E-.25795
G1 X136.373 Y162.593 E-.16445
G1 X137.407 Y163.627 E-.41675
G1 X137.983 Y163.627 E-.16416
G1 X136.373 Y162.017 E-.64891
G1 X136.373 Y161.441 E-.16416
G1 X136.829 Y161.897 E-.18362
;WIPE_END
G1 Z.4 F12000
;AFTER_LAYER_CHANGE
;0.4
G92 E0
_ON_LAYER_CHANGE LAYER=2
G1 Z1.4
G1 X163.961 Y163.961 F30000
G1 Z.4 F12000
G1 E2 F7200
;TYPE:Perimeter
;WIDTH:0.449999
G1 F18000
G1 X136.039 Y163.961 E.85061
G1 X136.039 Y136.039 E.85061
G1 X163.961 Y136.039 E.85061
G1 X163.961 Y150 E.42531
G1 X163.961 Y163.901 E.42348
G1 X163.961 Y163.901 F30000
G1 X164.368 Y164.368
G1 F18000
G1 X135.632 Y164.368 E.87541
G1 X135.632 Y135.632 E.87541
G1 X164.368 Y135.632 E.87541
G1 X164.368 Y150 E.43771
G1 X164.368 Y164.308 E.43588
G1 X164.775 Y164.775 F30000
M204 S10000
;TYPE:External perimeter
G1 F18000
G1 X135.225 Y164.775 E.90021
G1 X135.225 Y135.225 E.90021
G1 X164.775 Y135.225 E.90021
G1 X164.775 Y150 E.4501
G1 X164.775 Y164.715 E.44828
M204 S15000
;WIPE_START
G1 F24000
G1 X164.775 Y164.775 E-.0171
G1 X157.817 Y164.775 E-1.9829
;WIPE_END
G1 Z1.4 F12000
G1 X136.483 Y136.406 F30000
G1 Z.4 F12000
G1 E2 F7200
;TYPE:Solid infill
;WIDTH:0.548766
G1 F18000
G1 X136.439 Y136.361 E.00238
G1 X136.378 Y136.378 E.0024
G1 X136.361 Y136.439 E.0024
G1 X136.406 Y136.483 E.00238
G1 X136.467 Y136.467 E.00239
;WIDTH:0.449999
G1 X136.373 Y137.117 E.02001
G1 X137.117 Y136.373 E.03205
G1 X137.693 Y136.373 E.01755
G1 X136.373 Y137.693 E.05687
G1 X136.373 Y138.269 E.01755
G1 X138.269 Y136.373 E.08168
G1 X138.844 Y136.373 E.01752
G1 X136.373 Y138.844 E.10646
G1 X136.373 Y139.42 E.01755
G1 X139.42 Y136.373 E.13127
G1 X139.996 Y136.373 E.01755
G1 X136.373 Y139.996 E.15609
G1 X136.373 Y140.571 E.01752
G1 X140.571 Y136.373 E.18086
G1 X141.147 Y136.373 E.01755
G1 X136.373 Y141.147 E.20568
G1 X136.373 Y141.723 E.01755
G1 X141.723 Y136.373 E.23049
G1 X142.299 Y136.373 E.01755
G1 X136.373 Y142.299 E.25531
G1 X136.373 Y142.874 E.01752
G1 X142.874 Y136.373 E.28008
G1 X143.45 Y136.373 E.01755
G1 X136.373 Y143.45 E.30489
G1 X136.373 Y144.026 E.01755
G1 X144.026 Y136.373 E.32971
G1 X144.601 Y136.373 E.01752
G1 X136.373 Y144.601 E.35448
G1 X136.373 Y145.177 E.01755
G1 X145.177 Y136.373 E.3793
G1 X145.753 Y136.373 E.01755
G1 X136.373 Y145.753 E.40411
G1 X136.373 Y146.328 E.01752
G1 X146.328 Y136.373 E.42889
G1 X146.904 Y136.373 E.01755
G1 X136.373 Y146.904 E.4537
G1 X136.373 Y147.48 E.01755
G1 X147.48 Y136.373 E.47852
G1 X148.056 Y136.373 E.01755
G1 X136.373 Y148.056 E.50333
G1 X136.373 Y148.631 E.01752
G1 X148.631 Y136.373 E.5281
G1 X149.207 Y136.373 E.01755
G1 X136.373 Y149.207 E.55292
G1 X136.373 Y149.783 E.01755
G1 X149.783 Y136.373 E.57774
G1 X150.358 Y136.373 E.01752
G1 X136.373 Y150.358 E.60251
G1 X136.373 Y150.934 E.01755
G1 X150.934 Y136.373 E.62732
G1 X151.51 Y136.373 E.01755
G1 X136.373 Y151.51 E.65214
G1 X136.373 Y152.085 E.01752
G1 X152.085 Y136.373 E.67691
G1 X152.661 Y136.373 E.01755
G1 X136.373 Y152.661 E.70173
G1 X136.373 Y153.237 E.01755
G1 X153.237 Y136.373 E.72654
G1 X153.812 Y136.373 E.01752
G1 X136.373 Y153.812 E.75131
G1 X136.373 Y154.388 E.01755
G1 X154.388 Y136.373 E.77613
G1 X154.964 Y136.373 E.01755
G1 X136.373 Y154.964 E.80095
G1 X136.373 Y155.54 E.01755
G1 X155.54 Y136.373 E.82576
G1 X156.115 Y136.373 E.01752
M73 P14 R12
G1 X136.373 Y156.115 E.85053
M73 P14 R11
G1 X136.373 Y156.691 E.01755
G1 X156.691 Y136.373 E.87535
G1 X157.267 Y136.373 E.01755
G1 X136.373 Y157.267 E.90016
G1 X136.373 Y157.842 E.01752
G1 X157.842 Y136.373 E.92494
G1 X158.418 Y136.373 E.01755
G1 X136.373 Y158.418 E.94975
G1 X136.373 Y158.994 E.01755
G1 X158.994 Y136.373 E.97457
G1 X159.569 Y136.373 E.01752
G1 X136.373 Y159.569 E.99934
G1 X136.373 Y160.145 E.01755
G1 X160.145 Y136.373 E1.02416
G1 X160.721 Y136.373 E.01755
G1 X136.373 Y160.721 E1.04897
G1 X136.373 Y161.297 E.01755
G1 X161.297 Y136.373 E1.07379
G1 X161.872 Y136.373 E.01752
G1 X136.373 Y161.872 E1.09856
G1 X136.373 Y162.448 E.01755
G1 X162.448 Y136.373 E1.12337
G1 X163.024 Y136.373 E.01755
G1 X136.373 Y163.024 E1.14819
G1 X136.373 Y163.599 E.01752
G1 X163.599 Y136.373 E1.17296
G1 X163.627 Y136.921 E.01672
G1 X136.921 Y163.627 E1.15056
G1 X137.497 Y163.627 E.01755
G1 X163.627 Y137.497 E1.12574
G1 X163.627 Y138.072 E.01752
G1 X138.072 Y163.627 E1.10097
G1 X138.648 Y163.627 E.01755
G1 X163.627 Y138.648 E1.07616
G1 X163.627 Y139.224 E.01755
G1 X139.224 Y163.627 E1.05134
G1 X139.799 Y163.627 E.01752
G1 X163.627 Y139.799 E1.02657
G1 X163.627 Y140.375 E.01755
G1 X140.375 Y163.627 E1.00175
G1 X140.951 Y163.627 E.01755
G1 X163.627 Y140.951 E.97694
G1 X163.627 Y141.527 E.01755
G1 X141.527 Y163.627 E.95212
G1 X142.102 Y163.627 E.01752
G1 X163.627 Y142.102 E.92735
G1 X163.627 Y142.678 E.01755
G1 X142.678 Y163.627 E.90253
G1 X143.254 Y163.627 E.01755
G1 X163.627 Y143.254 E.87772
G1 X163.627 Y143.829 E.01752
G1 X143.829 Y163.627 E.85295
G1 X144.405 Y163.627 E.01755
G1 X163.627 Y144.405 E.82813
G1 X163.627 Y144.981 E.01755
G1 X144.981 Y163.627 E.80332
G1 X145.556 Y163.627 E.01752
G1 X163.627 Y145.556 E.77854
G1 X163.627 Y146.132 E.01755
G1 X146.132 Y163.627 E.75373
G1 X146.708 Y163.627 E.01755
G1 X163.627 Y146.708 E.72891
G1 X163.627 Y147.283 E.01752
G1 X147.283 Y163.627 E.70414
G1 X147.859 Y163.627 E.01755
G1 X163.627 Y147.859 E.67932
G1 X163.627 Y148.435 E.01755
G1 X148.435 Y163.627 E.65451
G1 X149.011 Y163.627 E.01755
G1 X163.627 Y149.011 E.62969
G1 X163.627 Y149.586 E.01752
G1 X149.586 Y163.627 E.60492
G1 X150.162 Y163.627 E.01755
G1 X163.627 Y150.162 E.58011
G1 X163.627 Y150.738 E.01755
G1 X150.738 Y163.627 E.55529
G1 X151.313 Y163.627 E.01752
G1 X163.627 Y151.313 E.53052
G1 X163.627 Y151.889 E.01755
G1 X151.889 Y163.627 E.5057
G1 X152.465 Y163.627 E.01755
G1 X163.627 Y152.465 E.48089
G1 X163.627 Y153.04 E.01752
G1 X153.04 Y163.627 E.45611
G1 X153.616 Y163.627 E.01755
G1 X163.627 Y153.616 E.4313
G1 X163.627 Y154.192 E.01755
G1 X154.192 Y163.627 E.40648
G1 X154.768 Y163.627 E.01755
G1 X163.627 Y154.768 E.38167
G1 X163.627 Y155.343 E.01752
G1 X155.343 Y163.627 E.35689
G1 X155.919 Y163.627 E.01755
G1 X163.627 Y155.919 E.33208
G1 X163.627 Y156.495 E.01755
G1 X156.495 Y163.627 E.30726
G1 X157.07 Y163.627 E.01752
G1 X163.627 Y157.07 E.28249
G1 X163.627 Y157.646 E.01755
G1 X157.646 Y163.627 E.25768
G1 X158.222 Y163.627 E.01755
G1 X163.627 Y158.222 E.23286
G1 X163.627 Y158.797 E.01752
G1 X158.797 Y163.627 E.20809
G1 X159.373 Y163.627 E.01755
G1 X163.627 Y159.373 E.18327
G1 X163.627 Y159.949 E.01755
G1 X159.949 Y163.627 E.15846
G1 X160.525 Y163.627 E.01755
G1 X163.627 Y160.525 E.13364
G1 X163.627 Y161.1 E.01752
G1 X161.1 Y163.627 E.10887
G1 X161.676 Y163.627 E.01755
G1 X163.627 Y161.676 E.08405
G1 X163.627 Y163.627 E.05944
G1 X162.252 Y163.627 E.04189
G1 X163.483 Y162.396 E.05303
;LAYER_CHANGE
;Z:0.6
;HEIGHT:0.2
;BEFORE_LAYER_CHANGE
;0.6

;WIPE_START
G1 F24000
G1 X162.252 Y163.627 E-.49616
G1 X163.627 Y163.627 E-.39188
G1 X163.627 Y161.676 E-.55603
G1 X162.248 Y163.055 E-.55593
;WIPE_END
G1 Z.6 F12000
;AFTER_LAYER_CHANGE
;0.6
G92 E0
_ON_LAYER_CHANGE LAYER=3
G1 Z1.6
G1 X163.961 Y163.961 F30000
G1 Z.6 F12000
G1 E2 F7200
;TYPE:Perimeter
G1 F18000
G1 X136.039 Y163.961 E.85061
G1 X136.039 Y136.039 E.85061
G1 X163.961 Y136.039 E.85061
G1 X163.961 Y150 E.42531
G1 X163.961 Y163.901 E.42348
G1 X163.961 Y163.901 F30000
G1 X164.368 Y164.368
G1 F18000
G1 X135.632 Y164.368 E.87541
G1 X135.632 Y135.632 E.87541
G1 X164.368 Y135.632 E.87541
G1 X164.368 Y150 E.43771
G1 X164.368 Y164.308 E.43588
G1 X164.775 Y164.775 F30000
M204 S10000
;TYPE:External perimeter
G1 F18000
G1 X135.225 Y164.775 E.90021
G1 X135.225 Y135.225 E.90021
G1 X164.775 Y135.225 E.90021
G1 X164.775 Y150 E.4501
G1 X164.775 Y164.715 E.44828
M204 S15000
;WIPE_START
G1 F24000
G1 X164.775 Y164.775 E-.0171
G1 X157.817 Y164.775 E-1.9829
;WIPE_END
G1 Z1.6 F12000
G1 X136.406 Y163.517 F30000
G1 Z.6 F12000
G1 E2 F7200
;TYPE:Solid infill
;WIDTH:0.548766
G1 F18000
G1 X136.361 Y163.561 E.00238
G1 X136.378 Y163.622 E.0024
G1 X136.439 Y163.639 E.0024
G1 X136.483 Y163.594 E.00238
G1 X136.467 Y163.533 E.00239
;WIDTH:0.449999
G1 X136.373 Y162.883 E.02001
G1 X137.117 Y163.627 E.03205
G1 X137.693 Y163.627 E.01755
G1 X136.373 Y162.307 E.05687
G1 X136.373 Y161.731 E.01755
M73 P15 R11
G1 X138.269 Y163.627 E.08168
G1 X138.844 Y163.627 E.01752
G1 X136.373 Y161.156 E.10646
G1 X136.373 Y160.58 E.01755
G1 X139.42 Y163.627 E.13127
G1 X139.996 Y163.627 E.01755
G1 X136.373 Y160.004 E.15609
G1 X136.373 Y159.429 E.01752
G1 X140.571 Y163.627 E.18086
G1 X141.147 Y163.627 E.01755
G1 X136.373 Y158.853 E.20568
G1 X136.373 Y158.277 E.01755
G1 X141.723 Y163.627 E.23049
G1 X142.299 Y163.627 E.01755
G1 X136.373 Y157.701 E.25531
G1 X136.373 Y157.126 E.01752
G1 X142.874 Y163.627 E.28008
