; processed by RatOS.PostProcessor 1.0.0 on 2024-11-27 at 22:47:32 UTC v:3 m:36efc idex
; generated by SuperSlicer 2.5.60.0 on 2024-10-31 at 04:00:41 UTC            


;
;

;
;
; 

; external perimeters extrusion width = 0.45mm
; perimeters extrusion width = 0.45mm
; infill extrusion width = 0.45mm
; solid infill extrusion width = 0.45mm
; top infill extrusion width = 0.45mm
; support material extrusion width = 0.38mm
; first layer extrusion width = 0.45mm


M73 P0 R3
M107
;TYPE:Custom
; custom gcode: start_gcode
START_PRINT EXTRUDER_TEMP=265 BED_TEMP=120 X0=80.9548 Y0=80.9548 X1=99.0452 Y1=99.0452 TOTAL_LAYER_COUNT=90 FIRST_X=98.82 FIRST_Y=98.82 MIN_X=81.18 MAX_X=98.82                                                                                                                                                                                                      
; custom gcode end: start_gcode

; custom gcode: start_filament_gcode
; Filament gcode
SET_PRESSURE_ADVANCE ADVANCE=0.044
; custom gcode end: start_filament_gcode
;LAYER_CHANGE
;Z:0.2
;HEIGHT:0.2
; custom gcode: before_layer_gcode
;BEFORE_LAYER_CHANGE
; custom gcode end: before_layer_gcode

G1 E-0.8 F2400
M73 P9 R3
G1 Z0.2 F3000
; custom gcode: layer_gcode
;AFTER_LAYER_CHANGE
;0.2
G92 E0
_ON_LAYER_CHANGE LAYER=1
; custom gcode end: layer_gcode

M104 S265 ; set temperature
G1 Z0.6
M204 S2000
G1 X98.82 Y98.82 F30000
G1 Z0.2 F3000
G1 E0.8 F2400
; custom gcode: feature_gcode
SET_VELOCITY_LIMIT SQUARE_CORNER_VELOCITY=5 
; custom gcode end: feature_gcode

;TYPE:External perimeter
;WIDTH:0.45
G1 X81.18 Y98.82 E0.52844
G1 X81.18 Y81.18 E0.52844
M73 P10 R3
G1 X98.82 Y81.18 E0.52844
G1 X98.82 Y98.76 E0.52665
;WIPE_START
M204 S25000
G1 X98.47 Y98.62 F30000
;WIPE_END
G1 E-0.8 F2400
G1 Z0.6 F3000
; acceleration to travel
G1 X97.92 Y82.59 F30000
; decel to extrusion
M204 S2000
G1 X97.88 Y81.3
; end travel
G1 Z0.2 F3000
G1 E0.8 F2400
; custom gcode: feature_gcode
SET_VELOCITY_LIMIT SQUARE_CORNER_VELOCITY=30 
; custom gcode end: feature_gcode

;TYPE:Solid infill
;WIDTH:0.439081
G1 F3600
G1 X98.52 Y81.95 E0.02678
G1 X98.52 Y82.53 E0.01683
G1 X97.47 Y81.48 E0.04334
G1 X96.9 Y81.48 E0.01683
G1 X98.52 Y83.1 E0.06714
G1 X98.52 Y83.68 E0.01682
G1 X96.32 Y81.48 E0.09094
G1 X95.75 Y81.48 E0.01683
G1 X98.52 Y84.25 E0.11473
G1 X98.52 Y84.83 E0.01683
G1 X95.17 Y81.48 E0.13853
M73 P11 R3
G1 X94.6 Y81.48 E0.01683
G1 X98.52 Y85.4 E0.16232
G1 X98.52 Y85.98 E0.01683
G1 X94.02 Y81.48 E0.18613
G1 X93.44 Y81.48 E0.01682
G1 X98.52 Y86.56 E0.20993
G1 X98.52 Y87.13 E0.01682
G1 X92.87 Y81.48 E0.23373
G1 X92.29 Y81.48 E0.01682
G1 X98.52 Y87.71 E0.25752
G1 X98.52 Y88.28 E0.01683
G1 X91.72 Y81.48 E0.28131
G1 X91.14 Y81.48 E0.01683
G1 X98.52 Y88.86 E0.30511
G1 X98.52 Y89.43 E0.01683
G1 X90.57 Y81.48 E0.32891
G1 X89.99 Y81.48 E0.01683
G1 X98.52 Y90.01 E0.3527
G1 X98.52 Y90.59 E0.01683
G1 X89.41 Y81.48 E0.3765
G1 X88.84 Y81.48 E0.01683
G1 X98.52 Y91.16 E0.4003
M73 P12 R3
G1 X98.52 Y91.74 E0.01683
G1 X88.26 Y81.48 E0.4241
G1 X87.69 Y81.48 E0.01682
G1 X98.52 Y92.31 E0.4479
G1 X98.52 Y92.89 E0.01683
G1 X87.11 Y81.48 E0.47169
G1 X86.54 Y81.48 E0.01683
G1 X98.52 Y93.46 E0.49549
G1 X98.52 Y94.04 E0.01683
G1 X85.96 Y81.48 E0.51928
G1 X85.38 Y81.48 E0.01683
G1 X98.52 Y94.62 E0.54309
M73 P13 R3
G1 X98.52 Y95.19 E0.01682
G1 X84.81 Y81.48 E0.56689
G1 X84.23 Y81.48 E0.01682
G1 X98.52 Y95.77 E0.59068
G1 X98.52 Y96.34 E0.01683
G1 X83.66 Y81.48 E0.61448
G1 X83.08 Y81.48 E0.01682
G1 X98.52 Y96.92 E0.63828
G1 X98.52 Y97.49 E0.01683
G1 X82.51 Y81.48 E0.66207
G1 X81.93 Y81.48 E0.01682
M73 P14 R3
G1 X98.52 Y98.07 E0.68587
G1 X98.52 Y98.52 E0.01327
G1 X98.4 Y98.52 E0.00356
G1 X81.48 Y81.6 E0.69959
G1 X81.48 Y82.17 E0.01683
G1 X97.83 Y98.52 E0.67579
G1 X97.25 Y98.52 E0.01683
G1 X81.48 Y82.75 E0.652
G1 X81.48 Y83.33 E0.01682
G1 X96.67 Y98.52 E0.6282
M73 P15 R2
G1 X96.1 Y98.52 E0.01683
G1 X81.48 Y83.9 E0.6044
G1 X81.48 Y84.48 E0.01683
G1 X95.52 Y98.52 E0.5806
G1 X94.95 Y98.52 E0.01683
G1 X81.48 Y85.05 E0.55681
G1 X81.48 Y85.63 E0.01683
G1 X94.37 Y98.52 E0.53301
G1 X93.8 Y98.52 E0.01682
G1 X81.48 Y86.2 E0.50922
G1 X81.48 Y86.78 E0.01682
G1 X93.22 Y98.52 E0.48542
M73 P16 R2
G1 X92.64 Y98.52 E0.01683
G1 X81.48 Y87.36 E0.46161
G1 X81.48 Y87.93 E0.01683
G1 X92.07 Y98.52 E0.43782
G1 X91.49 Y98.52 E0.01683
G1 X81.48 Y88.51 E0.41402
G1 X81.48 Y89.08 E0.01683
G1 X90.92 Y98.52 E0.39023
G1 X90.34 Y98.52 E0.01682
G1 X81.48 Y89.66 E0.36643
G1 X81.48 Y90.23 E0.01683
G1 X89.77 Y98.52 E0.34263
G1 X89.19 Y98.52 E0.01683
G1 X81.48 Y90.81 E0.31883
G1 X81.48 Y91.39 E0.01683
G1 X88.61 Y98.52 E0.29504
M73 P17 R2
G1 X88.04 Y98.52 E0.01683
G1 X81.48 Y91.96 E0.27124
G1 X81.48 Y92.54 E0.01682
G1 X87.46 Y98.52 E0.24745
G1 X86.89 Y98.52 E0.01682
G1 X81.48 Y93.11 E0.22365
G1 X81.48 Y93.69 E0.01683
G1 X86.31 Y98.52 E0.19984
G1 X85.74 Y98.52 E0.01683
G1 X81.48 Y94.26 E0.17605
G1 X81.48 Y94.84 E0.01683
G1 X85.16 Y98.52 E0.15225
G1 X84.58 Y98.52 E0.01683
G1 X81.48 Y95.42 E0.12846
G1 X81.48 Y95.99 E0.01682
G1 X84.01 Y98.52 E0.10466
G1 X83.43 Y98.52 E0.01683
G1 X81.48 Y96.57 E0.08086
G1 X81.48 Y97.14 E0.01683
G1 X82.86 Y98.52 E0.05706
G1 X82.28 Y98.52 E0.01683
G1 X81.48 Y97.72 E0.03327
G1 X81.48 Y98.29 E0.01682
G1 X81.88 Y98.7 E0.01671
M106 S30.6
;LAYER_CHANGE
;Z:0.4
;HEIGHT:0.2
; custom gcode: before_layer_gcode
;BEFORE_LAYER_CHANGE
; custom gcode end: before_layer_gcode

G1 E-0.8 F2400
M204 S25000
G1 Z0.6 F3000
; custom gcode: layer_gcode
;AFTER_LAYER_CHANGE
;0.4
G92 E0
_ON_LAYER_CHANGE LAYER=2                                                                                                                                                                                                                                                          
; custom gcode end: layer_gcode

M104 S260 ; set temperature                                   
M140 S120 ; set bed temperature
G1 Z0.8
G1 X98.01 Y98.01 F30000
G1 Z0.4 F3000
G1 E0.8 F2400
; custom gcode: feature_gcode
SET_VELOCITY_LIMIT SQUARE_CORNER_VELOCITY=10
; custom gcode end: feature_gcode

;TYPE:Internal perimeter
;WIDTH:0.45
G1 F21000
G1 X81.99 Y98.01 E0.47966
G1 X81.99 Y81.99 E0.47967
G1 X98.01 Y81.99 E0.47966
G1 X98.01 Y97.95 E0.47786
M73 P18 R2
G1 X98.41 Y98.41 F30000
G1 F21000
G1 X81.59 Y98.41 E0.50406
G1 X81.59 Y81.59 E0.50405
G1 X98.41 Y81.59 E0.50405
G1 X98.41 Y98.35 E0.50225
M204 S10000
G1 X98.82 Y98.82 F30000
; custom gcode: feature_gcode
SET_VELOCITY_LIMIT SQUARE_CORNER_VELOCITY=5 
; custom gcode end: feature_gcode

;TYPE:External perimeter
G1 F21000
G1 X81.18 Y98.82 E0.52845
G1 X81.18 Y81.18 E0.52844
G1 X98.82 Y81.18 E0.52844
G1 X98.82 Y98.76 E0.52664
;WIPE_START
M204 S25000
G1 X98.47 Y98.62 F30000
;WIPE_END
G1 E-0.8 F2400
G1 X97.16 Y97.89 F30000
G1 E0.8 F2400
; custom gcode: feature_gcode
SET_VELOCITY_LIMIT SQUARE_CORNER_VELOCITY=30 
; custom gcode end: feature_gcode

;TYPE:Solid infill
;WIDTH:0.389354
G1 F21000
G1 X97.73 Y97.32 E0.02056
G1 X97.73 Y96.81 E0.01291
G1 X96.81 Y97.73 E0.03327
G1 X96.31 Y97.73 E0.01292
G1 X97.73 Y96.31 E0.05153
G1 X97.73 Y95.8 E0.01292
G1 X95.8 Y97.73 E0.0698
G1 X95.3 Y97.73 E0.01292
G1 X97.73 Y95.3 E0.08806
G1 X97.73 Y94.79 E0.01292
G1 X94.79 Y97.73 E0.10633
G1 X94.29 Y97.73 E0.01292
G1 X97.73 Y94.29 E0.1246
G1 X97.73 Y93.78 E0.01292
G1 X93.78 Y97.73 E0.14286
G1 X93.28 Y97.73 E0.01292
G1 X97.73 Y93.28 E0.16113
G1 X97.73 Y92.77 E0.01292
G1 X92.77 Y97.73 E0.1794
G1 X92.27 Y97.73 E0.01292
G1 X97.73 Y92.27 E0.19766
G1 X97.73 Y91.76 E0.01292
G1 X91.76 Y97.73 E0.21593
G1 X91.26 Y97.73 E0.01292
G1 X97.73 Y91.26 E0.23419
G1 X97.73 Y90.75 E0.01292
G1 X90.75 Y97.73 E0.25247
G1 X90.25 Y97.73 E0.01291
G1 X97.73 Y90.25 E0.27073
G1 X97.73 Y89.74 E0.01292
G1 X89.74 Y97.73 E0.289
G1 X89.24 Y97.73 E0.01291
G1 X97.73 Y89.24 E0.30727
G1 X97.73 Y88.73 E0.01291
G1 X88.73 Y97.73 E0.32553
G1 X88.23 Y97.73 E0.01292
G1 X97.73 Y88.23 E0.3438
G1 X97.73 Y87.72 E0.01291
G1 X87.72 Y97.73 E0.36206
G1 X87.22 Y97.73 E0.01292
G1 X97.73 Y87.22 E0.38033
G1 X97.73 Y86.71 E0.01292
G1 X86.71 Y97.73 E0.39859
G1 X86.21 Y97.73 E0.01292
G1 X97.73 Y86.21 E0.41686
G1 X97.73 Y85.7 E0.01292
G1 X85.7 Y97.73 E0.43512
G1 X85.2 Y97.73 E0.01292
G1 X97.73 Y85.2 E0.4534
G1 X97.73 Y84.69 E0.01291
G1 X84.69 Y97.73 E0.47166
G1 X84.19 Y97.73 E0.01292
G1 X97.73 Y84.19 E0.48993
G1 X97.73 Y83.68 E0.01291
G1 X83.68 Y97.73 E0.5082
M73 P19 R2
G1 X83.18 Y97.73 E0.01291
G1 X97.73 Y83.18 E0.52646
G1 X97.73 Y82.67 E0.01292
G1 X82.67 Y97.73 E0.54472
G1 X82.27 Y97.73 E0.0104
G1 X82.27 Y97.63 E0.00252
G1 X97.63 Y82.27 E0.55587
G1 X97.13 Y82.27 E0.01291
G1 X82.27 Y97.13 E0.5376
G1 X82.27 Y96.62 E0.01292
G1 X96.62 Y82.27 E0.51933
G1 X96.12 Y82.27 E0.01292
G1 X82.27 Y96.12 E0.50107
G1 X82.27 Y95.61 E0.01291
G1 X95.61 Y82.27 E0.4828
G1 X95.11 Y82.27 E0.01292
G1 X82.27 Y95.11 E0.46453
G1 X82.27 Y94.6 E0.01292
G1 X94.6 Y82.27 E0.44627
G1 X94.1 Y82.27 E0.01292
G1 X82.27 Y94.1 E0.428
G1 X82.27 Y93.59 E0.01291
G1 X93.59 Y82.27 E0.40974
G1 X93.09 Y82.27 E0.01292
G1 X82.27 Y93.09 E0.39146
G1 X82.27 Y92.58 E0.01292
G1 X92.58 Y82.27 E0.3732
G1 X92.08 Y82.27 E0.01292
G1 X82.27 Y92.08 E0.35494
G1 X82.27 Y91.57 E0.01291
G1 X91.57 Y82.27 E0.33667
G1 X91.07 Y82.27 E0.01292
G1 X82.27 Y91.07 E0.3184
G1 X82.27 Y90.56 E0.01292
G1 X90.56 Y82.27 E0.30014
G1 X90.06 Y82.27 E0.01291
G1 X82.27 Y90.06 E0.28187
G1 X82.27 Y89.55 E0.01292
G1 X89.55 Y82.27 E0.26361
G1 X89.05 Y82.27 E0.01291
G1 X82.27 Y89.05 E0.24534
G1 X82.27 Y88.54 E0.01292
G1 X88.54 Y82.27 E0.22707
G1 X88.04 Y82.27 E0.01292
G1 X82.27 Y88.04 E0.2088
G1 X82.27 Y87.53 E0.01292
G1 X87.53 Y82.27 E0.19054
G1 X87.03 Y82.27 E0.01291
G1 X82.27 Y87.03 E0.17228
G1 X82.27 Y86.52 E0.01291
G1 X86.52 Y82.27 E0.15401
G1 X86.02 Y82.27 E0.01292
G1 X82.27 Y86.02 E0.13574
G1 X82.27 Y85.51 E0.01291
G1 X85.51 Y82.27 E0.11748
G1 X85.01 Y82.27 E0.01291
G1 X82.27 Y85.01 E0.09921
G1 X82.27 Y84.5 E0.01292
G1 X84.5 Y82.27 E0.08094
G1 X84 Y82.27 E0.01292
G1 X82.27 Y84 E0.06267
G1 X82.27 Y83.49 E0.01292
G1 X83.49 Y82.27 E0.04441
G1 X82.99 Y82.27 E0.01291
G1 X82.27 Y82.99 E0.02614
G1 X82.27 Y82.48 E0.01292
G1 X82.64 Y82.11 E0.01343
M106 S61.2
;LAYER_CHANGE
;Z:0.6
;HEIGHT:0.2
; custom gcode: before_layer_gcode
;BEFORE_LAYER_CHANGE
; custom gcode end: before_layer_gcode

G1 E-0.8 F2400
G1 Z0.8 F3000
; custom gcode: layer_gcode
;AFTER_LAYER_CHANGE
;0.6
G92 E0
_ON_LAYER_CHANGE LAYER=3
; custom gcode end: layer_gcode

G1 Z1
G1 X98.01 Y98.01 F30000
G1 Z0.6 F3000
G1 E0.8 F2400
; custom gcode: feature_gcode
SET_VELOCITY_LIMIT SQUARE_CORNER_VELOCITY=10
; custom gcode end: feature_gcode

;TYPE:Internal perimeter
;WIDTH:0.45
G1 F21000
G1 X81.99 Y98.01 E0.47966
G1 X81.99 Y81.99 E0.47967
M73 P20 R2
G1 X98.01 Y81.99 E0.47966
G1 X98.01 Y97.95 E0.47786
G1 X98.41 Y98.41 F30000
G1 F21000
G1 X81.59 Y98.41 E0.50406
G1 X81.59 Y81.59 E0.50405
G1 X98.41 Y81.59 E0.50405
G1 X98.41 Y98.35 E0.50225
M204 S10000
G1 X98.82 Y98.82 F30000
; custom gcode: feature_gcode
SET_VELOCITY_LIMIT SQUARE_CORNER_VELOCITY=5 
; custom gcode end: feature_gcode

;TYPE:External perimeter
G1 F21000
G1 X81.18 Y98.82 E0.52845
G1 X81.18 Y81.18 E0.52844
G1 X98.82 Y81.18 E0.52844
G1 X98.82 Y98.76 E0.52664
;WIPE_START
M204 S25000
G1 X98.47 Y98.62 F30000
;WIPE_END
G1 E-0.8 F2400
G1 Z1 F3000
G1 X97.89 Y82.84 F30000
G1 Z0.6 F3000
G1 E0.8 F2400
; custom gcode: feature_gcode
SET_VELOCITY_LIMIT SQUARE_CORNER_VELOCITY=30 
; custom gcode end: feature_gcode

;TYPE:Solid infill
;WIDTH:0.389354
G1 F21000
G1 X97.32 Y82.27 E0.02056
G1 X96.81 Y82.27 E0.01291
G1 X97.73 Y83.19 E0.03327
G1 X97.73 Y83.69 E0.01292
G1 X96.31 Y82.27 E0.05153
G1 X95.8 Y82.27 E0.01292
G1 X97.73 Y84.2 E0.0698
G1 X97.73 Y84.7 E0.01292
G1 X95.3 Y82.27 E0.08806
G1 X94.79 Y82.27 E0.01292
G1 X97.73 Y85.21 E0.10633
G1 X97.73 Y85.71 E0.01292
G1 X94.29 Y82.27 E0.1246
G1 X93.78 Y82.27 E0.01292
G1 X97.73 Y86.22 E0.14286
G1 X97.73 Y86.72 E0.01292
G1 X93.28 Y82.27 E0.16113
G1 X92.77 Y82.27 E0.01292
G1 X97.73 Y87.23 E0.1794
G1 X97.73 Y87.73 E0.01292
G1 X92.27 Y82.27 E0.19766
G1 X91.76 Y82.27 E0.01292
G1 X97.73 Y88.24 E0.21593
G1 X97.73 Y88.74 E0.01292
G1 X91.26 Y82.27 E0.23419
G1 X90.75 Y82.27 E0.01292
G1 X97.73 Y89.25 E0.25247
G1 X97.73 Y89.75 E0.01291
G1 X90.25 Y82.27 E0.27073
G1 X89.74 Y82.27 E0.01292
G1 X97.73 Y90.26 E0.289
G1 X97.73 Y90.76 E0.01291
G1 X89.24 Y82.27 E0.30727
G1 X88.73 Y82.27 E0.01291
G1 X97.73 Y91.27 E0.32553
G1 X97.73 Y91.77 E0.01292
G1 X88.23 Y82.27 E0.3438
G1 X87.72 Y82.27 E0.01291
G1 X97.73 Y92.28 E0.36206
G1 X97.73 Y92.78 E0.01292
G1 X87.22 Y82.27 E0.38033
G1 X86.71 Y82.27 E0.01292
G1 X97.73 Y93.29 E0.39859
G1 X97.73 Y93.79 E0.01292
G1 X86.21 Y82.27 E0.41686
G1 X85.7 Y82.27 E0.01292
G1 X97.73 Y94.3 E0.43512
G1 X97.73 Y94.8 E0.01292
G1 X85.2 Y82.27 E0.4534
M73 P21 R2
G1 X84.69 Y82.27 E0.01291
G1 X97.73 Y95.31 E0.47166
G1 X97.73 Y95.81 E0.01292
G1 X84.19 Y82.27 E0.48993
G1 X83.68 Y82.27 E0.01291
G1 X97.73 Y96.32 E0.5082
G1 X97.73 Y96.82 E0.01291
G1 X83.18 Y82.27 E0.52646
G1 X82.67 Y82.27 E0.01292
G1 X97.73 Y97.33 E0.54472
G1 X97.73 Y97.73 E0.0104
G1 X97.63 Y97.73 E0.00252
G1 X82.27 Y82.37 E0.55587
G1 X82.27 Y82.87 E0.01291
G1 X97.13 Y97.73 E0.5376
G1 X96.62 Y97.73 E0.01292
G1 X82.27 Y83.38 E0.51933
G1 X82.27 Y83.88 E0.01292
G1 X96.12 Y97.73 E0.50107
G1 X95.61 Y97.73 E0.01291
G1 X82.27 Y84.39 E0.4828
G1 X82.27 Y84.89 E0.01292
G1 X95.11 Y97.73 E0.46453
G1 X94.6 Y97.73 E0.01292
G1 X82.27 Y85.4 E0.44627
G1 X82.27 Y85.9 E0.01292
G1 X94.1 Y97.73 E0.428
G1 X93.59 Y97.73 E0.01291
G1 X82.27 Y86.41 E0.40974
G1 X82.27 Y86.91 E0.01292
G1 X93.09 Y97.73 E0.39146
G1 X92.58 Y97.73 E0.01292
G1 X82.27 Y87.42 E0.3732
G1 X82.27 Y87.92 E0.01292
G1 X92.08 Y97.73 E0.35494
G1 X91.57 Y97.73 E0.01291
G1 X82.27 Y88.43 E0.33667
G1 X82.27 Y88.93 E0.01292
G1 X91.07 Y97.73 E0.3184
G1 X90.56 Y97.73 E0.01292
G1 X82.27 Y89.44 E0.30014
G1 X82.27 Y89.94 E0.01291
G1 X90.06 Y97.73 E0.28187
G1 X89.55 Y97.73 E0.01292
G1 X82.27 Y90.45 E0.26361
G1 X82.27 Y90.95 E0.01291
G1 X89.05 Y97.73 E0.24534
G1 X88.54 Y97.73 E0.01292
G1 X82.27 Y91.46 E0.22707
G1 X82.27 Y91.96 E0.01292
G1 X88.04 Y97.73 E0.2088
G1 X87.53 Y97.73 E0.01292
G1 X82.27 Y92.47 E0.19054
G1 X82.27 Y92.97 E0.01291
G1 X87.03 Y97.73 E0.17228
G1 X86.52 Y97.73 E0.01291
G1 X82.27 Y93.48 E0.15401
G1 X82.27 Y93.98 E0.01292
G1 X86.02 Y97.73 E0.13574
G1 X85.51 Y97.73 E0.01291
G1 X82.27 Y94.49 E0.11748
G1 X82.27 Y94.99 E0.01291
G1 X85.01 Y97.73 E0.09921
G1 X84.5 Y97.73 E0.01292
G1 X82.27 Y95.5 E0.08094
G1 X82.27 Y96 E0.01292
G1 X84 Y97.73 E0.06267
G1 X83.49 Y97.73 E0.01292
G1 X82.27 Y96.51 E0.04441
G1 X82.27 Y97.01 E0.01291
G1 X82.99 Y97.73 E0.02614
G1 X82.48 Y97.73 E0.01292
G1 X82.11 Y97.36 E0.01343
M106 S99.45
;LAYER_CHANGE
;Z:0.8
;HEIGHT:0.2
; custom gcode: before_layer_gcode
;BEFORE_LAYER_CHANGE
; custom gcode end: before_layer_gcode

G1 E-0.8 F2400
G1 Z1 F3000
; custom gcode: layer_gcode
;AFTER_LAYER_CHANGE
;0.8
G92 E0
_ON_LAYER_CHANGE LAYER=4
; custom gcode end: layer_gcode

G1 Z1.2
M73 P22 R2
G1 X98.01 Y98.01 F30000
G1 Z0.8 F3000
G1 E0.8 F2400
; custom gcode: feature_gcode
SET_VELOCITY_LIMIT SQUARE_CORNER_VELOCITY=10
; custom gcode end: feature_gcode

;TYPE:Internal perimeter
;WIDTH:0.45
G1 F21000
G1 X81.99 Y98.01 E0.47966
G1 X81.99 Y81.99 E0.47967
G1 X98.01 Y81.99 E0.47966
G1 X98.01 Y97.95 E0.47786
G1 X98.41 Y98.41 F30000
G1 F21000
G1 X81.59 Y98.41 E0.50406
G1 X81.59 Y81.59 E0.50405
G1 X98.41 Y81.59 E0.50405
G1 X98.41 Y98.35 E0.50225
M204 S10000
G1 X98.82 Y98.82 F30000
; custom gcode: feature_gcode
SET_VELOCITY_LIMIT SQUARE_CORNER_VELOCITY=5 
; custom gcode end: feature_gcode

;TYPE:External perimeter
G1 F21000
G1 X81.18 Y98.82 E0.52845
G1 X81.18 Y81.18 E0.52844
G1 X98.82 Y81.18 E0.52844
G1 X98.82 Y98.76 E0.52664
;WIPE_START
M204 S25000
G1 X98.47 Y98.62 F30000
;WIPE_END
G1 E-0.8 F2400
G1 Z1.2 F3000
G1 X97.7 Y93.8 F30000
G1 Z0.8 F3000
G1 E0.8 F2400
; custom gcode: feature_gcode
SET_VELOCITY_LIMIT SQUARE_CORNER_VELOCITY=30 
; custom gcode end: feature_gcode

;TYPE:Internal infill
G1 F21000
G1 X97.7 Y95.8 E0.05991
G1 X82.3 Y95.8 E0.46137
G1 X82.3 Y93.8 E0.05992
G1 X82.3 Y93.74 F30000
G1 F21000
G1 X82.3 Y91.74 E0.05991
G1 X87.75 Y82.3 E0.32661
G1 X89.75 Y82.3 E0.05992
