; generated by SuperSlicer 2.5.60.0 on 2024-11-03 at 07:16:57 UTC


;
;

;
;
; 

; external perimeters extrusion width = 0.50mm
; perimeters extrusion width = 0.50mm
; infill extrusion width = 0.50mm
; solid infill extrusion width = 0.50mm
; top infill extrusion width = 0.50mm
; support material extrusion width = 0.38mm
; first layer extrusion width = 0.50mm

; external perimeters extrusion width = 0.50mm
; perimeters extrusion width = 0.50mm
; infill extrusion width = 0.50mm
; solid infill extrusion width = 0.50mm
; top infill extrusion width = 0.50mm
; support material extrusion width = 0.38mm
; first layer extrusion width = 0.50mm


M73 P0 R2
M107
;TYPE:Custom
; custom gcode: start_gcode
; ESTIMATOR_ADD_TIME 300 Print start
START_PRINT EXTRUDER_TEMP=255,255 EXTRUDER_OTHER_LAYER_TEMP=250,250 BED_TEMP=85 INITIAL_TOOL=1 TOTAL_LAYER_COUNT=50 X0=144.965 Y0=145.2 X1=155.336 Y1=176.385 TOTAL_TOOLSHIFTS=13 FIRST_X=145.651 FIRST_Y=165.699 MIN_X=145.151 MAX_X=155.151 USED_TOOLS=1,0 WIPE_ACCEL=0
; custom gcode end: start_gcode

; custom gcode: toolchange_gcode
; Removed by RatOS post processor: T1
; custom gcode end: toolchange_gcode
; custom gcode: start_filament_gcode
; Filament gcode
SET_PRESSURE_ADVANCE ADVANCE=0.04 
; custom gcode end: start_filament_gcode
G1 Z0.2 F3000
;LAYER_CHANGE
;Z:0.2
;HEIGHT:0.2
M73 P12 R2
G1 E-1 F7200
G1 Z0.4 F3000
; custom gcode: layer_gcode
;AFTER_LAYER_CHANGE
;0.2
G92 E0
_ON_LAYER_CHANGE LAYER=1
; custom gcode end: layer_gcode

G1 X145.651 Y165.699 F30000
G1 Z0.2 F3000
G1 E1 F7200
; custom gcode: tcr_rotated_gcode
;HEIGHT:0.2
;TYPE:Wipe tower
;WIDTH:0.5
G1  X154.651 Y165.699  E0.3421 F3000
G1  Y175.699  E0.3801
G1  X145.651  E0.3421
G1  Y165.699  E0.3801
G1  X154.651 
M73 P13 R2
G1  Y175.699 
G1  X153.651 
;--------------------
; CP EMPTY GRID START
; layer #1
G1  Y175.199  E0.019
G1  X146.151  E0.285
G1  Y174.699  E0.019
G1  X154.151  E0.3041
G1  Y174.199  E0.019
G1  X146.151  E0.3041
G1  Y173.699  E0.019
G1  X154.151  E0.3041
G1  Y173.199  E0.019
G1  X146.151  E0.3041
G1  Y172.699  E0.019
G1  X154.151  E0.3041
G1  Y172.199  E0.019
G1  X146.151  E0.3041
G1  Y171.699  E0.019
G1  X154.151  E0.3041
M73 P14 R2
G1  Y171.199  E0.019
G1  X146.151  E0.3041
G1  Y170.699  E0.019
G1  X154.151  E0.3041
G1  Y170.199  E0.019
G1  X146.151  E0.3041
G1  Y169.699  E0.019
G1  X154.151  E0.3041
G1  Y169.199  E0.019
G1  X146.151  E0.3041
G1  Y168.699  E0.019
G1  X154.151  E0.3041
G1  Y168.199  E0.019
G1  X146.151  E0.3041
G1  Y167.699  E0.019
G1  X154.151  E0.3041
G1  Y167.199  E0.019
G1  X146.151  E0.3041
G1  Y166.699  E0.019
G1  X154.151  E0.3041
M73 P15 R2
G1  Y166.199  E0.019
G1  X146.151  E0.3041
G1  Y165.699  E0.019
; CP EMPTY GRID END
;------------------






G1  X145.151 
G1  Y165.199 
G1  X155.151  E0.3801
G1  Y176.199  E0.4181
G1  X145.151  E0.3801
G1  Y165.199  E0.4181
;-------------------------------------
; CP WIPE TOWER FIRST LAYER BRIM START
; CP WIPE TOWER FIRST LAYER BRIM END
;-----------------------------------

; custom gcode end: tcr_rotated_gcode
M104 S255 T1 ; set temperature
G1 E-1 F7200
G1 Z0.4 F3000
; acceleration to travel
M204 S40000
G1 X154.098 Y155.062 F30000
; decel to extrusion
M204 S2000
G1 X154.55 Y154.55
; end travel
G1 Z0.2 F3000
G1 E1 F7200
; custom gcode: feature_gcode
;BETWEEN_EXTRUSION_ROLE
G92 E0
; custom gcode end: feature_gcode

;TYPE:External perimeter
;WIDTH:0.5
;HEIGHT:0.2
G1 F3000
G1 X145.45 Y154.55 E0.31127
G1 X145.45 Y145.45 E0.31127
M73 P16 R2
G1 X154.55 Y145.45 E0.31128
G1 X154.55 Y154.49 E0.30921
G1 E-1 F7200
M204 S40000
G1 Z0.4 F3000
; acceleration to travel
G1 X153.511 Y146.054 F30000
; decel to extrusion
M204 S2000
G1 X153.457 Y145.619
; end travel
G1 Z0.2 F3000
G1 E1 F7200
; custom gcode: feature_gcode
;BETWEEN_EXTRUSION_ROLE
G92 E0
; custom gcode end: feature_gcode

;TYPE:Solid infill
;WIDTH:0.480851
G1 F6000
G1 X154.184 Y146.347 E0.03384
G1 X154.184 Y146.993 E0.02127
G1 X153.007 Y145.816 E0.05476
G1 X152.361 Y145.816 E0.02127
G1 X154.184 Y147.639 E0.08484
G1 X154.184 Y148.286 E0.02126
G1 X151.714 Y145.816 E0.11492
G1 X151.068 Y145.816 E0.02126
G1 X154.184 Y148.932 E0.14499
G1 X154.184 Y149.579 E0.02126
G1 X150.421 Y145.816 E0.17506
G1 X149.775 Y145.816 E0.02126
G1 X154.184 Y150.225 E0.20513
G1 X154.184 Y150.871 E0.02126
G1 X149.129 Y145.816 E0.2352
G1 X148.482 Y145.816 E0.02127
G1 X154.184 Y151.518 E0.26527
G1 X154.184 Y152.164 E0.02127
G1 X147.836 Y145.816 E0.29534
M73 P17 R2
G1 X147.189 Y145.816 E0.02126
G1 X154.184 Y152.811 E0.32542
G1 X154.184 Y153.457 E0.02126
G1 X146.543 Y145.816 E0.35549
G1 X145.897 Y145.816 E0.02127
G1 X154.184 Y154.103 E0.38556
G1 X154.184 Y154.184 E0.00266
G1 X153.619 Y154.184 E0.0186
G1 X145.816 Y146.381 E0.36302
G1 X145.816 Y147.028 E0.02126
G1 X152.972 Y154.184 E0.33295
G1 X152.326 Y154.184 E0.02126
G1 X145.816 Y147.674 E0.30288
G1 X145.816 Y148.32 E0.02126
G1 X151.68 Y154.184 E0.27281
G1 X151.033 Y154.184 E0.02126
G1 X145.816 Y148.967 E0.24273
G1 X145.816 Y149.613 E0.02127
G1 X150.387 Y154.184 E0.21266
G1 X149.74 Y154.184 E0.02126
G1 X145.816 Y150.26 E0.18259
G1 X145.816 Y150.906 E0.02126
M73 P18 R2
G1 X149.094 Y154.184 E0.15252
G1 X148.448 Y154.184 E0.02126
G1 X145.816 Y151.552 E0.12245
G1 X145.816 Y152.199 E0.02126
G1 X147.801 Y154.184 E0.09237
G1 X147.155 Y154.184 E0.02127
G1 X145.816 Y152.845 E0.0623
G1 X145.816 Y153.492 E0.02126
G1 X146.508 Y154.184 E0.03223
G1 X145.862 Y154.184 E0.02126
G1 X145.619 Y153.941 E0.0113
M106 S43.35
;LAYER_CHANGE
;Z:0.4
;HEIGHT:0.2
G1 E-1 F7200
M204 S40000
G1 Z0.4 F3000
; custom gcode: layer_gcode
;AFTER_LAYER_CHANGE
;0.4
G92 E0
_ON_LAYER_CHANGE LAYER=2
M104 S250 T1
M104 S250 T0
; custom gcode end: layer_gcode

; Removed by RatOS post processor: M104 S250 T0 ; set temperature
M140 S80 ; set bed temperature
G1 Z0.6
G1 X154.651 Y175.699 F30000
G1 Z0.4 F3000
G1 E1 F7200
; custom gcode: tcr_rotated_gcode
;HEIGHT:0.2
;TYPE:Wipe tower
;WIDTH:0.5
G1  X145.651 Y175.699  E0.3421 F4800
G1  Y165.699  E0.3801
G1  X154.651  E0.3421
G1  Y175.699  E0.3801
G1  X145.651 
G1  Y165.699 
G1  X146.651 
;--------------------
; CP EMPTY GRID START
; layer #2
G1  Y175.699  E0.3801
G1  X153.651 
G1  Y165.699  E0.3801
; CP EMPTY GRID END
;------------------






M73 P19 R2
G1  X155.151 
G1  Y165.199 
G1  Y176.199  E0.4181
G1  X148.202  E0.26412
M106 S89.25
G1  X145.151  E0.11598
G1  Y165.199  E0.4181
G1  X155.151  E0.3801

; custom gcode end: tcr_rotated_gcode
G1 E-1 F7200
G1 Z0.6 F3000
G1 X153.961 Y153.961 F30000
G1 Z0.4 F3000
G1 E1 F7200
; custom gcode: feature_gcode
;BETWEEN_EXTRUSION_ROLE
G92 E0
; custom gcode end: feature_gcode

;TYPE:Internal perimeter
;WIDTH:0.45
;HEIGHT:0.2
G1 F24000
G1 X146.039 Y153.961 E0.24133
G1 X146.039 Y146.039 E0.24132
G1 X153.961 Y146.039 E0.24133
G1 X153.961 Y153.901 E0.2395
G1 X154.368 Y154.368 F30000
G1 F24000
G1 X145.632 Y154.368 E0.26612
G1 X145.632 Y145.632 E0.26613
G1 X154.368 Y145.632 E0.26613
G1 X154.368 Y154.308 E0.2643
M204 S10000
G1 X154.775 Y154.775 F30000
; custom gcode: feature_gcode
;BETWEEN_EXTRUSION_ROLE
G92 E0
; custom gcode end: feature_gcode

;TYPE:Overhang perimeter
G1 F15000
G1 X145.225 Y154.775 E0.29093
G1 X145.225 Y145.225 E0.29093
G1 X154.775 Y145.225 E0.29093
G1 X154.775 Y154.715 E0.28911
M106 S43.35
G1 E-1 F7200
M204 S40000
G1 Z0.6 F3000
G1 X152.987 Y153.81 F30000
G1 Z0.4 F3000
G1 E1 F7200
; custom gcode: feature_gcode
;BETWEEN_EXTRUSION_ROLE
G92 E0
; custom gcode end: feature_gcode

;TYPE:Solid infill
;WIDTH:0.432911
G1 F24000
G1 X153.635 Y153.162 E0.02685
G1 X153.635 Y152.587 E0.01687
G1 X152.587 Y153.635 E0.04346
G1 X152.011 Y153.635 E0.01687
G1 X153.635 Y152.011 E0.06732
G1 X153.635 Y151.435 E0.01687
G1 X151.435 Y153.635 E0.09118
G1 X150.86 Y153.635 E0.01687
G1 X153.635 Y150.86 E0.11504
G1 X153.635 Y150.284 E0.01687
G1 X150.284 Y153.635 E0.1389
G1 X149.708 Y153.635 E0.01688
G1 X153.635 Y149.708 E0.16276
G1 X153.635 Y149.133 E0.01687
G1 X149.133 Y153.635 E0.18662
G1 X148.557 Y153.635 E0.01687
G1 X153.635 Y148.557 E0.21048
G1 X153.635 Y147.981 E0.01687
G1 X147.981 Y153.635 E0.23434
G1 X147.405 Y153.635 E0.01688
G1 X153.635 Y147.405 E0.2582
G1 X153.635 Y146.83 E0.01687
G1 X146.83 Y153.635 E0.28206
M73 P20 R2
G1 X146.365 Y153.635 E0.01363
G1 X146.365 Y153.524 E0.00325
G1 X153.524 Y146.365 E0.29674
G1 X152.949 Y146.365 E0.01687
G1 X146.365 Y152.949 E0.27288
G1 X146.365 Y152.373 E0.01687
G1 X152.373 Y146.365 E0.24902
G1 X151.797 Y146.365 E0.01687
G1 X146.365 Y151.797 E0.22516
G1 X146.365 Y151.222 E0.01688
G1 X151.222 Y146.365 E0.20129
G1 X150.646 Y146.365 E0.01688
G1 X146.365 Y150.646 E0.17744
G1 X146.365 Y150.07 E0.01687
G1 X150.07 Y146.365 E0.15357
G1 X149.495 Y146.365 E0.01688
G1 X146.365 Y149.495 E0.12971
G1 X146.365 Y148.919 E0.01688
G1 X148.919 Y146.365 E0.10585
G1 X148.343 Y146.365 E0.01687
G1 X146.365 Y148.343 E0.082
G1 X146.365 Y147.767 E0.01687
G1 X147.767 Y146.365 E0.05814
G1 X147.192 Y146.365 E0.01687
G1 X146.365 Y147.192 E0.03428
G1 X146.365 Y146.616 E0.01687
G1 X146.791 Y146.19 E0.01767
M106 S89.25
;LAYER_CHANGE
;Z:0.6
;HEIGHT:0.2
G1 E-1 F7200
G1 Z0.6 F3000
; custom gcode: layer_gcode
;AFTER_LAYER_CHANGE
;0.6
G92 E0
_ON_LAYER_CHANGE LAYER=3
; custom gcode end: layer_gcode

G1 Z0.8
G1 X145.651 Y165.699 F30000
G1 Z0.6 F3000
G1 E1 F7200
; custom gcode: tcr_rotated_gcode
;HEIGHT:0.2
;TYPE:Wipe tower
;WIDTH:0.5
G1  X154.651 Y165.699  E0.3421 F4800
G1  Y175.699  E0.3801
G1  X145.651  E0.3421
G1  Y165.699  E0.3801
G1  X154.651 
G1  Y175.699 
G1  X153.651 
;--------------------
; CP EMPTY GRID START
; layer #3
G1  Y165.699  E0.3801
G1  X146.651 
G1  Y175.699  E0.3801
; CP EMPTY GRID END
;------------------






G1  X145.151 
M73 P21 R2
G1  Y176.199 
G1  Y165.199  E0.4181
G1  X155.151  E0.3801
G1  Y176.199  E0.4181
G1  X145.151  E0.3801

; custom gcode end: tcr_rotated_gcode
G1 E-1 F7200
G1 Z0.8 F3000
G1 X153.961 Y153.961 F30000
G1 Z0.6 F3000
G1 E1 F7200
; custom gcode: feature_gcode
;BETWEEN_EXTRUSION_ROLE
G92 E0
; custom gcode end: feature_gcode

;TYPE:Internal perimeter
;WIDTH:0.45
;HEIGHT:0.2
G1 F24000
G1 X146.039 Y153.961 E0.24133
G1 X146.039 Y146.039 E0.24132
G1 X153.961 Y146.039 E0.24133
G1 X153.961 Y153.901 E0.2395
G1 X154.368 Y154.368 F30000
G1 F24000
G1 X145.632 Y154.368 E0.26612
G1 X145.632 Y145.632 E0.26613
G1 X154.368 Y145.632 E0.26613
G1 X154.368 Y154.308 E0.2643
; acceleration to travel
G1 X154.694 Y154.682 F30000
; decel to extrusion
M204 S10000
G1 X154.775 Y154.775
; end travel
; custom gcode: feature_gcode
;BETWEEN_EXTRUSION_ROLE
G92 E0
; custom gcode end: feature_gcode

;TYPE:External perimeter
G1 F24000
G1 X145.225 Y154.775 E0.29093
G1 X145.225 Y145.225 E0.29093
G1 X154.775 Y145.225 E0.29093
G1 X154.775 Y154.715 E0.28911
G1 E-1 F7200
M204 S40000
G1 Z0.8 F3000
G1 X153.81 Y147.013 F30000
G1 Z0.6 F3000
G1 E1 F7200
; custom gcode: feature_gcode
;BETWEEN_EXTRUSION_ROLE
G92 E0
; custom gcode end: feature_gcode

;TYPE:Solid infill
;WIDTH:0.432911
G1 F24000
G1 X153.162 Y146.365 E0.02685
G1 X152.587 Y146.365 E0.01687
G1 X153.635 Y147.413 E0.04346
G1 X153.635 Y147.989 E0.01687
G1 X152.011 Y146.365 E0.06732
G1 X151.435 Y146.365 E0.01687
G1 X153.635 Y148.565 E0.09118
G1 X153.635 Y149.14 E0.01687
G1 X150.86 Y146.365 E0.11504
G1 X150.284 Y146.365 E0.01687
G1 X153.635 Y149.716 E0.1389
G1 X153.635 Y150.292 E0.01688
G1 X149.708 Y146.365 E0.16276
G1 X149.133 Y146.365 E0.01687
G1 X153.635 Y150.867 E0.18662
G1 X153.635 Y151.443 E0.01687
G1 X148.557 Y146.365 E0.21048
G1 X147.981 Y146.365 E0.01687
G1 X153.635 Y152.019 E0.23434
G1 X153.635 Y152.595 E0.01688
G1 X147.405 Y146.365 E0.2582
G1 X146.83 Y146.365 E0.01687
G1 X153.635 Y153.17 E0.28206
G1 X153.635 Y153.635 E0.01363
G1 X153.524 Y153.635 E0.00325
G1 X146.365 Y146.476 E0.29674
M73 P22 R2
G1 X146.365 Y147.051 E0.01687
G1 X152.949 Y153.635 E0.27288
G1 X152.373 Y153.635 E0.01687
G1 X146.365 Y147.627 E0.24902
G1 X146.365 Y148.203 E0.01687
G1 X151.797 Y153.635 E0.22516
G1 X151.222 Y153.635 E0.01688
G1 X146.365 Y148.778 E0.20129
G1 X146.365 Y149.354 E0.01688
G1 X150.646 Y153.635 E0.17744
G1 X150.07 Y153.635 E0.01687
G1 X146.365 Y149.93 E0.15357
G1 X146.365 Y150.505 E0.01688
G1 X149.495 Y153.635 E0.12971
G1 X148.919 Y153.635 E0.01688
G1 X146.365 Y151.081 E0.10585
G1 X146.365 Y151.657 E0.01687
G1 X148.343 Y153.635 E0.082
G1 X147.767 Y153.635 E0.01687
G1 X146.365 Y152.233 E0.05814
G1 X146.365 Y152.808 E0.01687
G1 X147.192 Y153.635 E0.03428
G1 X146.616 Y153.635 E0.01687
G1 X146.19 Y153.209 E0.01767
;LAYER_CHANGE
;Z:0.8
;HEIGHT:0.2
G1 E-1 F7200
G1 Z0.8 F3000
; custom gcode: layer_gcode
;AFTER_LAYER_CHANGE
;0.8
G92 E0
_ON_LAYER_CHANGE LAYER=4
; custom gcode end: layer_gcode

G1 Z1
G1 X154.651 Y175.699 F30000
G1 Z0.8 F3000
G1 E1 F7200
; custom gcode: tcr_rotated_gcode
;HEIGHT:0.2
;TYPE:Wipe tower
;WIDTH:0.5
G1  X145.651 Y175.699  E0.3421 F4800
G1  Y165.699  E0.3801
G1  X154.651  E0.3421
G1  Y175.699  E0.3801
G1  X145.651 
G1  Y165.699 
G1  X146.651 
;--------------------
; CP EMPTY GRID START
; layer #4
G1  Y175.699  E0.3801
G1  X153.651 
G1  Y165.699  E0.3801
; CP EMPTY GRID END
;------------------






G1  X155.151 
G1  Y165.199 
G1  Y176.199  E0.4181
M73 P23 R2
G1  X145.151  E0.3801
G1  Y165.199  E0.4181
G1  X155.151  E0.3801

; custom gcode end: tcr_rotated_gcode
G1 E-1 F7200
G1 Z1 F3000
G1 X153.961 Y153.961 F30000
G1 Z0.8 F3000
G1 E1 F7200
; custom gcode: feature_gcode
;BETWEEN_EXTRUSION_ROLE
G92 E0
; custom gcode end: feature_gcode

;TYPE:Internal perimeter
;WIDTH:0.45
;HEIGHT:0.2
G1 F24000
G1 X146.039 Y153.961 E0.24133
G1 X146.039 Y146.039 E0.24132
G1 X153.961 Y146.039 E0.24133
G1 X153.961 Y153.901 E0.2395
G1 X154.368 Y154.368 F30000
G1 F24000
G1 X145.632 Y154.368 E0.26612
G1 X145.632 Y145.632 E0.26613
G1 X154.368 Y145.632 E0.26613
G1 X154.368 Y154.308 E0.2643
; acceleration to travel
G1 X154.694 Y154.682 F30000
; decel to extrusion
M204 S10000
G1 X154.775 Y154.775
; end travel
; custom gcode: feature_gcode
;BETWEEN_EXTRUSION_ROLE
G92 E0
; custom gcode end: feature_gcode

;TYPE:External perimeter
G1 F24000
G1 X145.225 Y154.775 E0.29093
G1 X145.225 Y145.225 E0.29093
G1 X154.775 Y145.225 E0.29093
G1 X154.775 Y154.715 E0.28911
G1 E-1 F7200
M204 S40000
G1 Z1 F3000
G1 X152.987 Y153.81 F30000
G1 Z0.8 F3000
G1 E1 F7200
; custom gcode: feature_gcode
;BETWEEN_EXTRUSION_ROLE
G92 E0
; custom gcode end: feature_gcode

;TYPE:Solid infill
;WIDTH:0.432911
G1 F24000
G1 X153.635 Y153.162 E0.02685
G1 X153.635 Y152.587 E0.01687
G1 X152.587 Y153.635 E0.04346
G1 X152.011 Y153.635 E0.01687
G1 X153.635 Y152.011 E0.06732
G1 X153.635 Y151.435 E0.01687
G1 X151.435 Y153.635 E0.09118
G1 X150.86 Y153.635 E0.01687
G1 X153.635 Y150.86 E0.11504
G1 X153.635 Y150.284 E0.01687
G1 X150.284 Y153.635 E0.1389
G1 X149.708 Y153.635 E0.01688
G1 X153.635 Y149.708 E0.16276
G1 X153.635 Y149.133 E0.01687
G1 X149.133 Y153.635 E0.18662
G1 X148.557 Y153.635 E0.01687
G1 X153.635 Y148.557 E0.21048
G1 X153.635 Y147.981 E0.01687
G1 X147.981 Y153.635 E0.23434
G1 X147.405 Y153.635 E0.01688
G1 X153.635 Y147.405 E0.2582
G1 X153.635 Y146.83 E0.01687
G1 X146.83 Y153.635 E0.28206
G1 X146.365 Y153.635 E0.01363
G1 X146.365 Y153.524 E0.00325
G1 X153.524 Y146.365 E0.29674
G1 X152.949 Y146.365 E0.01687
G1 X146.365 Y152.949 E0.27288
G1 X146.365 Y152.373 E0.01687
M73 P24 R2
G1 X152.373 Y146.365 E0.24902
G1 X151.797 Y146.365 E0.01687
G1 X146.365 Y151.797 E0.22516
G1 X146.365 Y151.222 E0.01688
G1 X151.222 Y146.365 E0.20129
G1 X150.646 Y146.365 E0.01688
G1 X146.365 Y150.646 E0.17744
G1 X146.365 Y150.07 E0.01687
G1 X150.07 Y146.365 E0.15357
G1 X149.495 Y146.365 E0.01688
G1 X146.365 Y149.495 E0.12971
G1 X146.365 Y148.919 E0.01688
G1 X148.919 Y146.365 E0.10585
G1 X148.343 Y146.365 E0.01687
G1 X146.365 Y148.343 E0.082
G1 X146.365 Y147.767 E0.01687
G1 X147.767 Y146.365 E0.05814
G1 X147.192 Y146.365 E0.01687
G1 X146.365 Y147.192 E0.03428
G1 X146.365 Y146.616 E0.01687
G1 X146.791 Y146.19 E0.01767
;LAYER_CHANGE
;Z:1
;HEIGHT:0.2
G1 E-1 F7200
G1 Z1 F3000
; custom gcode: layer_gcode
;AFTER_LAYER_CHANGE
;1
G92 E0
_ON_LAYER_CHANGE LAYER=5
; custom gcode end: layer_gcode

G1 Z1.2
G1 X145.651 Y165.699 F30000
G1 Z1 F3000
G1 E1 F7200
