; processed by RatOS 2.0.2-621-gccf190ba on 2024-11-23 at 12:18:33 UTC v:2 m:2fa77
; HEADER_BLOCK_START                 
; generated by OrcaSlicer 2.2.0 on 2024-11-03 at 09:52:14
; total layer number: 50
; filament_density: 1.27,1.27
; filament_diameter: 1.75,1.75
; max_z_height: 10.00
; HEADER_BLOCK_END

; THUMBNAIL_BLOCK_START

;
; THUMBNAIL_BLOCK_END

; THUMBNAIL_BLOCK_START

;
; THUMBNAIL_BLOCK_END

; external perimeters extrusion width = 0.40mm
; perimeters extrusion width = 0.40mm
; infill extrusion width = 0.40mm
; solid infill extrusion width = 0.40mm
; top infill extrusion width = 0.40mm
; first layer extrusion width = 0.45mm

; external perimeters extrusion width = 0.40mm
; perimeters extrusion width = 0.40mm
; infill extrusion width = 0.40mm
; solid infill extrusion width = 0.40mm
; top infill extrusion width = 0.40mm
; first layer extrusion width = 0.45mm

; EXECUTABLE_BLOCK_START
M73 P0 R22
;TYPE:Custom
START_PRINT EXTRUDER_TEMP=245,245 EXTRUDER_OTHER_LAYER_TEMP=245,245 BED_TEMP=85 CHAMBER_TEMP=0 INITIAL_TOOL=0 TOTAL_LAYER_COUNT=50 X0=96.1797 Y0=143 X1=206.579 Y1=191.993 TOTAL_TOOLSHIFTS=13 FIRST_X=101.879 FIRST_Y=160.793 MIN_X=98.179 MAX_X=204.579 USED_TOOLS=0,1                                                                                                                                                            
G90
G21
M83 ; use relative distances for extrusion
; Removed by RatOS post processor: T0
;_FORCE_RESUME_FAN_SPEED
; filament start gcode
SET_PRESSURE_ADVANCE ADVANCE=0.045; Override pressure advance value
G1 Z.2 F21000
M106 S0
;LAYER_CHANGE
;Z:0.2
;HEIGHT:0.2
;BEFORE_LAYER_CHANGE
;0.2
G92 E0

;AFTER_LAYER_CHANGE
;0.2
G92 E0
_ON_LAYER_CHANGE LAYER=1
;_SET_FAN_SPEED_CHANGING_LAYER
SET_VELOCITY_LIMIT ACCEL=500 ACCEL_TO_DECEL=250
G1 E-1 F7200
G1 Z.6 F21000
G1 X101.879 Y160.793
G1 Z.6
G1 Z.2
G1 E1 F7200
;HEIGHT:0.2
;TYPE:Prime tower
;WIDTH:0.5
G1  X200.879 Y160.793  E3.7626 F3000
G1  Y186.293  E0.9692
G1  X101.879  E3.7626
G1  Y160.793  E0.9692
G1  X200.879 
G1  Y186.293 
G1  X199.879 
;--------------------
; CP EMPTY GRID START
; layer #1
G1  Y185.793  E0.0190
G1  X102.379  E3.7056
G1  Y185.293  E0.0190
G1  X200.379  E3.7246
G1  Y184.793  E0.0190
G1  X102.379  E3.7246
M73 P1 R22
G1  Y184.293  E0.0190
M73 P1 R22
G1  X200.379  E3.7246
G1  Y183.793  E0.0190
G1  X102.379  E3.7246
G1  Y183.293  E0.0190
G1  X200.379  E3.7246
G1  Y182.793  E0.0190
G1  X102.379  E3.7246
G1  Y182.293  E0.0190
G1  X200.379  E3.7246
G1  Y181.793  E0.0190
G1  X102.379  E3.7246
M73 P2 R22
G1  Y181.293  E0.0190
M73 P2 R22
G1  X200.379  E3.7246
G1  Y180.793  E0.0190
G1  X102.379  E3.7246
G1  Y180.293  E0.0190
G1  X200.379  E3.7246
G1  Y179.793  E0.0190
G1  X102.379  E3.7246
G1  Y179.293  E0.0190
G1  X200.379  E3.7246
G1  Y178.793  E0.0190
G1  X102.379  E3.7246
G1  Y178.293  E0.0190
G1  X200.379  E3.7246
M73 P3 R22
G1  Y177.793  E0.0190
M73 P3 R22
G1  X102.379  E3.7246
G1  Y177.293  E0.0190
G1  X200.379  E3.7246
G1  Y176.793  E0.0190
G1  X102.379  E3.7246
M73 P3 R21
G1  Y176.293  E0.0190
M73 P3 R21
G1  X200.379  E3.7246
G1  Y175.793  E0.0190
G1  X102.379  E3.7246
G1  Y175.293  E0.0190
G1  X200.379  E3.7246
M73 P4 R21
G1  Y174.793  E0.0190
M73 P4 R21
G1  X102.379  E3.7246
G1  Y174.293  E0.0190
G1  X200.379  E3.7246
G1  Y173.793  E0.0190
G1  X102.379  E3.7246
G1  Y173.293  E0.0190
G1  X200.379  E3.7246
G1  Y172.793  E0.0190
G1  X102.379  E3.7246
G1  Y172.293  E0.0190
G1  X200.379  E3.7246
G1  Y171.793  E0.0190
G1  X102.379  E3.7246
M73 P5 R21
G1  Y171.293  E0.0190
M73 P5 R21
G1  X200.379  E3.7246
G1  Y170.793  E0.0190
G1  X102.379  E3.7246
G1  Y170.293  E0.0190
G1  X200.379  E3.7246
G1  Y169.793  E0.0190
G1  X102.379  E3.7246
G1  Y169.293  E0.0190
G1  X200.379  E3.7246
G1  Y168.793  E0.0190
G1  X102.379  E3.7246
M73 P6 R21
G1  Y168.293  E0.0190
M73 P6 R21
G1  X200.379  E3.7246
G1  Y167.793  E0.0190
G1  X102.379  E3.7246
G1  Y167.293  E0.0190
G1  X200.379  E3.7246
G1  Y166.793  E0.0190
G1  X102.379  E3.7246
G1  Y166.293  E0.0190
G1  X200.379  E3.7246
G1  Y165.793  E0.0190
G1  X102.379  E3.7246
G1  Y165.293  E0.0190
G1  X200.379  E3.7246
M73 P7 R21
G1  Y164.793  E0.0190
M73 P7 R21
G1  X102.379  E3.7246
G1  Y164.293  E0.0190
G1  X200.379  E3.7246
G1  Y163.793  E0.0190
G1  X102.379  E3.7246
G1  Y163.293  E0.0190
G1  X200.379  E3.7246
G1  Y162.793  E0.0190
G1  X102.379  E3.7246
G1  Y162.293  E0.0190
G1  X200.379  E3.7246
M73 P7 R20
G1  Y161.793  E0.0190
M73 P7 R20
G1  X102.379  E3.7246
M73 P8 R20
G1  Y161.293  E0.0190
M73 P8 R20
G1  X200.379  E3.7246
G1  Y160.793  E0.0190
; CP EMPTY GRID END
;------------------






G1  X201.379 Y160.293  
G1  Y186.793  E1.0072
G1  X101.379  E3.8006
G1  Y160.293  E1.0072
G1  X201.379  E3.8006
G1  X201.836 Y159.836  
G1  Y187.250  E1.0419
G1  X100.922  E3.8354
G1  Y159.836  E1.0419
G1  X201.836  E3.8354
M73 P9 R20
G1  X202.293 Y159.379  
M73 P9 R20
G1  Y187.707  E1.0767
G1  X100.465  E3.8701
G1  Y159.379  E1.0767
G1  X202.293  E3.8701
G1  X202.750 Y158.922  
G1  Y188.164  E1.1114
G1  X100.008  E3.9049
G1  Y158.922  E1.1114
G1  X202.750  E3.9049
G1  X203.207 Y158.465  
G1  Y188.621  E1.1461
G1  X99.551  E3.9396
M73 P10 R20
G1  Y158.465  E1.1461
M73 P10 R20
G1  X203.207  E3.9396
G1  X203.664 Y158.008  
G1  Y189.078  E1.1809
G1  X99.094  E3.9744
G1  Y158.008  E1.1809
G1  X203.664  E3.9744
G1  X204.121 Y157.551  
G1  Y189.535  E1.2156
G1  X98.637  E4.0091
G1  Y157.551  E1.2156
G1  X204.121  E4.0091
M73 P11 R20
G1  X204.579 Y157.093  
M73 P11 R20
G1  Y189.993  E1.2504
G1  X98.179  E4.0438
G1  Y157.093  E1.2504
G1  X204.579  E4.0438

SET_PRESSURE_ADVANCE ADVANCE=0.045; Override pressure advance value
G1 E-.7 F7200
;WIPE_START
G1 F3600
G1 X203.579 Y157.093 E-.3
;WIPE_END
G1 Z.6 F21000
G1 X153.961 Y153.961 Z.6
G1 Z.2
G1 E1 F7200
;TYPE:Inner wall
;WIDTH:0.449999
;HEIGHT:0.2
G1 F3000
G1 X146.039 Y153.961 E.25205
G1 X146.039 Y146.039 E.25205
G1 X153.961 Y146.039 E.25205
G1 X153.961 Y153.921 E.25078
G1 X154.368 Y154.368 F21000
G1 F3000
G1 X145.632 Y154.368 E.27796
G1 X145.632 Y145.632 E.27796
G1 X154.368 Y145.632 E.27796
G1 X154.368 Y154.328 E.27668
G1 X154.775 Y154.775 F21000
;TYPE:Outer wall
G1 F3000
G1 X145.225 Y154.775 E.30386
G1 X145.225 Y145.225 E.30386
G1 X154.775 Y145.225 E.30386
G1 X154.775 Y154.735 E.30259
G1 E-.7 F7200
;WIPE_START
G1 F3000
G1 X153.775 Y154.739 E-.3
;WIPE_END
G1 Z.6 F21000
G1 X153.839 Y147.011 Z.6
G1 Z.2
G1 E1 F7200
;TYPE:Bottom surface
;WIDTH:0.462731
G1 F6300
G1 X153.172 Y146.344 E.03094
G1 X152.578 Y146.344 E.01948
G1 X153.656 Y147.422 E.04999
G1 X153.656 Y148.015 E.01948
G1 X151.985 Y146.344 E.07754
G1 X151.391 Y146.344 E.01948
G1 X153.656 Y148.609 E.10509
G1 X153.656 Y149.203 E.01948
G1 X150.797 Y146.344 E.13264
G1 X150.203 Y146.344 E.01948
G1 X153.656 Y149.797 E.16019
G1 X153.656 Y150.39 E.01948
G1 X149.61 Y146.344 E.18774
M73 P12 R20
G1 X149.016 Y146.344 E.01948
M73 P12 R20
G1 X153.656 Y150.984 E.21529
G1 X153.656 Y151.578 E.01948
G1 X148.422 Y146.344 E.24284
G1 X147.829 Y146.344 E.01948
G1 X153.656 Y152.171 E.27039
G1 X153.656 Y152.765 E.01948
G1 X147.235 Y146.344 E.29794
G1 X146.641 Y146.344 E.01948
G1 X153.656 Y153.359 E.32549
G1 X153.656 Y153.656 E.00974
G1 X153.359 Y153.656 E.00974
G1 X146.344 Y146.641 E.32549
G1 X146.344 Y147.235 E.01948
G1 X152.765 Y153.656 E.29794
G1 X152.171 Y153.656 E.01948
G1 X146.344 Y147.829 E.27039
G1 X146.344 Y148.422 E.01948
G1 X151.578 Y153.656 E.24284
G1 X150.984 Y153.656 E.01948
G1 X146.344 Y149.016 E.21529
G1 X146.344 Y149.61 E.01948
G1 X150.39 Y153.656 E.18774
G1 X149.796 Y153.656 E.01948
G1 X146.344 Y150.204 E.16019
G1 X146.344 Y150.797 E.01948
G1 X149.203 Y153.656 E.13264
G1 X148.609 Y153.656 E.01948
G1 X146.344 Y151.391 E.10509
G1 X146.344 Y151.985 E.01948
G1 X148.015 Y153.656 E.07753
G1 X147.422 Y153.656 E.01948
G1 X146.344 Y152.578 E.04998
G1 X146.344 Y153.172 E.01948
G1 X147.011 Y153.839 E.03093
;LAYER_CHANGE
;Z:0.4
;HEIGHT:0.2
;BEFORE_LAYER_CHANGE
;0.4
G92 E0

G1 E-.7 F7200
;WIPE_START
G1 F6300
G1 X146.344 Y153.172 E-.28283
G1 X146.344 Y153.115 E-.01717
;WIPE_END
;AFTER_LAYER_CHANGE
;0.4
G92 E0
_ON_LAYER_CHANGE LAYER=2
M104 S245 T0
M104 S245 T1                                                                                                                                                                                                                                
;_SET_FAN_SPEED_CHANGING_LAYER
SET_VELOCITY_LIMIT ACCEL=5000 ACCEL_TO_DECEL=2500
M140 S80 ; set bed temperature
G1 Z.8 F21000
M73 P12 R19
G1 X200.879 Y186.293 Z.8
M73 P12 R19
G1 Z.4
G1 E1 F7200
;HEIGHT:0.2
;TYPE:Prime tower
;WIDTH:0.5
G1  X101.879 Y186.293  E3.7626 F5400
G1  Y160.793  E0.9692
G1  X200.879  E3.7626
G1  Y186.293  E0.9692
G1  X101.879 
G1  Y160.793 
G1  X102.879 
;--------------------
; CP EMPTY GRID START
; layer #2
G1  Y186.293  E0.9692
G1  X112.579 
G1  Y160.793  E0.9692
G1  X122.279 
G1  Y186.293  E0.9692
G1  X131.979 
G1  Y160.793  E0.9692
G1  X141.679 
G1  Y186.293  E0.9692
G1  X151.379 
G1  Y160.793  E0.9692
G1  X161.079 
G1  Y186.293  E0.9692
G1  X170.779 
G1  Y160.793  E0.9692
G1  X180.479 
G1  Y186.293  E0.9692
G1  X190.179 
G1  Y160.793  E0.9692
G1  X199.879 
G1  Y186.293  E0.9692
; CP EMPTY GRID END
;------------------






G1  X201.379 Y186.793  
G1  X101.379  E3.8006
M73 P13 R19
G1  Y160.293  E1.0072
M73 P13 R19
G1  X201.379  E3.8006
G1  Y186.793  E1.0072

SET_PRESSURE_ADVANCE ADVANCE=0.045; Override pressure advance value
G1 E-.7 F7200
;WIPE_START
G1 F6300
G1 X201.379 Y185.793 E-.3
;WIPE_END
G1 Z.8 F21000
G1 X154.086 Y154.086 Z.8
G1 Z.4
G1 E1 F7200
;TYPE:Inner wall
;WIDTH:0.399999
;HEIGHT:0.2
G1 F9241.652
G1 X145.914 Y154.086 E.22807
G1 X145.914 Y145.914 E.22807
G1 X154.086 Y145.914 E.22807
G1 X154.086 Y154.046 E.22695
G1 X154.443 Y154.443 F21000
G1 F9241.652
G1 X145.557 Y154.443 E.248
G1 X145.557 Y145.557 E.248
G1 X154.443 Y145.557 E.248
G1 X154.443 Y154.403 E.24689
G1 X154.8 Y154.8 F21000
SET_VELOCITY_LIMIT ACCEL=3000 ACCEL_TO_DECEL=1500
;TYPE:Outer wall
G1 F7200
G1 X145.2 Y154.8 E.26793
G1 X145.2 Y145.2 E.26793
G1 X154.8 Y145.2 E.26793
G1 X154.8 Y154.76 E.26682
SET_VELOCITY_LIMIT ACCEL=5000 ACCEL_TO_DECEL=2500
G1 E-.7
;WIPE_START
G1 X153.8 Y154.764 E-.3
;WIPE_END
G1 Z.8 F21000
G1 X153.25 Y153.979 Z.8
G1 Z.4
G1 E1 F7200
;TYPE:Internal solid infill
;WIDTH:0.403057
G1 F9163.18
G1 X153.818 Y153.411 E.0226
G1 X153.818 Y152.902 E.01434
G1 X152.902 Y153.818 E.03648
G1 X152.392 Y153.818 E.01434
G1 X153.818 Y152.392 E.05675
G1 X153.818 Y151.883 E.01434
G1 X151.883 Y153.818 E.07702
G1 X151.374 Y153.818 E.01434
G1 X153.818 Y151.374 E.0973
G1 X153.818 Y150.865 E.01434
G1 X150.865 Y153.818 E.11757
G1 X150.355 Y153.818 E.01434
G1 X153.818 Y150.355 E.13785
G1 X153.818 Y149.846 E.01434
G1 X149.846 Y153.818 E.15812
G1 X149.337 Y153.818 E.01434
G1 X153.818 Y149.337 E.1784
G1 X153.818 Y148.827 E.01434
G1 X148.827 Y153.818 E.19867
G1 X148.318 Y153.818 E.01434
G1 X153.818 Y148.318 E.21895
G1 X153.818 Y147.809 E.01434
G1 X147.809 Y153.818 E.23922
G1 X147.299 Y153.818 E.01434
G1 X153.818 Y147.299 E.2595
G1 X153.818 Y146.79 E.01434
G1 X146.79 Y153.818 E.27977
G1 X146.281 Y153.818 E.01434
G1 X153.818 Y146.281 E.30005
G1 X153.818 Y146.182 E.00278
G1 X153.407 Y146.182 E.01156
G1 X146.182 Y153.407 E.28764
G1 X146.182 Y152.898 E.01434
G1 X152.898 Y146.182 E.26736
G1 X152.389 Y146.182 E.01434
G1 X146.182 Y152.389 E.24709
G1 X146.182 Y151.88 E.01434
G1 X151.88 Y146.182 E.22681
G1 X151.37 Y146.182 E.01434
G1 X146.182 Y151.37 E.20654
G1 X146.182 Y150.861 E.01434
G1 X150.861 Y146.182 E.18626
G1 X150.352 Y146.182 E.01434
G1 X146.182 Y150.352 E.16599
G1 X146.182 Y149.842 E.01434
G1 X149.842 Y146.182 E.14571
G1 X149.333 Y146.182 E.01434
G1 X146.182 Y149.333 E.12544
G1 X146.182 Y148.824 E.01434
G1 X148.824 Y146.182 E.10516
G1 X148.314 Y146.182 E.01434
G1 X146.182 Y148.314 E.08489
G1 X146.182 Y147.805 E.01434
G1 X147.805 Y146.182 E.06461
G1 X147.296 Y146.182 E.01434
G1 X146.182 Y147.296 E.04434
G1 X146.182 Y146.786 E.01434
G1 X146.947 Y146.021 E.03046
G1 X146.284 Y146.225 F21000
;WIDTH:0.38292
G1 F9705.882
G1 X146.22 Y146.262 E.00196
G1 X146.285 Y146.297 E.00196
;LAYER_CHANGE
;Z:0.6
;HEIGHT:0.2
;BEFORE_LAYER_CHANGE
;0.6
G92 E0

G1 E-.89075 F7200
;WIPE_START
G1 F9705.882
G1 X146.22 Y146.262 E-.05464
G1 X146.284 Y146.225 E-.05461
;WIPE_END
;AFTER_LAYER_CHANGE
;0.6
G92 E0
_ON_LAYER_CHANGE LAYER=3
;_SET_FAN_SPEED_CHANGING_LAYER
G1 Z1 F21000
G1 X101.879 Y160.793 Z1
G1 Z.6
G1 E1 F7200
;HEIGHT:0.2
;TYPE:Prime tower
;WIDTH:0.5
G1  X200.879 Y160.793  E3.7626 F5400
G1  Y186.293  E0.9692
G1  X101.879  E3.7626
G1  Y160.793  E0.9692
G1  X200.879 
G1  Y186.293 
G1  X199.879 
;--------------------
; CP EMPTY GRID START
; layer #3
G1  Y160.793  E0.9692
G1  X190.179 
G1  Y186.293  E0.9692
G1  X180.479 
G1  Y160.793  E0.9692
G1  X170.779 
G1  Y186.293  E0.9692
G1  X161.079 
G1  Y160.793  E0.9692
G1  X151.379 
G1  Y186.293  E0.9692
M73 P14 R19
G1  X141.679 
M73 P14 R19
G1  Y160.793  E0.9692
G1  X131.979 
G1  Y186.293  E0.9692
G1  X122.279 
G1  Y160.793  E0.9692
G1  X112.579 
G1  Y186.293  E0.9692
G1  X102.879 
G1  Y160.793  E0.9692
; CP EMPTY GRID END
;------------------






G1  X101.379 Y160.293  
G1  X201.379  E3.8006
G1  Y186.793  E1.0072
G1  X101.379  E3.8006
G1  Y160.293  E1.0072

SET_PRESSURE_ADVANCE ADVANCE=0.045; Override pressure advance value
G1 E-.7 F7200
;WIPE_START
G1 F9705.882
G1 X101.379 Y161.293 E-.3
;WIPE_END
G1 Z1 F21000
G1 X154.086 Y154.086 Z1
G1 Z.6
G1 E1 F7200
;TYPE:Inner wall
;WIDTH:0.399999
;HEIGHT:0.2
G1 F9241.652
G1 X145.914 Y154.086 E.22807
G1 X145.914 Y145.914 E.22807
G1 X154.086 Y145.914 E.22807
G1 X154.086 Y154.046 E.22695
G1 X154.443 Y154.443 F21000
G1 F9241.652
G1 X145.557 Y154.443 E.248
G1 X145.557 Y145.557 E.248
G1 X154.443 Y145.557 E.248
G1 X154.443 Y154.403 E.24689
G1 X154.8 Y154.8 F21000
SET_VELOCITY_LIMIT ACCEL=3000 ACCEL_TO_DECEL=1500
;TYPE:Outer wall
G1 F7200
G1 X145.2 Y154.8 E.26793
G1 X145.2 Y145.2 E.26793
G1 X154.8 Y145.2 E.26793
G1 X154.8 Y154.76 E.26682
SET_VELOCITY_LIMIT ACCEL=5000 ACCEL_TO_DECEL=2500
G1 E-.7
;WIPE_START
G1 X153.8 Y154.764 E-.3
;WIPE_END
G1 Z1 F21000
G1 X153.979 Y146.75 Z1
G1 Z.6
G1 E1 F7200
;TYPE:Internal solid infill
;WIDTH:0.403057
G1 F9163.18
G1 X153.411 Y146.182 E.0226
G1 X152.902 Y146.182 E.01434
G1 X153.818 Y147.098 E.03648
G1 X153.818 Y147.608 E.01434
G1 X152.392 Y146.182 E.05675
G1 X151.883 Y146.182 E.01434
G1 X153.818 Y148.117 E.07702
G1 X153.818 Y148.626 E.01434
G1 X151.374 Y146.182 E.0973
G1 X150.865 Y146.182 E.01434
G1 X153.818 Y149.135 E.11757
G1 X153.818 Y149.645 E.01434
G1 X150.355 Y146.182 E.13785
G1 X149.846 Y146.182 E.01434
G1 X153.818 Y150.154 E.15812
G1 X153.818 Y150.663 E.01434
G1 X149.337 Y146.182 E.1784
G1 X148.827 Y146.182 E.01434
G1 X153.818 Y151.173 E.19867
G1 X153.818 Y151.682 E.01434
G1 X148.318 Y146.182 E.21895
G1 X147.809 Y146.182 E.01434
G1 X153.818 Y152.191 E.23922
G1 X153.818 Y152.701 E.01434
G1 X147.299 Y146.182 E.2595
G1 X146.79 Y146.182 E.01434
G1 X153.818 Y153.21 E.27977
G1 X153.818 Y153.719 E.01434
G1 X146.281 Y146.182 E.30005
G1 X146.182 Y146.182 E.00278
G1 X146.182 Y146.593 E.01156
G1 X153.407 Y153.818 E.28764
G1 X152.898 Y153.818 E.01434
G1 X146.182 Y147.102 E.26736
G1 X146.182 Y147.611 E.01434
G1 X152.389 Y153.818 E.24709
G1 X151.88 Y153.818 E.01434
G1 X146.182 Y148.12 E.22681
G1 X146.182 Y148.63 E.01434
G1 X151.37 Y153.818 E.20654
G1 X150.861 Y153.818 E.01434
G1 X146.182 Y149.139 E.18626
G1 X146.182 Y149.648 E.01434
G1 X150.352 Y153.818 E.16599
G1 X149.842 Y153.818 E.01434
G1 X146.182 Y150.158 E.14571
G1 X146.182 Y150.667 E.01434
G1 X149.333 Y153.818 E.12544
G1 X148.824 Y153.818 E.01434
G1 X146.182 Y151.176 E.10516
G1 X146.182 Y151.686 E.01434
G1 X148.314 Y153.818 E.08489
G1 X147.805 Y153.818 E.01434
G1 X146.182 Y152.195 E.06461
G1 X146.182 Y152.704 E.01434
G1 X147.296 Y153.818 E.04434
G1 X146.786 Y153.818 E.01434
G1 X146.021 Y153.053 E.03046
G1 X146.284 Y153.701 F21000
;WIDTH:0.38292
G1 F9705.882
G1 X146.22 Y153.738 E.00196
G1 X146.285 Y153.772 E.00196
M106 S89
;LAYER_CHANGE
;Z:0.8
;HEIGHT:0.2
;BEFORE_LAYER_CHANGE
;0.8
G92 E0

G1 E-.89076 F7200
;WIPE_START
