
; ### Ellis' Pressure Advance / Linear Advance Calibration Tool ###
;
; Original Marlin linear advance calibration tool by Sineos [https://github.com/Sineos]
; Heavily modified/rewritten by Andrew Ellis [https://github.com/AndrewEllis93]
;
; -------------------------------------------
; Generated: Tue Dec 10 2024 16:19:54 GMT+0000 (Greenwich Mean Time)
; -------------------------------------------
;
; Advanced Mode: false
;
; Printer:
;  - Firmware: klipper
;  - Bed Shape: Rect
;  - Bed Size X: 500 mm
;  - Bed Size Y: 500 mm
;  - Origin Bed Center: false
;  - Travel Speed: 600 mm/s
;  - Nozzle Diameter: 0.4 mm
;  - Filament Diameter: 1.75 mm
;  - Extrusion Multiplier: 0.87
;
; Retraction / Z Hop:
;  - Retraction Distance: 0.8 mm
;  - Retract Speed: 35 mm/s
;  - Unretract Speed: 35 mm/s
;  - Z Hop Enable: true
;  - Z Hop Height: 0.1mm
;
; First Layer Settings:
;  - First Layer Height: 0.3 mm
;  - First Layer Printing Speed: 80 mm/s
;  - First Layer Fan Speed: 0%
;  - Anchor Option: anchor_frame
;
; Print Settings:
;  - Layer Height: 0.2 mm
;  - Print Speed: 250 mm/s
;  - Acceleration: 8000 mm/s^2
;  - Fan Speed: 40%
;
; Pressure Advance Stepping:
;  - PA Start Value: 0.01
;  - PA End Value: 0.05
;  - PA Increment: 0.001
;
; Start / End G-code:
;  - Hotend Temp: 235C
;  - Bed Temp: 80C
;  - Don't Add G28: true
;  - Don't Add Heating G-Codes: true
;  - Entered Start G-code: 
;       START_PRINT EXTRUDER_TEMP=235 EXTRUDER_OTHER_LAYER_TEMP=235 BED_TEMP=80
;  - Entered End G-code: 
;       END_PRINT
;
; Calculated Values:
;  - Print Size X: 171.11 mm
;  - Print Size Y: 56.99 mm
;  - Number of Patterns to Print: 41
;  - PA Values: 0.01, 0.011, 0.012, 0.013, 0.014, 0.015, 0.016, 0.017, 0.018, 0.019, 0.02, 0.021, 0.022, 0.023, 0.024, 0.025, 0.026, 0.027, 0.028, 0.029, 0.03, 0.031, 0.032, 0.033, 0.034, 0.035, 0.036, 0.037, 0.038, 0.039, 0.04, 0.041, 0.042, 0.043, 0.044, 0.045, 0.046, 0.047, 0.048, 0.049, 0.05
;
; Prepare printing
;
START_PRINT EXTRUDER_TEMP=235 EXTRUDER_OTHER_LAYER_TEMP=235 BED_TEMP=80
G21 ; Millimeter units
G90 ; Absolute XYZ
M83 ; Relative E
G92 E0 ; Reset extruder distance
;
;  Begin printing
;
M106 S0 ; Set fan speed
SET_VELOCITY_LIMIT ACCEL=8000 ; Set printing acceleration
G1 E-0.8 F2100 ; Retract
G0 Z5 F36000 ; Z raise
G0 X164.4464 Y221.5068 F36000 ; Move to start position
G0 Z0.3 F36000 ; Move to start layer height
G1 E0.8 F2100 ; Un-retract
SET_PRESSURE_ADVANCE ADVANCE=0.01 ; Set pressure advance to start value
M117 PA 0.01
G1 X164.4464 Y263.9332 E2.2817 F4800 ; Draw perimeter (up)
G1 X335.5536 Y263.9332 E9.20219 F4800 ; Draw perimeter (right)
G1 X335.5536 Y221.5068 E2.2817 F4800 ; Draw perimeter (down)
G1 X164.4464 Y221.5068 E9.20219 F4800 ; Draw perimeter (left)
G0 X164.942 Y222.0024 F36000 ; Step inwards to print next perimeter
G1 X164.942 Y263.4376 E2.22839 F4800 ; Draw perimeter (up)
G1 X335.058 Y263.4376 E9.14888 F4800 ; Draw perimeter (right)
G1 X335.058 Y222.0024 E2.22839 F4800 ; Draw perimeter (down)
G1 X164.942 Y222.0024 E9.14888 F4800 ; Draw perimeter (left)
G0 X165.4376 Y222.498 F36000 ; Step inwards to print next perimeter
G1 X165.4376 Y262.942 E2.17508 F4800 ; Draw perimeter (up)
G1 X334.5624 Y262.942 E9.09557 F4800 ; Draw perimeter (right)
G1 X334.5624 Y222.498 E2.17508 F4800 ; Draw perimeter (down)
G1 X165.4376 Y222.498 E9.09557 F4800 ; Draw perimeter (left)
G0 X165.9333 Y222.9937 F36000 ; Step inwards to print next perimeter
G1 X165.9333 Y262.4463 E2.12178 F4800 ; Draw perimeter (up)
G1 X334.0667 Y262.4463 E9.04226 F4800 ; Draw perimeter (right)
G1 X334.0667 Y222.9937 E2.12178 F4800 ; Draw perimeter (down)
G1 X165.9333 Y222.9937 E9.04226 F4800 ; Draw perimeter (left)
G1 E-0.8 F2100 ; Retract
G1 Z0.4 F36000 ; Z hop
G0 X164.4464 Y264.4288 F36000 ; Move to box start
G1 Z0.3 F36000 ; Z hop return
G1 E0.8 F2100 ; Un-retract
G1 X164.4464 Y278.9244 E0.77958 F4800 ; Draw perimeter (up)
G1 X315.1344 Y278.9244 E8.10404 F4800 ; Draw perimeter (right)
G1 X315.1344 Y264.4288 E0.77958 F4800 ; Draw perimeter (down)
G1 X164.4464 Y264.4288 E8.10404 F4800 ; Draw perimeter (left)
G0 X164.942 Y264.9244 F36000 ; Step inwards to print next perimeter
G1 X164.942 Y278.4288 E0.72627 F4800 ; Draw perimeter (up)
G1 X314.6387 Y278.4288 E8.05073 F4800 ; Draw perimeter (right)
G1 X314.6387 Y264.9244 E0.72627 F4800 ; Draw perimeter (down)
G1 X164.942 Y264.9244 E8.05073 F4800 ; Draw perimeter (left)
G0 X165.4376 Y265.4201 F36000 ; Step inwards to print next perimeter
G1 X165.4376 Y277.9332 E0.67296 F4800 ; Draw perimeter (up)
G1 X314.1431 Y277.9332 E7.99742 F4800 ; Draw perimeter (right)
G1 X314.1431 Y265.4201 E0.67296 F4800 ; Draw perimeter (down)
G1 X165.4376 Y265.4201 E7.99742 F4800 ; Draw perimeter (left)
G0 X165.9333 Y265.9157 F36000 ; Step inwards to print next perimeter
G1 X165.9333 Y277.4376 E0.61965 F4800 ; Draw perimeter (up)
G1 X313.6475 Y277.4376 E7.94411 F4800 ; Draw perimeter (right)
G1 X313.6475 Y265.9157 E0.61965 F4800 ; Draw perimeter (down)
G1 X165.9333 Y265.9157 E7.94411 F4800 ; Draw perimeter (left)
G0 X166.3066 Y266.289 F36000 ; Move to fill start
G0 X167.0075 Y266.289 F36000 ; Move
G1 X166.3066 Y266.9899 E0.05331 F4800 ; Fill
G0 X166.3066 Y267.6908 F36000 ; Move
G1 X167.7084 Y266.289 E0.10662 F4800 ; Fill
G0 X168.4093 Y266.289 F36000 ; Move
G1 X166.3066 Y268.3918 E0.15993 F4800 ; Fill
G0 X166.3066 Y269.0927 F36000 ; Move
G1 X169.1102 Y266.289 E0.21324 F4800 ; Fill
G0 X169.8112 Y266.289 F36000 ; Move
G1 X166.3066 Y269.7936 E0.26655 F4800 ; Fill
G0 X166.3066 Y270.4945 F36000 ; Move
G1 X170.5121 Y266.289 E0.31985 F4800 ; Fill
G0 X171.213 Y266.289 F36000 ; Move
G1 X166.3066 Y271.1954 E0.37316 F4800 ; Fill
G0 X166.3066 Y271.8963 F36000 ; Move
G1 X171.9139 Y266.289 E0.42647 F4800 ; Fill
G0 X172.6148 Y266.289 F36000 ; Move
G1 X166.3066 Y272.5972 E0.47978 F4800 ; Fill
G0 X166.3066 Y273.2981 F36000 ; Move
G1 X173.3157 Y266.289 E0.53309 F4800 ; Fill
G0 X174.0166 Y266.289 F36000 ; Move
G1 X166.3066 Y273.999 E0.5864 F4800 ; Fill
G0 X166.3066 Y274.7 F36000 ; Move
G1 X174.7175 Y266.289 E0.63971 F4800 ; Fill
G0 X175.4185 Y266.289 F36000 ; Move
G1 X166.3066 Y275.4009 E0.69302 F4800 ; Fill
G0 X166.3066 Y276.1018 F36000 ; Move
G1 X176.1194 Y266.289 E0.74633 F4800 ; Fill
G0 X176.8203 Y266.289 F36000 ; Move
G1 X166.3066 Y276.8027 E0.79964 F4800 ; Fill
G0 X166.746 Y277.0643 F36000 ; Move
G1 X177.5212 Y266.289 E0.81953 F4800 ; Fill
G0 X178.2221 Y266.289 F36000 ; Move
G1 X167.4469 Y277.0643 E0.81953 F4800 ; Fill
G0 X168.1478 Y277.0643 F36000 ; Move
G1 X178.923 Y266.289 E0.81953 F4800 ; Fill
G0 X179.6239 Y266.289 F36000 ; Move
G1 X168.8487 Y277.0643 E0.81953 F4800 ; Fill
G0 X169.5496 Y277.0643 F36000 ; Move
G1 X180.3248 Y266.289 E0.81953 F4800 ; Fill
G0 X181.0257 Y266.289 F36000 ; Move
G1 X170.2505 Y277.0643 E0.81953 F4800 ; Fill
G0 X170.9514 Y277.0643 F36000 ; Move
G1 X181.7267 Y266.289 E0.81953 F4800 ; Fill
G0 X182.4276 Y266.289 F36000 ; Move
G1 X171.6523 Y277.0643 E0.81953 F4800 ; Fill
G0 X172.3532 Y277.0643 F36000 ; Move
G1 X183.1285 Y266.289 E0.81953 F4800 ; Fill
G0 X183.8294 Y266.289 F36000 ; Move
G1 X173.0542 Y277.0643 E0.81953 F4800 ; Fill
G0 X173.7551 Y277.0643 F36000 ; Move
G1 X184.5303 Y266.289 E0.81953 F4800 ; Fill
G0 X185.2312 Y266.289 F36000 ; Move
G1 X174.456 Y277.0643 E0.81953 F4800 ; Fill
G0 X175.1569 Y277.0643 F36000 ; Move
G1 X185.9321 Y266.289 E0.81953 F4800 ; Fill
G0 X186.633 Y266.289 F36000 ; Move
G1 X175.8578 Y277.0643 E0.81953 F4800 ; Fill
G0 X176.5587 Y277.0643 F36000 ; Move
G1 X187.334 Y266.289 E0.81953 F4800 ; Fill
G0 X188.0349 Y266.289 F36000 ; Move
G1 X177.2596 Y277.0643 E0.81953 F4800 ; Fill
G0 X177.9605 Y277.0643 F36000 ; Move
G1 X188.7358 Y266.289 E0.81953 F4800 ; Fill
G0 X189.4367 Y266.289 F36000 ; Move
G1 X178.6615 Y277.0643 E0.81953 F4800 ; Fill
G0 X179.3624 Y277.0643 F36000 ; Move
G1 X190.1376 Y266.289 E0.81953 F4800 ; Fill
G0 X190.8385 Y266.289 F36000 ; Move
G1 X180.0633 Y277.0643 E0.81953 F4800 ; Fill
G0 X180.7642 Y277.0643 F36000 ; Move
G1 X191.5394 Y266.289 E0.81953 F4800 ; Fill
G0 X192.2403 Y266.289 F36000 ; Move
G1 X181.4651 Y277.0643 E0.81953 F4800 ; Fill
G0 X182.166 Y277.0643 F36000 ; Move
G1 X192.9412 Y266.289 E0.81953 F4800 ; Fill
G0 X193.6422 Y266.289 F36000 ; Move
G1 X182.8669 Y277.0643 E0.81953 F4800 ; Fill
G0 X183.5678 Y277.0643 F36000 ; Move
G1 X194.3431 Y266.289 E0.81953 F4800 ; Fill
G0 X195.044 Y266.289 F36000 ; Move
G1 X184.2687 Y277.0643 E0.81953 F4800 ; Fill
G0 X184.9697 Y277.0643 F36000 ; Move
G1 X195.7449 Y266.289 E0.81953 F4800 ; Fill
G0 X196.4458 Y266.289 F36000 ; Move
G1 X185.6706 Y277.0643 E0.81953 F4800 ; Fill
G0 X186.3715 Y277.0643 F36000 ; Move
G1 X197.1467 Y266.289 E0.81953 F4800 ; Fill
G0 X197.8476 Y266.289 F36000 ; Move
G1 X187.0724 Y277.0643 E0.81953 F4800 ; Fill
G0 X187.7733 Y277.0643 F36000 ; Move
G1 X198.5485 Y266.289 E0.81953 F4800 ; Fill
G0 X199.2495 Y266.289 F36000 ; Move
G1 X188.4742 Y277.0643 E0.81953 F4800 ; Fill
G0 X189.1751 Y277.0643 F36000 ; Move
G1 X199.9504 Y266.289 E0.81953 F4800 ; Fill
G0 X200.6513 Y266.289 F36000 ; Move
G1 X189.876 Y277.0643 E0.81953 F4800 ; Fill
G0 X190.577 Y277.0643 F36000 ; Move
G1 X201.3522 Y266.289 E0.81953 F4800 ; Fill
G0 X202.0531 Y266.289 F36000 ; Move
G1 X191.2779 Y277.0643 E0.81953 F4800 ; Fill
G0 X191.9788 Y277.0643 F36000 ; Move
G1 X202.754 Y266.289 E0.81953 F4800 ; Fill
G0 X203.4549 Y266.289 F36000 ; Move
G1 X192.6797 Y277.0643 E0.81953 F4800 ; Fill
G0 X193.3806 Y277.0643 F36000 ; Move
G1 X204.1558 Y266.289 E0.81953 F4800 ; Fill
G0 X204.8567 Y266.289 F36000 ; Move
G1 X194.0815 Y277.0643 E0.81953 F4800 ; Fill
G0 X194.7824 Y277.0643 F36000 ; Move
G1 X205.5577 Y266.289 E0.81953 F4800 ; Fill
G0 X206.2586 Y266.289 F36000 ; Move
G1 X195.4833 Y277.0643 E0.81953 F4800 ; Fill
G0 X196.1842 Y277.0643 F36000 ; Move
G1 X206.9595 Y266.289 E0.81953 F4800 ; Fill
G0 X207.6604 Y266.289 F36000 ; Move
G1 X196.8852 Y277.0643 E0.81953 F4800 ; Fill
G0 X197.5861 Y277.0643 F36000 ; Move
G1 X208.3613 Y266.289 E0.81953 F4800 ; Fill
G0 X209.0622 Y266.289 F36000 ; Move
G1 X198.287 Y277.0643 E0.81953 F4800 ; Fill
G0 X198.9879 Y277.0643 F36000 ; Move
G1 X209.7631 Y266.289 E0.81953 F4800 ; Fill
G0 X210.464 Y266.289 F36000 ; Move
G1 X199.6888 Y277.0643 E0.81953 F4800 ; Fill
G0 X200.3897 Y277.0643 F36000 ; Move
G1 X211.165 Y266.289 E0.81953 F4800 ; Fill
G0 X211.8659 Y266.289 F36000 ; Move
G1 X201.0906 Y277.0643 E0.81953 F4800 ; Fill
G0 X201.7915 Y277.0643 F36000 ; Move
G1 X212.5668 Y266.289 E0.81953 F4800 ; Fill
G0 X213.2677 Y266.289 F36000 ; Move
G1 X202.4925 Y277.0643 E0.81953 F4800 ; Fill
G0 X203.1934 Y277.0643 F36000 ; Move
G1 X213.9686 Y266.289 E0.81953 F4800 ; Fill
G0 X214.6695 Y266.289 F36000 ; Move
G1 X203.8943 Y277.0643 E0.81953 F4800 ; Fill
G0 X204.5952 Y277.0643 F36000 ; Move
G1 X215.3704 Y266.289 E0.81953 F4800 ; Fill
G0 X216.0713 Y266.289 F36000 ; Move
G1 X205.2961 Y277.0643 E0.81953 F4800 ; Fill
G0 X205.997 Y277.0643 F36000 ; Move
G1 X216.7722 Y266.289 E0.81953 F4800 ; Fill
G0 X217.4732 Y266.289 F36000 ; Move
G1 X206.6979 Y277.0643 E0.81953 F4800 ; Fill
G0 X207.3988 Y277.0643 F36000 ; Move
G1 X218.1741 Y266.289 E0.81953 F4800 ; Fill
G0 X218.875 Y266.289 F36000 ; Move
G1 X208.0997 Y277.0643 E0.81953 F4800 ; Fill
G0 X208.8007 Y277.0643 F36000 ; Move
G1 X219.5759 Y266.289 E0.81953 F4800 ; Fill
G0 X220.2768 Y266.289 F36000 ; Move
G1 X209.5016 Y277.0643 E0.81953 F4800 ; Fill
G0 X210.2025 Y277.0643 F36000 ; Move
G1 X220.9777 Y266.289 E0.81953 F4800 ; Fill
G0 X221.6786 Y266.289 F36000 ; Move
G1 X210.9034 Y277.0643 E0.81953 F4800 ; Fill
G0 X211.6043 Y277.0643 F36000 ; Move
G1 X222.3795 Y266.289 E0.81953 F4800 ; Fill
G0 X223.0805 Y266.289 F36000 ; Move
G1 X212.3052 Y277.0643 E0.81953 F4800 ; Fill
G0 X213.0061 Y277.0643 F36000 ; Move
G1 X223.7814 Y266.289 E0.81953 F4800 ; Fill
G0 X224.4823 Y266.289 F36000 ; Move
G1 X213.707 Y277.0643 E0.81953 F4800 ; Fill
G0 X214.408 Y277.0643 F36000 ; Move
G1 X225.1832 Y266.289 E0.81953 F4800 ; Fill
G0 X225.8841 Y266.289 F36000 ; Move
G1 X215.1089 Y277.0643 E0.81953 F4800 ; Fill
G0 X215.8098 Y277.0643 F36000 ; Move
G1 X226.585 Y266.289 E0.81953 F4800 ; Fill
G0 X227.2859 Y266.289 F36000 ; Move
G1 X216.5107 Y277.0643 E0.81953 F4800 ; Fill
G0 X217.2116 Y277.0643 F36000 ; Move
G1 X227.9868 Y266.289 E0.81953 F4800 ; Fill
G0 X228.6877 Y266.289 F36000 ; Move
G1 X217.9125 Y277.0643 E0.81953 F4800 ; Fill
G0 X218.6134 Y277.0643 F36000 ; Move
G1 X229.3887 Y266.289 E0.81953 F4800 ; Fill
G0 X230.0896 Y266.289 F36000 ; Move
G1 X219.3143 Y277.0643 E0.81953 F4800 ; Fill
G0 X220.0152 Y277.0643 F36000 ; Move
G1 X230.7905 Y266.289 E0.81953 F4800 ; Fill
G0 X231.4914 Y266.289 F36000 ; Move
G1 X220.7162 Y277.0643 E0.81953 F4800 ; Fill
G0 X221.4171 Y277.0643 F36000 ; Move
G1 X232.1923 Y266.289 E0.81953 F4800 ; Fill
G0 X232.8932 Y266.289 F36000 ; Move
G1 X222.118 Y277.0643 E0.81953 F4800 ; Fill
G0 X222.8189 Y277.0643 F36000 ; Move
G1 X233.5941 Y266.289 E0.81953 F4800 ; Fill
G0 X234.295 Y266.289 F36000 ; Move
G1 X223.5198 Y277.0643 E0.81953 F4800 ; Fill
G0 X224.2207 Y277.0643 F36000 ; Move
G1 X234.996 Y266.289 E0.81953 F4800 ; Fill
G0 X235.6969 Y266.289 F36000 ; Move
G1 X224.9216 Y277.0643 E0.81953 F4800 ; Fill
G0 X225.6225 Y277.0643 F36000 ; Move
G1 X236.3978 Y266.289 E0.81953 F4800 ; Fill
G0 X237.0987 Y266.289 F36000 ; Move
G1 X226.3235 Y277.0643 E0.81953 F4800 ; Fill
G0 X227.0244 Y277.0643 F36000 ; Move
G1 X237.7996 Y266.289 E0.81953 F4800 ; Fill
G0 X238.5005 Y266.289 F36000 ; Move
G1 X227.7253 Y277.0643 E0.81953 F4800 ; Fill
G0 X228.4262 Y277.0643 F36000 ; Move
G1 X239.2014 Y266.289 E0.81953 F4800 ; Fill
G0 X239.9023 Y266.289 F36000 ; Move
G1 X229.1271 Y277.0643 E0.81953 F4800 ; Fill
G0 X229.828 Y277.0643 F36000 ; Move
G1 X240.6032 Y266.289 E0.81953 F4800 ; Fill
G0 X241.3042 Y266.289 F36000 ; Move
G1 X230.5289 Y277.0643 E0.81953 F4800 ; Fill
G0 X231.2298 Y277.0643 F36000 ; Move
G1 X242.0051 Y266.289 E0.81953 F4800 ; Fill
G0 X242.706 Y266.289 F36000 ; Move
G1 X231.9307 Y277.0643 E0.81953 F4800 ; Fill
G0 X232.6317 Y277.0643 F36000 ; Move
G1 X243.4069 Y266.289 E0.81953 F4800 ; Fill
G0 X244.1078 Y266.289 F36000 ; Move
G1 X233.3326 Y277.0643 E0.81953 F4800 ; Fill
G0 X234.0335 Y277.0643 F36000 ; Move
G1 X244.8087 Y266.289 E0.81953 F4800 ; Fill
G0 X245.5096 Y266.289 F36000 ; Move
G1 X234.7344 Y277.0643 E0.81953 F4800 ; Fill
G0 X235.4353 Y277.0643 F36000 ; Move
G1 X246.2105 Y266.289 E0.81953 F4800 ; Fill
G0 X246.9115 Y266.289 F36000 ; Move
G1 X236.1362 Y277.0643 E0.81953 F4800 ; Fill
G0 X236.8371 Y277.0643 F36000 ; Move
G1 X247.6124 Y266.289 E0.81953 F4800 ; Fill
G0 X248.3133 Y266.289 F36000 ; Move
G1 X237.538 Y277.0643 E0.81953 F4800 ; Fill
G0 X238.239 Y277.0643 F36000 ; Move
G1 X249.0142 Y266.289 E0.81953 F4800 ; Fill
G0 X249.7151 Y266.289 F36000 ; Move
G1 X238.9399 Y277.0643 E0.81953 F4800 ; Fill
G0 X239.6408 Y277.0643 F36000 ; Move
G1 X250.416 Y266.289 E0.81953 F4800 ; Fill
G0 X251.1169 Y266.289 F36000 ; Move
G1 X240.3417 Y277.0643 E0.81953 F4800 ; Fill
G0 X241.0426 Y277.0643 F36000 ; Move
G1 X251.8178 Y266.289 E0.81953 F4800 ; Fill
G0 X252.5187 Y266.289 F36000 ; Move
G1 X241.7435 Y277.0643 E0.81953 F4800 ; Fill
G0 X242.4444 Y277.0643 F36000 ; Move
G1 X253.2197 Y266.289 E0.81953 F4800 ; Fill
G0 X253.9206 Y266.289 F36000 ; Move
G1 X243.1453 Y277.0643 E0.81953 F4800 ; Fill
G0 X243.8462 Y277.0643 F36000 ; Move
G1 X254.6215 Y266.289 E0.81953 F4800 ; Fill
G0 X255.3224 Y266.289 F36000 ; Move
G1 X244.5472 Y277.0643 E0.81953 F4800 ; Fill
G0 X245.2481 Y277.0643 F36000 ; Move
G1 X256.0233 Y266.289 E0.81953 F4800 ; Fill
G0 X256.7242 Y266.289 F36000 ; Move
G1 X245.949 Y277.0643 E0.81953 F4800 ; Fill
G0 X246.6499 Y277.0643 F36000 ; Move
G1 X257.4251 Y266.289 E0.81953 F4800 ; Fill
G0 X258.126 Y266.289 F36000 ; Move
G1 X247.3508 Y277.0643 E0.81953 F4800 ; Fill
G0 X248.0517 Y277.0643 F36000 ; Move
G1 X258.827 Y266.289 E0.81953 F4800 ; Fill
G0 X259.5279 Y266.289 F36000 ; Move
G1 X248.7526 Y277.0643 E0.81953 F4800 ; Fill
G0 X249.4535 Y277.0643 F36000 ; Move
G1 X260.2288 Y266.289 E0.81953 F4800 ; Fill
G0 X260.9297 Y266.289 F36000 ; Move
G1 X250.1545 Y277.0643 E0.81953 F4800 ; Fill
G0 X250.8554 Y277.0643 F36000 ; Move
G1 X261.6306 Y266.289 E0.81953 F4800 ; Fill
G0 X262.3315 Y266.289 F36000 ; Move
G1 X251.5563 Y277.0643 E0.81953 F4800 ; Fill
G0 X252.2572 Y277.0643 F36000 ; Move
G1 X263.0324 Y266.289 E0.81953 F4800 ; Fill
G0 X263.7333 Y266.289 F36000 ; Move
G1 X252.9581 Y277.0643 E0.81953 F4800 ; Fill
G0 X253.659 Y277.0643 F36000 ; Move
G1 X264.4342 Y266.289 E0.81953 F4800 ; Fill
G0 X265.1352 Y266.289 F36000 ; Move
G1 X254.3599 Y277.0643 E0.81953 F4800 ; Fill
G0 X255.0608 Y277.0643 F36000 ; Move
G1 X265.8361 Y266.289 E0.81953 F4800 ; Fill
G0 X266.537 Y266.289 F36000 ; Move
G1 X255.7617 Y277.0643 E0.81953 F4800 ; Fill
G0 X256.4627 Y277.0643 F36000 ; Move
G1 X267.2379 Y266.289 E0.81953 F4800 ; Fill
G0 X267.9388 Y266.289 F36000 ; Move
G1 X257.1636 Y277.0643 E0.81953 F4800 ; Fill
G0 X257.8645 Y277.0643 F36000 ; Move
G1 X268.6397 Y266.289 E0.81953 F4800 ; Fill
G0 X269.3406 Y266.289 F36000 ; Move
G1 X258.5654 Y277.0643 E0.81953 F4800 ; Fill
G0 X259.2663 Y277.0643 F36000 ; Move
G1 X270.0415 Y266.289 E0.81953 F4800 ; Fill
G0 X270.7425 Y266.289 F36000 ; Move
G1 X259.9672 Y277.0643 E0.81953 F4800 ; Fill
G0 X260.6681 Y277.0643 F36000 ; Move
G1 X271.4434 Y266.289 E0.81953 F4800 ; Fill
G0 X272.1443 Y266.289 F36000 ; Move
G1 X261.369 Y277.0643 E0.81953 F4800 ; Fill
G0 X262.07 Y277.0643 F36000 ; Move
G1 X272.8452 Y266.289 E0.81953 F4800 ; Fill
G0 X273.5461 Y266.289 F36000 ; Move
G1 X262.7709 Y277.0643 E0.81953 F4800 ; Fill
G0 X263.4718 Y277.0643 F36000 ; Move
G1 X274.247 Y266.289 E0.81953 F4800 ; Fill
G0 X274.9479 Y266.289 F36000 ; Move
G1 X264.1727 Y277.0643 E0.81953 F4800 ; Fill
G0 X264.8736 Y277.0643 F36000 ; Move
G1 X275.6488 Y266.289 E0.81953 F4800 ; Fill
G0 X276.3497 Y266.289 F36000 ; Move
G1 X265.5745 Y277.0643 E0.81953 F4800 ; Fill
G0 X266.2754 Y277.0643 F36000 ; Move
G1 X277.0507 Y266.289 E0.81953 F4800 ; Fill
G0 X277.7516 Y266.289 F36000 ; Move
G1 X266.9763 Y277.0643 E0.81953 F4800 ; Fill
G0 X267.6772 Y277.0643 F36000 ; Move
G1 X278.4525 Y266.289 E0.81953 F4800 ; Fill
G0 X279.1534 Y266.289 F36000 ; Move
G1 X268.3782 Y277.0643 E0.81953 F4800 ; Fill
G0 X269.0791 Y277.0643 F36000 ; Move
G1 X279.8543 Y266.289 E0.81953 F4800 ; Fill
G0 X280.5552 Y266.289 F36000 ; Move
G1 X269.78 Y277.0643 E0.81953 F4800 ; Fill
G0 X270.4809 Y277.0643 F36000 ; Move
G1 X281.2561 Y266.289 E0.81953 F4800 ; Fill
G0 X281.957 Y266.289 F36000 ; Move
G1 X271.1818 Y277.0643 E0.81953 F4800 ; Fill
G0 X271.8827 Y277.0643 F36000 ; Move
G1 X282.658 Y266.289 E0.81953 F4800 ; Fill
G0 X283.3589 Y266.289 F36000 ; Move
G1 X272.5836 Y277.0643 E0.81953 F4800 ; Fill
G0 X273.2845 Y277.0643 F36000 ; Move
G1 X284.0598 Y266.289 E0.81953 F4800 ; Fill
G0 X284.7607 Y266.289 F36000 ; Move
G1 X273.9855 Y277.0643 E0.81953 F4800 ; Fill
G0 X274.6864 Y277.0643 F36000 ; Move
G1 X285.4616 Y266.289 E0.81953 F4800 ; Fill
G0 X286.1625 Y266.289 F36000 ; Move
G1 X275.3873 Y277.0643 E0.81953 F4800 ; Fill
G0 X276.0882 Y277.0643 F36000 ; Move
G1 X286.8634 Y266.289 E0.81953 F4800 ; Fill
G0 X287.5643 Y266.289 F36000 ; Move
G1 X276.7891 Y277.0643 E0.81953 F4800 ; Fill
G0 X277.49 Y277.0643 F36000 ; Move
G1 X288.2652 Y266.289 E0.81953 F4800 ; Fill
G0 X288.9662 Y266.289 F36000 ; Move
G1 X278.1909 Y277.0643 E0.81953 F4800 ; Fill
G0 X278.8918 Y277.0643 F36000 ; Move
G1 X289.6671 Y266.289 E0.81953 F4800 ; Fill
G0 X290.368 Y266.289 F36000 ; Move
G1 X279.5927 Y277.0643 E0.81953 F4800 ; Fill
G0 X280.2937 Y277.0643 F36000 ; Move
G1 X291.0689 Y266.289 E0.81953 F4800 ; Fill
G0 X291.7698 Y266.289 F36000 ; Move
G1 X280.9946 Y277.0643 E0.81953 F4800 ; Fill
G0 X281.6955 Y277.0643 F36000 ; Move
G1 X292.4707 Y266.289 E0.81953 F4800 ; Fill
G0 X293.1716 Y266.289 F36000 ; Move
G1 X282.3964 Y277.0643 E0.81953 F4800 ; Fill
G0 X283.0973 Y277.0643 F36000 ; Move
G1 X293.8725 Y266.289 E0.81953 F4800 ; Fill
G0 X294.5735 Y266.289 F36000 ; Move
G1 X283.7982 Y277.0643 E0.81953 F4800 ; Fill
G0 X284.4991 Y277.0643 F36000 ; Move
G1 X295.2744 Y266.289 E0.81953 F4800 ; Fill
G0 X295.9753 Y266.289 F36000 ; Move
G1 X285.2 Y277.0643 E0.81953 F4800 ; Fill
G0 X285.901 Y277.0643 F36000 ; Move
G1 X296.6762 Y266.289 E0.81953 F4800 ; Fill
G0 X297.3771 Y266.289 F36000 ; Move
G1 X286.6019 Y277.0643 E0.81953 F4800 ; Fill
G0 X287.3028 Y277.0643 F36000 ; Move
G1 X298.078 Y266.289 E0.81953 F4800 ; Fill
G0 X298.7789 Y266.289 F36000 ; Move
G1 X288.0037 Y277.0643 E0.81953 F4800 ; Fill
G0 X288.7046 Y277.0643 F36000 ; Move
G1 X299.4798 Y266.289 E0.81953 F4800 ; Fill
G0 X300.1807 Y266.289 F36000 ; Move
G1 X289.4055 Y277.0643 E0.81953 F4800 ; Fill
G0 X290.1064 Y277.0643 F36000 ; Move
G1 X300.8817 Y266.289 E0.81953 F4800 ; Fill
G0 X301.5826 Y266.289 F36000 ; Move
G1 X290.8073 Y277.0643 E0.81953 F4800 ; Fill
G0 X291.5082 Y277.0643 F36000 ; Move
G1 X302.2835 Y266.289 E0.81953 F4800 ; Fill
G0 X302.9844 Y266.289 F36000 ; Move
G1 X292.2092 Y277.0643 E0.81953 F4800 ; Fill
G0 X292.9101 Y277.0643 F36000 ; Move
G1 X303.6853 Y266.289 E0.81953 F4800 ; Fill
G0 X304.3862 Y266.289 F36000 ; Move
G1 X293.611 Y277.0643 E0.81953 F4800 ; Fill
G0 X294.3119 Y277.0643 F36000 ; Move
G1 X305.0871 Y266.289 E0.81953 F4800 ; Fill
G0 X305.788 Y266.289 F36000 ; Move
G1 X295.0128 Y277.0643 E0.81953 F4800 ; Fill
G0 X295.7137 Y277.0643 F36000 ; Move
G1 X306.489 Y266.289 E0.81953 F4800 ; Fill
G0 X307.1899 Y266.289 F36000 ; Move
G1 X296.4146 Y277.0643 E0.81953 F4800 ; Fill
G0 X297.1155 Y277.0643 F36000 ; Move
G1 X307.8908 Y266.289 E0.81953 F4800 ; Fill
G0 X308.5917 Y266.289 F36000 ; Move
G1 X297.8165 Y277.0643 E0.81953 F4800 ; Fill
G0 X298.5174 Y277.0643 F36000 ; Move
G1 X309.2926 Y266.289 E0.81953 F4800 ; Fill
G0 X309.9935 Y266.289 F36000 ; Move
G1 X299.2183 Y277.0643 E0.81953 F4800 ; Fill
G0 X299.9192 Y277.0643 F36000 ; Move
G1 X310.6944 Y266.289 E0.81953 F4800 ; Fill
G0 X311.3953 Y266.289 F36000 ; Move
G1 X300.6201 Y277.0643 E0.81953 F4800 ; Fill
G0 X301.321 Y277.0643 F36000 ; Move
G1 X312.0962 Y266.289 E0.81953 F4800 ; Fill
G0 X312.7972 Y266.289 F36000 ; Move
G1 X302.0219 Y277.0643 E0.81953 F4800 ; Fill
G0 X302.7228 Y277.0643 F36000 ; Move
G1 X313.2742 Y266.5129 E0.8025 F4800 ; Fill
G0 X313.2742 Y267.2138 F36000 ; Move
G1 X303.4237 Y277.0643 E0.74919 F4800 ; Fill
G0 X304.1247 Y277.0643 F36000 ; Move
G1 X313.2742 Y267.9147 E0.69588 F4800 ; Fill
G0 X313.2742 Y268.6156 F36000 ; Move
G1 X304.8256 Y277.0643 E0.64257 F4800 ; Fill
G0 X305.5265 Y277.0643 F36000 ; Move
G1 X313.2742 Y269.3166 E0.58926 F4800 ; Fill
G0 X313.2742 Y270.0175 F36000 ; Move
G1 X306.2274 Y277.0643 E0.53596 F4800 ; Fill
G0 X306.9283 Y277.0643 F36000 ; Move
G1 X313.2742 Y270.7184 E0.48265 F4800 ; Fill
G0 X313.2742 Y271.4193 F36000 ; Move
G1 X307.6292 Y277.0643 E0.42934 F4800 ; Fill
G0 X308.3301 Y277.0643 F36000 ; Move
G1 X313.2742 Y272.1202 E0.37603 F4800 ; Fill
G0 X313.2742 Y272.8211 F36000 ; Move
G1 X309.031 Y277.0643 E0.32272 F4800 ; Fill
G0 X309.7319 Y277.0643 F36000 ; Move
G1 X313.2742 Y273.522 E0.26941 F4800 ; Fill
G0 X313.2742 Y274.2229 F36000 ; Move
G1 X310.4329 Y277.0643 E0.2161 F4800 ; Fill
G0 X311.1338 Y277.0643 F36000 ; Move
G1 X313.2742 Y274.9239 E0.16279 F4800 ; Fill
G0 X313.2742 Y275.6248 F36000 ; Move
G1 X311.8347 Y277.0643 E0.10948 F4800 ; Fill
G0 X312.5356 Y277.0643 F36000 ; Move
G1 X313.2742 Y276.3257 E0.05617 F4800 ; Fill
G0 Z0.3 F36000 ; Move to layer height
G1 E-0.8 F2100 ; Retract
G1 Z0.4 F36000 ; Z hop
G0 X169.0109 Y223.367 F36000 ; Move to pattern start

G1 Z0.3 F36000 ; Z hop return
G1 E0.8 F2100 ; Un-retract
SET_PRESSURE_ADVANCE ADVANCE=0.01 ; Set pressure advance
M117 PA 0.01
G1 X188.3639 Y242.72 E1.14524 F4800 ; Print pattern wall
G1 X169.0109 Y262.073 E1.14524 F4800 ; Print pattern wall
G1 E-0.8 F2100 ; Retract
G1 Z0.4 F36000 ; Z hop
G0 X169.5866 Y223.367 F36000 ; Move to start next pattern wall
G1 Z0.3 F36000 ; Z hop return
G1 E0.8 F2100 ; Un-retract
G1 X188.9396 Y242.72 E1.14524 F4800 ; Print pattern wall
G1 X169.5866 Y262.073 E1.14524 F4800 ; Print pattern wall
G1 E-0.8 F2100 ; Retract
G1 Z0.4 F36000 ; Z hop
G0 X170.1623 Y223.367 F36000 ; Move to start next pattern wall
G1 Z0.3 F36000 ; Z hop return
G1 E0.8 F2100 ; Un-retract
G1 X189.5153 Y242.72 E1.14524 F4800 ; Print pattern wall
G1 X170.1623 Y262.073 E1.14524 F4800 ; Print pattern wall
G1 E-0.8 F2100 ; Retract
G1 Z0.4 F36000 ; Z hop
G0 X172.6123 Y223.367 F36000 ; Move to next pattern
G1 Z0.3 F36000 ; Z hop return
G1 E0.8 F2100 ; Un-retract
SET_PRESSURE_ADVANCE ADVANCE=0.011 ; Set pressure advance
M117 PA 0.011
G1 X191.9653 Y242.72 E1.14524 F4800 ; Print pattern wall
G1 X172.6123 Y262.073 E1.14524 F4800 ; Print pattern wall
G1 E-0.8 F2100 ; Retract
G1 Z0.4 F36000 ; Z hop
G0 X173.188 Y223.367 F36000 ; Move to start next pattern wall
G1 Z0.3 F36000 ; Z hop return
G1 E0.8 F2100 ; Un-retract
G1 X192.541 Y242.72 E1.14524 F4800 ; Print pattern wall
G1 X173.188 Y262.073 E1.14524 F4800 ; Print pattern wall
G1 E-0.8 F2100 ; Retract
G1 Z0.4 F36000 ; Z hop
G0 X173.7637 Y223.367 F36000 ; Move to start next pattern wall
G1 Z0.3 F36000 ; Z hop return
G1 E0.8 F2100 ; Un-retract
G1 X193.1167 Y242.72 E1.14524 F4800 ; Print pattern wall
G1 X173.7637 Y262.073 E1.14524 F4800 ; Print pattern wall
G1 E-0.8 F2100 ; Retract
G1 Z0.4 F36000 ; Z hop
G0 X176.2137 Y223.367 F36000 ; Move to next pattern
G1 Z0.3 F36000 ; Z hop return
G1 E0.8 F2100 ; Un-retract
SET_PRESSURE_ADVANCE ADVANCE=0.012 ; Set pressure advance
M117 PA 0.012
G1 X195.5667 Y242.72 E1.14524 F4800 ; Print pattern wall
G1 X176.2137 Y262.073 E1.14524 F4800 ; Print pattern wall
G1 E-0.8 F2100 ; Retract
G1 Z0.4 F36000 ; Z hop
G0 X176.7894 Y223.367 F36000 ; Move to start next pattern wall
G1 Z0.3 F36000 ; Z hop return
G1 E0.8 F2100 ; Un-retract
G1 X196.1424 Y242.72 E1.14524 F4800 ; Print pattern wall
G1 X176.7894 Y262.073 E1.14524 F4800 ; Print pattern wall
G1 E-0.8 F2100 ; Retract
G1 Z0.4 F36000 ; Z hop
G0 X177.3651 Y223.367 F36000 ; Move to start next pattern wall
G1 Z0.3 F36000 ; Z hop return
G1 E0.8 F2100 ; Un-retract
G1 X196.7181 Y242.72 E1.14524 F4800 ; Print pattern wall
G1 X177.3651 Y262.073 E1.14524 F4800 ; Print pattern wall
G1 E-0.8 F2100 ; Retract
G1 Z0.4 F36000 ; Z hop
G0 X179.8151 Y223.367 F36000 ; Move to next pattern
G1 Z0.3 F36000 ; Z hop return
G1 E0.8 F2100 ; Un-retract
SET_PRESSURE_ADVANCE ADVANCE=0.013 ; Set pressure advance
M117 PA 0.013
G1 X199.1681 Y242.72 E1.14524 F4800 ; Print pattern wall
G1 X179.8151 Y262.073 E1.14524 F4800 ; Print pattern wall
G1 E-0.8 F2100 ; Retract
G1 Z0.4 F36000 ; Z hop
G0 X180.3908 Y223.367 F36000 ; Move to start next pattern wall
G1 Z0.3 F36000 ; Z hop return
G1 E0.8 F2100 ; Un-retract
G1 X199.7438 Y242.72 E1.14524 F4800 ; Print pattern wall
G1 X180.3908 Y262.073 E1.14524 F4800 ; Print pattern wall
G1 E-0.8 F2100 ; Retract
G1 Z0.4 F36000 ; Z hop
G0 X180.9665 Y223.367 F36000 ; Move to start next pattern wall
G1 Z0.3 F36000 ; Z hop return
G1 E0.8 F2100 ; Un-retract
G1 X200.3195 Y242.72 E1.14524 F4800 ; Print pattern wall
G1 X180.9665 Y262.073 E1.14524 F4800 ; Print pattern wall
G1 E-0.8 F2100 ; Retract
G1 Z0.4 F36000 ; Z hop
G0 X183.4165 Y223.367 F36000 ; Move to next pattern
G1 Z0.3 F36000 ; Z hop return
G1 E0.8 F2100 ; Un-retract
SET_PRESSURE_ADVANCE ADVANCE=0.014 ; Set pressure advance
M117 PA 0.014
G1 X202.7695 Y242.72 E1.14524 F4800 ; Print pattern wall
G1 X183.4165 Y262.073 E1.14524 F4800 ; Print pattern wall
G1 E-0.8 F2100 ; Retract
G1 Z0.4 F36000 ; Z hop
G0 X183.9922 Y223.367 F36000 ; Move to start next pattern wall
G1 Z0.3 F36000 ; Z hop return
G1 E0.8 F2100 ; Un-retract
G1 X203.3452 Y242.72 E1.14524 F4800 ; Print pattern wall
G1 X183.9922 Y262.073 E1.14524 F4800 ; Print pattern wall
G1 E-0.8 F2100 ; Retract
G1 Z0.4 F36000 ; Z hop
G0 X184.5679 Y223.367 F36000 ; Move to start next pattern wall
G1 Z0.3 F36000 ; Z hop return
G1 E0.8 F2100 ; Un-retract
G1 X203.9209 Y242.72 E1.14524 F4800 ; Print pattern wall
G1 X184.5679 Y262.073 E1.14524 F4800 ; Print pattern wall
G1 E-0.8 F2100 ; Retract
G1 Z0.4 F36000 ; Z hop
G0 X187.0179 Y223.367 F36000 ; Move to next pattern
G1 Z0.3 F36000 ; Z hop return
G1 E0.8 F2100 ; Un-retract
SET_PRESSURE_ADVANCE ADVANCE=0.015 ; Set pressure advance
M117 PA 0.015
G1 X206.3709 Y242.72 E1.14524 F4800 ; Print pattern wall
G1 X187.0179 Y262.073 E1.14524 F4800 ; Print pattern wall
G1 E-0.8 F2100 ; Retract
G1 Z0.4 F36000 ; Z hop
G0 X187.5936 Y223.367 F36000 ; Move to start next pattern wall
G1 Z0.3 F36000 ; Z hop return
G1 E0.8 F2100 ; Un-retract
G1 X206.9466 Y242.72 E1.14524 F4800 ; Print pattern wall
G1 X187.5936 Y262.073 E1.14524 F4800 ; Print pattern wall
G1 E-0.8 F2100 ; Retract
G1 Z0.4 F36000 ; Z hop
G0 X188.1693 Y223.367 F36000 ; Move to start next pattern wall
G1 Z0.3 F36000 ; Z hop return
G1 E0.8 F2100 ; Un-retract
G1 X207.5223 Y242.72 E1.14524 F4800 ; Print pattern wall
G1 X188.1693 Y262.073 E1.14524 F4800 ; Print pattern wall
G1 E-0.8 F2100 ; Retract
G1 Z0.4 F36000 ; Z hop
G0 X190.6193 Y223.367 F36000 ; Move to next pattern
G1 Z0.3 F36000 ; Z hop return
G1 E0.8 F2100 ; Un-retract
SET_PRESSURE_ADVANCE ADVANCE=0.016 ; Set pressure advance
M117 PA 0.016
G1 X209.9723 Y242.72 E1.14524 F4800 ; Print pattern wall
G1 X190.6193 Y262.073 E1.14524 F4800 ; Print pattern wall
G1 E-0.8 F2100 ; Retract
G1 Z0.4 F36000 ; Z hop
G0 X191.195 Y223.367 F36000 ; Move to start next pattern wall
G1 Z0.3 F36000 ; Z hop return
G1 E0.8 F2100 ; Un-retract
G1 X210.548 Y242.72 E1.14524 F4800 ; Print pattern wall
G1 X191.195 Y262.073 E1.14524 F4800 ; Print pattern wall
G1 E-0.8 F2100 ; Retract
G1 Z0.4 F36000 ; Z hop
G0 X191.7707 Y223.367 F36000 ; Move to start next pattern wall
G1 Z0.3 F36000 ; Z hop return
G1 E0.8 F2100 ; Un-retract
G1 X211.1237 Y242.72 E1.14524 F4800 ; Print pattern wall
G1 X191.7707 Y262.073 E1.14524 F4800 ; Print pattern wall
G1 E-0.8 F2100 ; Retract
G1 Z0.4 F36000 ; Z hop
G0 X194.2207 Y223.367 F36000 ; Move to next pattern
G1 Z0.3 F36000 ; Z hop return
G1 E0.8 F2100 ; Un-retract
SET_PRESSURE_ADVANCE ADVANCE=0.017 ; Set pressure advance
M117 PA 0.017
G1 X213.5737 Y242.72 E1.14524 F4800 ; Print pattern wall
G1 X194.2207 Y262.073 E1.14524 F4800 ; Print pattern wall
G1 E-0.8 F2100 ; Retract
G1 Z0.4 F36000 ; Z hop
G0 X194.7964 Y223.367 F36000 ; Move to start next pattern wall
G1 Z0.3 F36000 ; Z hop return
G1 E0.8 F2100 ; Un-retract
G1 X214.1494 Y242.72 E1.14524 F4800 ; Print pattern wall
G1 X194.7964 Y262.073 E1.14524 F4800 ; Print pattern wall
G1 E-0.8 F2100 ; Retract
G1 Z0.4 F36000 ; Z hop
G0 X195.3721 Y223.367 F36000 ; Move to start next pattern wall
G1 Z0.3 F36000 ; Z hop return
G1 E0.8 F2100 ; Un-retract
G1 X214.7251 Y242.72 E1.14524 F4800 ; Print pattern wall
G1 X195.3721 Y262.073 E1.14524 F4800 ; Print pattern wall
G1 E-0.8 F2100 ; Retract
G1 Z0.4 F36000 ; Z hop
G0 X197.8221 Y223.367 F36000 ; Move to next pattern
G1 Z0.3 F36000 ; Z hop return
G1 E0.8 F2100 ; Un-retract
SET_PRESSURE_ADVANCE ADVANCE=0.018 ; Set pressure advance
M117 PA 0.018
G1 X217.1751 Y242.72 E1.14524 F4800 ; Print pattern wall
G1 X197.8221 Y262.073 E1.14524 F4800 ; Print pattern wall
G1 E-0.8 F2100 ; Retract
G1 Z0.4 F36000 ; Z hop
G0 X198.3978 Y223.367 F36000 ; Move to start next pattern wall
G1 Z0.3 F36000 ; Z hop return
G1 E0.8 F2100 ; Un-retract
G1 X217.7508 Y242.72 E1.14524 F4800 ; Print pattern wall
G1 X198.3978 Y262.073 E1.14524 F4800 ; Print pattern wall
G1 E-0.8 F2100 ; Retract
G1 Z0.4 F36000 ; Z hop
G0 X198.9735 Y223.367 F36000 ; Move to start next pattern wall
G1 Z0.3 F36000 ; Z hop return
G1 E0.8 F2100 ; Un-retract
G1 X218.3265 Y242.72 E1.14524 F4800 ; Print pattern wall
G1 X198.9735 Y262.073 E1.14524 F4800 ; Print pattern wall
G1 E-0.8 F2100 ; Retract
G1 Z0.4 F36000 ; Z hop
G0 X201.4235 Y223.367 F36000 ; Move to next pattern
G1 Z0.3 F36000 ; Z hop return
G1 E0.8 F2100 ; Un-retract
SET_PRESSURE_ADVANCE ADVANCE=0.019 ; Set pressure advance
M117 PA 0.019
G1 X220.7765 Y242.72 E1.14524 F4800 ; Print pattern wall
G1 X201.4235 Y262.073 E1.14524 F4800 ; Print pattern wall
G1 E-0.8 F2100 ; Retract
G1 Z0.4 F36000 ; Z hop
G0 X201.9992 Y223.367 F36000 ; Move to start next pattern wall
G1 Z0.3 F36000 ; Z hop return
G1 E0.8 F2100 ; Un-retract
G1 X221.3522 Y242.72 E1.14524 F4800 ; Print pattern wall
G1 X201.9992 Y262.073 E1.14524 F4800 ; Print pattern wall
G1 E-0.8 F2100 ; Retract
G1 Z0.4 F36000 ; Z hop
G0 X202.5749 Y223.367 F36000 ; Move to start next pattern wall
G1 Z0.3 F36000 ; Z hop return
G1 E0.8 F2100 ; Un-retract
G1 X221.9279 Y242.72 E1.14524 F4800 ; Print pattern wall
G1 X202.5749 Y262.073 E1.14524 F4800 ; Print pattern wall
G1 E-0.8 F2100 ; Retract
G1 Z0.4 F36000 ; Z hop
G0 X205.0249 Y223.367 F36000 ; Move to next pattern
G1 Z0.3 F36000 ; Z hop return
G1 E0.8 F2100 ; Un-retract
SET_PRESSURE_ADVANCE ADVANCE=0.02 ; Set pressure advance
M117 PA 0.02
G1 X224.3779 Y242.72 E1.14524 F4800 ; Print pattern wall
G1 X205.0249 Y262.073 E1.14524 F4800 ; Print pattern wall
G1 E-0.8 F2100 ; Retract
G1 Z0.4 F36000 ; Z hop
G0 X205.6006 Y223.367 F36000 ; Move to start next pattern wall
G1 Z0.3 F36000 ; Z hop return
G1 E0.8 F2100 ; Un-retract
G1 X224.9536 Y242.72 E1.14524 F4800 ; Print pattern wall
G1 X205.6006 Y262.073 E1.14524 F4800 ; Print pattern wall
G1 E-0.8 F2100 ; Retract
G1 Z0.4 F36000 ; Z hop
G0 X206.1762 Y223.367 F36000 ; Move to start next pattern wall
G1 Z0.3 F36000 ; Z hop return
G1 E0.8 F2100 ; Un-retract
G1 X225.5293 Y242.72 E1.14524 F4800 ; Print pattern wall
G1 X206.1762 Y262.073 E1.14524 F4800 ; Print pattern wall
G1 E-0.8 F2100 ; Retract
G1 Z0.4 F36000 ; Z hop
G0 X208.6262 Y223.367 F36000 ; Move to next pattern
G1 Z0.3 F36000 ; Z hop return
G1 E0.8 F2100 ; Un-retract
SET_PRESSURE_ADVANCE ADVANCE=0.021 ; Set pressure advance
M117 PA 0.021
G1 X227.9793 Y242.72 E1.14524 F4800 ; Print pattern wall
G1 X208.6262 Y262.073 E1.14524 F4800 ; Print pattern wall
G1 E-0.8 F2100 ; Retract
G1 Z0.4 F36000 ; Z hop
G0 X209.2019 Y223.367 F36000 ; Move to start next pattern wall
G1 Z0.3 F36000 ; Z hop return
G1 E0.8 F2100 ; Un-retract
G1 X228.555 Y242.72 E1.14524 F4800 ; Print pattern wall
G1 X209.2019 Y262.073 E1.14524 F4800 ; Print pattern wall
G1 E-0.8 F2100 ; Retract
G1 Z0.4 F36000 ; Z hop
G0 X209.7776 Y223.367 F36000 ; Move to start next pattern wall
G1 Z0.3 F36000 ; Z hop return
G1 E0.8 F2100 ; Un-retract
G1 X229.1307 Y242.72 E1.14524 F4800 ; Print pattern wall
G1 X209.7776 Y262.073 E1.14524 F4800 ; Print pattern wall
G1 E-0.8 F2100 ; Retract
G1 Z0.4 F36000 ; Z hop
G0 X212.2276 Y223.367 F36000 ; Move to next pattern
G1 Z0.3 F36000 ; Z hop return
G1 E0.8 F2100 ; Un-retract
SET_PRESSURE_ADVANCE ADVANCE=0.022 ; Set pressure advance
M117 PA 0.022
G1 X231.5807 Y242.72 E1.14524 F4800 ; Print pattern wall
G1 X212.2276 Y262.073 E1.14524 F4800 ; Print pattern wall
G1 E-0.8 F2100 ; Retract
G1 Z0.4 F36000 ; Z hop
G0 X212.8033 Y223.367 F36000 ; Move to start next pattern wall
G1 Z0.3 F36000 ; Z hop return
G1 E0.8 F2100 ; Un-retract
G1 X232.1564 Y242.72 E1.14524 F4800 ; Print pattern wall
G1 X212.8033 Y262.073 E1.14524 F4800 ; Print pattern wall
G1 E-0.8 F2100 ; Retract
G1 Z0.4 F36000 ; Z hop
G0 X213.379 Y223.367 F36000 ; Move to start next pattern wall
G1 Z0.3 F36000 ; Z hop return
G1 E0.8 F2100 ; Un-retract
G1 X232.7321 Y242.72 E1.14524 F4800 ; Print pattern wall
G1 X213.379 Y262.073 E1.14524 F4800 ; Print pattern wall
G1 E-0.8 F2100 ; Retract
G1 Z0.4 F36000 ; Z hop
G0 X215.829 Y223.367 F36000 ; Move to next pattern
G1 Z0.3 F36000 ; Z hop return
G1 E0.8 F2100 ; Un-retract
SET_PRESSURE_ADVANCE ADVANCE=0.023 ; Set pressure advance
M117 PA 0.023
G1 X235.1821 Y242.72 E1.14524 F4800 ; Print pattern wall
G1 X215.829 Y262.073 E1.14524 F4800 ; Print pattern wall
G1 E-0.8 F2100 ; Retract
G1 Z0.4 F36000 ; Z hop
G0 X216.4047 Y223.367 F36000 ; Move to start next pattern wall
G1 Z0.3 F36000 ; Z hop return
G1 E0.8 F2100 ; Un-retract
G1 X235.7577 Y242.72 E1.14524 F4800 ; Print pattern wall
G1 X216.4047 Y262.073 E1.14524 F4800 ; Print pattern wall
G1 E-0.8 F2100 ; Retract
G1 Z0.4 F36000 ; Z hop
G0 X216.9804 Y223.367 F36000 ; Move to start next pattern wall
G1 Z0.3 F36000 ; Z hop return
G1 E0.8 F2100 ; Un-retract
G1 X236.3334 Y242.72 E1.14524 F4800 ; Print pattern wall
G1 X216.9804 Y262.073 E1.14524 F4800 ; Print pattern wall
G1 E-0.8 F2100 ; Retract
G1 Z0.4 F36000 ; Z hop
G0 X219.4304 Y223.367 F36000 ; Move to next pattern
G1 Z0.3 F36000 ; Z hop return
G1 E0.8 F2100 ; Un-retract
SET_PRESSURE_ADVANCE ADVANCE=0.024 ; Set pressure advance
M117 PA 0.024
G1 X238.7834 Y242.72 E1.14524 F4800 ; Print pattern wall
G1 X219.4304 Y262.073 E1.14524 F4800 ; Print pattern wall
G1 E-0.8 F2100 ; Retract
G1 Z0.4 F36000 ; Z hop
G0 X220.0061 Y223.367 F36000 ; Move to start next pattern wall
G1 Z0.3 F36000 ; Z hop return
G1 E0.8 F2100 ; Un-retract
G1 X239.3591 Y242.72 E1.14524 F4800 ; Print pattern wall
G1 X220.0061 Y262.073 E1.14524 F4800 ; Print pattern wall
G1 E-0.8 F2100 ; Retract
G1 Z0.4 F36000 ; Z hop
G0 X220.5818 Y223.367 F36000 ; Move to start next pattern wall
G1 Z0.3 F36000 ; Z hop return
G1 E0.8 F2100 ; Un-retract
G1 X239.9348 Y242.72 E1.14524 F4800 ; Print pattern wall
G1 X220.5818 Y262.073 E1.14524 F4800 ; Print pattern wall
G1 E-0.8 F2100 ; Retract
G1 Z0.4 F36000 ; Z hop
G0 X223.0318 Y223.367 F36000 ; Move to next pattern
G1 Z0.3 F36000 ; Z hop return
G1 E0.8 F2100 ; Un-retract
SET_PRESSURE_ADVANCE ADVANCE=0.025 ; Set pressure advance
M117 PA 0.025
G1 X242.3848 Y242.72 E1.14524 F4800 ; Print pattern wall
G1 X223.0318 Y262.073 E1.14524 F4800 ; Print pattern wall
G1 E-0.8 F2100 ; Retract
G1 Z0.4 F36000 ; Z hop
G0 X223.6075 Y223.367 F36000 ; Move to start next pattern wall
G1 Z0.3 F36000 ; Z hop return
G1 E0.8 F2100 ; Un-retract
G1 X242.9605 Y242.72 E1.14524 F4800 ; Print pattern wall
G1 X223.6075 Y262.073 E1.14524 F4800 ; Print pattern wall
G1 E-0.8 F2100 ; Retract
G1 Z0.4 F36000 ; Z hop
G0 X224.1832 Y223.367 F36000 ; Move to start next pattern wall
G1 Z0.3 F36000 ; Z hop return
G1 E0.8 F2100 ; Un-retract
G1 X243.5362 Y242.72 E1.14524 F4800 ; Print pattern wall
G1 X224.1832 Y262.073 E1.14524 F4800 ; Print pattern wall
G1 E-0.8 F2100 ; Retract
G1 Z0.4 F36000 ; Z hop
G0 X226.6332 Y223.367 F36000 ; Move to next pattern
G1 Z0.3 F36000 ; Z hop return
G1 E0.8 F2100 ; Un-retract
SET_PRESSURE_ADVANCE ADVANCE=0.026 ; Set pressure advance
M117 PA 0.026
G1 X245.9862 Y242.72 E1.14524 F4800 ; Print pattern wall
G1 X226.6332 Y262.073 E1.14524 F4800 ; Print pattern wall
G1 E-0.8 F2100 ; Retract
G1 Z0.4 F36000 ; Z hop
G0 X227.2089 Y223.367 F36000 ; Move to start next pattern wall
G1 Z0.3 F36000 ; Z hop return
G1 E0.8 F2100 ; Un-retract
G1 X246.5619 Y242.72 E1.14524 F4800 ; Print pattern wall
G1 X227.2089 Y262.073 E1.14524 F4800 ; Print pattern wall
G1 E-0.8 F2100 ; Retract
G1 Z0.4 F36000 ; Z hop
G0 X227.7846 Y223.367 F36000 ; Move to start next pattern wall
G1 Z0.3 F36000 ; Z hop return
G1 E0.8 F2100 ; Un-retract
G1 X247.1376 Y242.72 E1.14524 F4800 ; Print pattern wall
G1 X227.7846 Y262.073 E1.14524 F4800 ; Print pattern wall
G1 E-0.8 F2100 ; Retract
G1 Z0.4 F36000 ; Z hop
G0 X230.2346 Y223.367 F36000 ; Move to next pattern
G1 Z0.3 F36000 ; Z hop return
G1 E0.8 F2100 ; Un-retract
SET_PRESSURE_ADVANCE ADVANCE=0.027 ; Set pressure advance
M117 PA 0.027
G1 X249.5876 Y242.72 E1.14524 F4800 ; Print pattern wall
G1 X230.2346 Y262.073 E1.14524 F4800 ; Print pattern wall
G1 E-0.8 F2100 ; Retract
G1 Z0.4 F36000 ; Z hop
G0 X230.8103 Y223.367 F36000 ; Move to start next pattern wall
G1 Z0.3 F36000 ; Z hop return
G1 E0.8 F2100 ; Un-retract
G1 X250.1633 Y242.72 E1.14524 F4800 ; Print pattern wall
G1 X230.8103 Y262.073 E1.14524 F4800 ; Print pattern wall
G1 E-0.8 F2100 ; Retract
G1 Z0.4 F36000 ; Z hop
G0 X231.386 Y223.367 F36000 ; Move to start next pattern wall
G1 Z0.3 F36000 ; Z hop return
G1 E0.8 F2100 ; Un-retract
G1 X250.739 Y242.72 E1.14524 F4800 ; Print pattern wall
G1 X231.386 Y262.073 E1.14524 F4800 ; Print pattern wall
G1 E-0.8 F2100 ; Retract
G1 Z0.4 F36000 ; Z hop
G0 X233.836 Y223.367 F36000 ; Move to next pattern
G1 Z0.3 F36000 ; Z hop return
G1 E0.8 F2100 ; Un-retract
SET_PRESSURE_ADVANCE ADVANCE=0.028 ; Set pressure advance
M117 PA 0.028
G1 X253.189 Y242.72 E1.14524 F4800 ; Print pattern wall
G1 X233.836 Y262.073 E1.14524 F4800 ; Print pattern wall
G1 E-0.8 F2100 ; Retract
G1 Z0.4 F36000 ; Z hop
G0 X234.4117 Y223.367 F36000 ; Move to start next pattern wall
G1 Z0.3 F36000 ; Z hop return
G1 E0.8 F2100 ; Un-retract
G1 X253.7647 Y242.72 E1.14524 F4800 ; Print pattern wall
G1 X234.4117 Y262.073 E1.14524 F4800 ; Print pattern wall
G1 E-0.8 F2100 ; Retract
G1 Z0.4 F36000 ; Z hop
G0 X234.9874 Y223.367 F36000 ; Move to start next pattern wall
G1 Z0.3 F36000 ; Z hop return
G1 E0.8 F2100 ; Un-retract
G1 X254.3404 Y242.72 E1.14524 F4800 ; Print pattern wall
G1 X234.9874 Y262.073 E1.14524 F4800 ; Print pattern wall
G1 E-0.8 F2100 ; Retract
G1 Z0.4 F36000 ; Z hop
G0 X237.4374 Y223.367 F36000 ; Move to next pattern
G1 Z0.3 F36000 ; Z hop return
G1 E0.8 F2100 ; Un-retract
SET_PRESSURE_ADVANCE ADVANCE=0.029 ; Set pressure advance
M117 PA 0.029
G1 X256.7904 Y242.72 E1.14524 F4800 ; Print pattern wall
G1 X237.4374 Y262.073 E1.14524 F4800 ; Print pattern wall
G1 E-0.8 F2100 ; Retract
G1 Z0.4 F36000 ; Z hop
G0 X238.0131 Y223.367 F36000 ; Move to start next pattern wall
G1 Z0.3 F36000 ; Z hop return
G1 E0.8 F2100 ; Un-retract
G1 X257.3661 Y242.72 E1.14524 F4800 ; Print pattern wall
G1 X238.0131 Y262.073 E1.14524 F4800 ; Print pattern wall
G1 E-0.8 F2100 ; Retract
G1 Z0.4 F36000 ; Z hop
G0 X238.5888 Y223.367 F36000 ; Move to start next pattern wall
G1 Z0.3 F36000 ; Z hop return
G1 E0.8 F2100 ; Un-retract
G1 X257.9418 Y242.72 E1.14524 F4800 ; Print pattern wall
G1 X238.5888 Y262.073 E1.14524 F4800 ; Print pattern wall
G1 E-0.8 F2100 ; Retract
G1 Z0.4 F36000 ; Z hop
G0 X241.0388 Y223.367 F36000 ; Move to next pattern
G1 Z0.3 F36000 ; Z hop return
G1 E0.8 F2100 ; Un-retract
SET_PRESSURE_ADVANCE ADVANCE=0.03 ; Set pressure advance
M117 PA 0.03
G1 X260.3918 Y242.72 E1.14524 F4800 ; Print pattern wall
G1 X241.0388 Y262.073 E1.14524 F4800 ; Print pattern wall
G1 E-0.8 F2100 ; Retract
G1 Z0.4 F36000 ; Z hop
G0 X241.6145 Y223.367 F36000 ; Move to start next pattern wall
G1 Z0.3 F36000 ; Z hop return
G1 E0.8 F2100 ; Un-retract
G1 X260.9675 Y242.72 E1.14524 F4800 ; Print pattern wall
G1 X241.6145 Y262.073 E1.14524 F4800 ; Print pattern wall
G1 E-0.8 F2100 ; Retract
G1 Z0.4 F36000 ; Z hop
G0 X242.1902 Y223.367 F36000 ; Move to start next pattern wall
G1 Z0.3 F36000 ; Z hop return
G1 E0.8 F2100 ; Un-retract
G1 X261.5432 Y242.72 E1.14524 F4800 ; Print pattern wall
G1 X242.1902 Y262.073 E1.14524 F4800 ; Print pattern wall
G1 E-0.8 F2100 ; Retract
G1 Z0.4 F36000 ; Z hop
G0 X244.6402 Y223.367 F36000 ; Move to next pattern
G1 Z0.3 F36000 ; Z hop return
G1 E0.8 F2100 ; Un-retract
SET_PRESSURE_ADVANCE ADVANCE=0.031 ; Set pressure advance
M117 PA 0.031
G1 X263.9932 Y242.72 E1.14524 F4800 ; Print pattern wall
G1 X244.6402 Y262.073 E1.14524 F4800 ; Print pattern wall
G1 E-0.8 F2100 ; Retract
G1 Z0.4 F36000 ; Z hop
G0 X245.2159 Y223.367 F36000 ; Move to start next pattern wall
G1 Z0.3 F36000 ; Z hop return
G1 E0.8 F2100 ; Un-retract
G1 X264.5689 Y242.72 E1.14524 F4800 ; Print pattern wall
G1 X245.2159 Y262.073 E1.14524 F4800 ; Print pattern wall
G1 E-0.8 F2100 ; Retract
G1 Z0.4 F36000 ; Z hop
G0 X245.7916 Y223.367 F36000 ; Move to start next pattern wall
G1 Z0.3 F36000 ; Z hop return
G1 E0.8 F2100 ; Un-retract
G1 X265.1446 Y242.72 E1.14524 F4800 ; Print pattern wall
G1 X245.7916 Y262.073 E1.14524 F4800 ; Print pattern wall
G1 E-0.8 F2100 ; Retract
G1 Z0.4 F36000 ; Z hop
G0 X248.2416 Y223.367 F36000 ; Move to next pattern
G1 Z0.3 F36000 ; Z hop return
G1 E0.8 F2100 ; Un-retract
SET_PRESSURE_ADVANCE ADVANCE=0.032 ; Set pressure advance
M117 PA 0.032
G1 X267.5946 Y242.72 E1.14524 F4800 ; Print pattern wall
G1 X248.2416 Y262.073 E1.14524 F4800 ; Print pattern wall
G1 E-0.8 F2100 ; Retract
G1 Z0.4 F36000 ; Z hop
G0 X248.8173 Y223.367 F36000 ; Move to start next pattern wall
G1 Z0.3 F36000 ; Z hop return
G1 E0.8 F2100 ; Un-retract
G1 X268.1703 Y242.72 E1.14524 F4800 ; Print pattern wall
G1 X248.8173 Y262.073 E1.14524 F4800 ; Print pattern wall
G1 E-0.8 F2100 ; Retract
G1 Z0.4 F36000 ; Z hop
G0 X249.393 Y223.367 F36000 ; Move to start next pattern wall
G1 Z0.3 F36000 ; Z hop return
G1 E0.8 F2100 ; Un-retract
G1 X268.746 Y242.72 E1.14524 F4800 ; Print pattern wall
G1 X249.393 Y262.073 E1.14524 F4800 ; Print pattern wall
G1 E-0.8 F2100 ; Retract
G1 Z0.4 F36000 ; Z hop
G0 X251.843 Y223.367 F36000 ; Move to next pattern
G1 Z0.3 F36000 ; Z hop return
G1 E0.8 F2100 ; Un-retract
SET_PRESSURE_ADVANCE ADVANCE=0.033 ; Set pressure advance
M117 PA 0.033
G1 X271.196 Y242.72 E1.14524 F4800 ; Print pattern wall
G1 X251.843 Y262.073 E1.14524 F4800 ; Print pattern wall
G1 E-0.8 F2100 ; Retract
G1 Z0.4 F36000 ; Z hop
G0 X252.4187 Y223.367 F36000 ; Move to start next pattern wall
G1 Z0.3 F36000 ; Z hop return
G1 E0.8 F2100 ; Un-retract
G1 X271.7717 Y242.72 E1.14524 F4800 ; Print pattern wall
G1 X252.4187 Y262.073 E1.14524 F4800 ; Print pattern wall
G1 E-0.8 F2100 ; Retract
G1 Z0.4 F36000 ; Z hop
G0 X252.9944 Y223.367 F36000 ; Move to start next pattern wall
G1 Z0.3 F36000 ; Z hop return
G1 E0.8 F2100 ; Un-retract
G1 X272.3474 Y242.72 E1.14524 F4800 ; Print pattern wall
G1 X252.9944 Y262.073 E1.14524 F4800 ; Print pattern wall
G1 E-0.8 F2100 ; Retract
G1 Z0.4 F36000 ; Z hop
G0 X255.4444 Y223.367 F36000 ; Move to next pattern
G1 Z0.3 F36000 ; Z hop return
G1 E0.8 F2100 ; Un-retract
SET_PRESSURE_ADVANCE ADVANCE=0.034 ; Set pressure advance
M117 PA 0.034
G1 X274.7974 Y242.72 E1.14524 F4800 ; Print pattern wall
G1 X255.4444 Y262.073 E1.14524 F4800 ; Print pattern wall
G1 E-0.8 F2100 ; Retract
G1 Z0.4 F36000 ; Z hop
G0 X256.0201 Y223.367 F36000 ; Move to start next pattern wall
G1 Z0.3 F36000 ; Z hop return
G1 E0.8 F2100 ; Un-retract
G1 X275.3731 Y242.72 E1.14524 F4800 ; Print pattern wall
G1 X256.0201 Y262.073 E1.14524 F4800 ; Print pattern wall
G1 E-0.8 F2100 ; Retract
G1 Z0.4 F36000 ; Z hop
G0 X256.5958 Y223.367 F36000 ; Move to start next pattern wall
G1 Z0.3 F36000 ; Z hop return
G1 E0.8 F2100 ; Un-retract
G1 X275.9488 Y242.72 E1.14524 F4800 ; Print pattern wall
G1 X256.5958 Y262.073 E1.14524 F4800 ; Print pattern wall
G1 E-0.8 F2100 ; Retract
G1 Z0.4 F36000 ; Z hop
G0 X259.0458 Y223.367 F36000 ; Move to next pattern
G1 Z0.3 F36000 ; Z hop return
G1 E0.8 F2100 ; Un-retract
SET_PRESSURE_ADVANCE ADVANCE=0.035 ; Set pressure advance
M117 PA 0.035
G1 X278.3988 Y242.72 E1.14524 F4800 ; Print pattern wall
G1 X259.0458 Y262.073 E1.14524 F4800 ; Print pattern wall
G1 E-0.8 F2100 ; Retract
G1 Z0.4 F36000 ; Z hop
G0 X259.6215 Y223.367 F36000 ; Move to start next pattern wall
G1 Z0.3 F36000 ; Z hop return
G1 E0.8 F2100 ; Un-retract
G1 X278.9745 Y242.72 E1.14524 F4800 ; Print pattern wall
G1 X259.6215 Y262.073 E1.14524 F4800 ; Print pattern wall
G1 E-0.8 F2100 ; Retract
G1 Z0.4 F36000 ; Z hop
G0 X260.1972 Y223.367 F36000 ; Move to start next pattern wall
G1 Z0.3 F36000 ; Z hop return
G1 E0.8 F2100 ; Un-retract
G1 X279.5502 Y242.72 E1.14524 F4800 ; Print pattern wall
G1 X260.1972 Y262.073 E1.14524 F4800 ; Print pattern wall
G1 E-0.8 F2100 ; Retract
G1 Z0.4 F36000 ; Z hop
G0 X262.6472 Y223.367 F36000 ; Move to next pattern
G1 Z0.3 F36000 ; Z hop return
G1 E0.8 F2100 ; Un-retract
SET_PRESSURE_ADVANCE ADVANCE=0.036 ; Set pressure advance
M117 PA 0.036
G1 X282.0002 Y242.72 E1.14524 F4800 ; Print pattern wall
G1 X262.6472 Y262.073 E1.14524 F4800 ; Print pattern wall
G1 E-0.8 F2100 ; Retract
G1 Z0.4 F36000 ; Z hop
G0 X263.2229 Y223.367 F36000 ; Move to start next pattern wall
G1 Z0.3 F36000 ; Z hop return
G1 E0.8 F2100 ; Un-retract
G1 X282.5759 Y242.72 E1.14524 F4800 ; Print pattern wall
G1 X263.2229 Y262.073 E1.14524 F4800 ; Print pattern wall
G1 E-0.8 F2100 ; Retract
G1 Z0.4 F36000 ; Z hop
G0 X263.7986 Y223.367 F36000 ; Move to start next pattern wall
G1 Z0.3 F36000 ; Z hop return
G1 E0.8 F2100 ; Un-retract
G1 X283.1516 Y242.72 E1.14524 F4800 ; Print pattern wall
G1 X263.7986 Y262.073 E1.14524 F4800 ; Print pattern wall
G1 E-0.8 F2100 ; Retract
G1 Z0.4 F36000 ; Z hop
G0 X266.2486 Y223.367 F36000 ; Move to next pattern
G1 Z0.3 F36000 ; Z hop return
G1 E0.8 F2100 ; Un-retract
SET_PRESSURE_ADVANCE ADVANCE=0.037 ; Set pressure advance
M117 PA 0.037
G1 X285.6016 Y242.72 E1.14524 F4800 ; Print pattern wall
G1 X266.2486 Y262.073 E1.14524 F4800 ; Print pattern wall
G1 E-0.8 F2100 ; Retract
G1 Z0.4 F36000 ; Z hop
G0 X266.8243 Y223.367 F36000 ; Move to start next pattern wall
G1 Z0.3 F36000 ; Z hop return
G1 E0.8 F2100 ; Un-retract
G1 X286.1773 Y242.72 E1.14524 F4800 ; Print pattern wall
G1 X266.8243 Y262.073 E1.14524 F4800 ; Print pattern wall
G1 E-0.8 F2100 ; Retract
G1 Z0.4 F36000 ; Z hop
G0 X267.4 Y223.367 F36000 ; Move to start next pattern wall
G1 Z0.3 F36000 ; Z hop return
G1 E0.8 F2100 ; Un-retract
G1 X286.753 Y242.72 E1.14524 F4800 ; Print pattern wall
G1 X267.4 Y262.073 E1.14524 F4800 ; Print pattern wall
G1 E-0.8 F2100 ; Retract
G1 Z0.4 F36000 ; Z hop
G0 X269.85 Y223.367 F36000 ; Move to next pattern
G1 Z0.3 F36000 ; Z hop return
G1 E0.8 F2100 ; Un-retract
SET_PRESSURE_ADVANCE ADVANCE=0.038 ; Set pressure advance
M117 PA 0.038
G1 X289.203 Y242.72 E1.14524 F4800 ; Print pattern wall
G1 X269.85 Y262.073 E1.14524 F4800 ; Print pattern wall
G1 E-0.8 F2100 ; Retract
G1 Z0.4 F36000 ; Z hop
G0 X270.4257 Y223.367 F36000 ; Move to start next pattern wall
G1 Z0.3 F36000 ; Z hop return
G1 E0.8 F2100 ; Un-retract
G1 X289.7787 Y242.72 E1.14524 F4800 ; Print pattern wall
G1 X270.4257 Y262.073 E1.14524 F4800 ; Print pattern wall
G1 E-0.8 F2100 ; Retract
G1 Z0.4 F36000 ; Z hop
G0 X271.0014 Y223.367 F36000 ; Move to start next pattern wall
G1 Z0.3 F36000 ; Z hop return
G1 E0.8 F2100 ; Un-retract
G1 X290.3544 Y242.72 E1.14524 F4800 ; Print pattern wall
G1 X271.0014 Y262.073 E1.14524 F4800 ; Print pattern wall
G1 E-0.8 F2100 ; Retract
G1 Z0.4 F36000 ; Z hop
G0 X273.4514 Y223.367 F36000 ; Move to next pattern
G1 Z0.3 F36000 ; Z hop return
G1 E0.8 F2100 ; Un-retract
SET_PRESSURE_ADVANCE ADVANCE=0.039 ; Set pressure advance
M117 PA 0.039
G1 X292.8044 Y242.72 E1.14524 F4800 ; Print pattern wall
G1 X273.4514 Y262.073 E1.14524 F4800 ; Print pattern wall
G1 E-0.8 F2100 ; Retract
G1 Z0.4 F36000 ; Z hop
G0 X274.0271 Y223.367 F36000 ; Move to start next pattern wall
G1 Z0.3 F36000 ; Z hop return
G1 E0.8 F2100 ; Un-retract
G1 X293.3801 Y242.72 E1.14524 F4800 ; Print pattern wall
G1 X274.0271 Y262.073 E1.14524 F4800 ; Print pattern wall
G1 E-0.8 F2100 ; Retract
G1 Z0.4 F36000 ; Z hop
G0 X274.6028 Y223.367 F36000 ; Move to start next pattern wall
G1 Z0.3 F36000 ; Z hop return
G1 E0.8 F2100 ; Un-retract
G1 X293.9558 Y242.72 E1.14524 F4800 ; Print pattern wall
G1 X274.6028 Y262.073 E1.14524 F4800 ; Print pattern wall
G1 E-0.8 F2100 ; Retract
G1 Z0.4 F36000 ; Z hop
G0 X277.0528 Y223.367 F36000 ; Move to next pattern
G1 Z0.3 F36000 ; Z hop return
G1 E0.8 F2100 ; Un-retract
SET_PRESSURE_ADVANCE ADVANCE=0.04 ; Set pressure advance
M117 PA 0.04
G1 X296.4058 Y242.72 E1.14524 F4800 ; Print pattern wall
G1 X277.0528 Y262.073 E1.14524 F4800 ; Print pattern wall
G1 E-0.8 F2100 ; Retract
G1 Z0.4 F36000 ; Z hop
G0 X277.6285 Y223.367 F36000 ; Move to start next pattern wall
G1 Z0.3 F36000 ; Z hop return
G1 E0.8 F2100 ; Un-retract
G1 X296.9815 Y242.72 E1.14524 F4800 ; Print pattern wall
G1 X277.6285 Y262.073 E1.14524 F4800 ; Print pattern wall
G1 E-0.8 F2100 ; Retract
G1 Z0.4 F36000 ; Z hop
G0 X278.2042 Y223.367 F36000 ; Move to start next pattern wall
G1 Z0.3 F36000 ; Z hop return
G1 E0.8 F2100 ; Un-retract
G1 X297.5572 Y242.72 E1.14524 F4800 ; Print pattern wall
G1 X278.2042 Y262.073 E1.14524 F4800 ; Print pattern wall
G1 E-0.8 F2100 ; Retract
G1 Z0.4 F36000 ; Z hop
G0 X280.6542 Y223.367 F36000 ; Move to next pattern
G1 Z0.3 F36000 ; Z hop return
G1 E0.8 F2100 ; Un-retract
SET_PRESSURE_ADVANCE ADVANCE=0.041 ; Set pressure advance
M117 PA 0.041
G1 X300.0072 Y242.72 E1.14524 F4800 ; Print pattern wall
G1 X280.6542 Y262.073 E1.14524 F4800 ; Print pattern wall
G1 E-0.8 F2100 ; Retract
G1 Z0.4 F36000 ; Z hop
G0 X281.2298 Y223.367 F36000 ; Move to start next pattern wall
G1 Z0.3 F36000 ; Z hop return
G1 E0.8 F2100 ; Un-retract
G1 X300.5829 Y242.72 E1.14524 F4800 ; Print pattern wall
G1 X281.2298 Y262.073 E1.14524 F4800 ; Print pattern wall
G1 E-0.8 F2100 ; Retract
G1 Z0.4 F36000 ; Z hop
G0 X281.8055 Y223.367 F36000 ; Move to start next pattern wall
G1 Z0.3 F36000 ; Z hop return
G1 E0.8 F2100 ; Un-retract
G1 X301.1586 Y242.72 E1.14524 F4800 ; Print pattern wall
G1 X281.8055 Y262.073 E1.14524 F4800 ; Print pattern wall
G1 E-0.8 F2100 ; Retract
G1 Z0.4 F36000 ; Z hop
G0 X284.2555 Y223.367 F36000 ; Move to next pattern
G1 Z0.3 F36000 ; Z hop return
G1 E0.8 F2100 ; Un-retract
SET_PRESSURE_ADVANCE ADVANCE=0.042 ; Set pressure advance
M117 PA 0.042
G1 X303.6086 Y242.72 E1.14524 F4800 ; Print pattern wall
G1 X284.2555 Y262.073 E1.14524 F4800 ; Print pattern wall
G1 E-0.8 F2100 ; Retract
G1 Z0.4 F36000 ; Z hop
G0 X284.8312 Y223.367 F36000 ; Move to start next pattern wall
G1 Z0.3 F36000 ; Z hop return
G1 E0.8 F2100 ; Un-retract
G1 X304.1843 Y242.72 E1.14524 F4800 ; Print pattern wall
G1 X284.8312 Y262.073 E1.14524 F4800 ; Print pattern wall
G1 E-0.8 F2100 ; Retract
G1 Z0.4 F36000 ; Z hop
G0 X285.4069 Y223.367 F36000 ; Move to start next pattern wall
G1 Z0.3 F36000 ; Z hop return
G1 E0.8 F2100 ; Un-retract
G1 X304.76 Y242.72 E1.14524 F4800 ; Print pattern wall
G1 X285.4069 Y262.073 E1.14524 F4800 ; Print pattern wall
G1 E-0.8 F2100 ; Retract
G1 Z0.4 F36000 ; Z hop
G0 X287.8569 Y223.367 F36000 ; Move to next pattern
G1 Z0.3 F36000 ; Z hop return
G1 E0.8 F2100 ; Un-retract
SET_PRESSURE_ADVANCE ADVANCE=0.043 ; Set pressure advance
M117 PA 0.043
G1 X307.21 Y242.72 E1.14524 F4800 ; Print pattern wall
G1 X287.8569 Y262.073 E1.14524 F4800 ; Print pattern wall
G1 E-0.8 F2100 ; Retract
G1 Z0.4 F36000 ; Z hop
G0 X288.4326 Y223.367 F36000 ; Move to start next pattern wall
G1 Z0.3 F36000 ; Z hop return
G1 E0.8 F2100 ; Un-retract
G1 X307.7857 Y242.72 E1.14524 F4800 ; Print pattern wall
G1 X288.4326 Y262.073 E1.14524 F4800 ; Print pattern wall
G1 E-0.8 F2100 ; Retract
G1 Z0.4 F36000 ; Z hop
G0 X289.0083 Y223.367 F36000 ; Move to start next pattern wall
G1 Z0.3 F36000 ; Z hop return
G1 E0.8 F2100 ; Un-retract
G1 X308.3613 Y242.72 E1.14524 F4800 ; Print pattern wall
G1 X289.0083 Y262.073 E1.14524 F4800 ; Print pattern wall
G1 E-0.8 F2100 ; Retract
G1 Z0.4 F36000 ; Z hop
G0 X291.4583 Y223.367 F36000 ; Move to next pattern
G1 Z0.3 F36000 ; Z hop return
G1 E0.8 F2100 ; Un-retract
SET_PRESSURE_ADVANCE ADVANCE=0.044 ; Set pressure advance
M117 PA 0.044
G1 X310.8113 Y242.72 E1.14524 F4800 ; Print pattern wall
G1 X291.4583 Y262.073 E1.14524 F4800 ; Print pattern wall
G1 E-0.8 F2100 ; Retract
G1 Z0.4 F36000 ; Z hop
G0 X292.034 Y223.367 F36000 ; Move to start next pattern wall
G1 Z0.3 F36000 ; Z hop return
G1 E0.8 F2100 ; Un-retract
G1 X311.387 Y242.72 E1.14524 F4800 ; Print pattern wall
G1 X292.034 Y262.073 E1.14524 F4800 ; Print pattern wall
G1 E-0.8 F2100 ; Retract
G1 Z0.4 F36000 ; Z hop
G0 X292.6097 Y223.367 F36000 ; Move to start next pattern wall
G1 Z0.3 F36000 ; Z hop return
G1 E0.8 F2100 ; Un-retract
G1 X311.9627 Y242.72 E1.14524 F4800 ; Print pattern wall
G1 X292.6097 Y262.073 E1.14524 F4800 ; Print pattern wall
G1 E-0.8 F2100 ; Retract
G1 Z0.4 F36000 ; Z hop
G0 X295.0597 Y223.367 F36000 ; Move to next pattern
G1 Z0.3 F36000 ; Z hop return
G1 E0.8 F2100 ; Un-retract
SET_PRESSURE_ADVANCE ADVANCE=0.045 ; Set pressure advance
M117 PA 0.045
G1 X314.4127 Y242.72 E1.14524 F4800 ; Print pattern wall
G1 X295.0597 Y262.073 E1.14524 F4800 ; Print pattern wall
G1 E-0.8 F2100 ; Retract
G1 Z0.4 F36000 ; Z hop
G0 X295.6354 Y223.367 F36000 ; Move to start next pattern wall
G1 Z0.3 F36000 ; Z hop return
G1 E0.8 F2100 ; Un-retract
G1 X314.9884 Y242.72 E1.14524 F4800 ; Print pattern wall
G1 X295.6354 Y262.073 E1.14524 F4800 ; Print pattern wall
G1 E-0.8 F2100 ; Retract
G1 Z0.4 F36000 ; Z hop
G0 X296.2111 Y223.367 F36000 ; Move to start next pattern wall
G1 Z0.3 F36000 ; Z hop return
G1 E0.8 F2100 ; Un-retract
G1 X315.5641 Y242.72 E1.14524 F4800 ; Print pattern wall
G1 X296.2111 Y262.073 E1.14524 F4800 ; Print pattern wall
G1 E-0.8 F2100 ; Retract
G1 Z0.4 F36000 ; Z hop
G0 X298.6611 Y223.367 F36000 ; Move to next pattern
G1 Z0.3 F36000 ; Z hop return
G1 E0.8 F2100 ; Un-retract
SET_PRESSURE_ADVANCE ADVANCE=0.046 ; Set pressure advance
M117 PA 0.046
G1 X318.0141 Y242.72 E1.14524 F4800 ; Print pattern wall
G1 X298.6611 Y262.073 E1.14524 F4800 ; Print pattern wall
G1 E-0.8 F2100 ; Retract
G1 Z0.4 F36000 ; Z hop
G0 X299.2368 Y223.367 F36000 ; Move to start next pattern wall
G1 Z0.3 F36000 ; Z hop return
G1 E0.8 F2100 ; Un-retract
G1 X318.5898 Y242.72 E1.14524 F4800 ; Print pattern wall
G1 X299.2368 Y262.073 E1.14524 F4800 ; Print pattern wall
G1 E-0.8 F2100 ; Retract
G1 Z0.4 F36000 ; Z hop
G0 X299.8125 Y223.367 F36000 ; Move to start next pattern wall
G1 Z0.3 F36000 ; Z hop return
G1 E0.8 F2100 ; Un-retract
G1 X319.1655 Y242.72 E1.14524 F4800 ; Print pattern wall
G1 X299.8125 Y262.073 E1.14524 F4800 ; Print pattern wall
G1 E-0.8 F2100 ; Retract
G1 Z0.4 F36000 ; Z hop
G0 X302.2625 Y223.367 F36000 ; Move to next pattern
G1 Z0.3 F36000 ; Z hop return
G1 E0.8 F2100 ; Un-retract
SET_PRESSURE_ADVANCE ADVANCE=0.047 ; Set pressure advance
M117 PA 0.047
G1 X321.6155 Y242.72 E1.14524 F4800 ; Print pattern wall
G1 X302.2625 Y262.073 E1.14524 F4800 ; Print pattern wall
G1 E-0.8 F2100 ; Retract
G1 Z0.4 F36000 ; Z hop
G0 X302.8382 Y223.367 F36000 ; Move to start next pattern wall
G1 Z0.3 F36000 ; Z hop return
G1 E0.8 F2100 ; Un-retract
G1 X322.1912 Y242.72 E1.14524 F4800 ; Print pattern wall
G1 X302.8382 Y262.073 E1.14524 F4800 ; Print pattern wall
G1 E-0.8 F2100 ; Retract
G1 Z0.4 F36000 ; Z hop
G0 X303.4139 Y223.367 F36000 ; Move to start next pattern wall
G1 Z0.3 F36000 ; Z hop return
G1 E0.8 F2100 ; Un-retract
G1 X322.7669 Y242.72 E1.14524 F4800 ; Print pattern wall
G1 X303.4139 Y262.073 E1.14524 F4800 ; Print pattern wall
G1 E-0.8 F2100 ; Retract
G1 Z0.4 F36000 ; Z hop
G0 X305.8639 Y223.367 F36000 ; Move to next pattern
G1 Z0.3 F36000 ; Z hop return
G1 E0.8 F2100 ; Un-retract
SET_PRESSURE_ADVANCE ADVANCE=0.048 ; Set pressure advance
M117 PA 0.048
G1 X325.2169 Y242.72 E1.14524 F4800 ; Print pattern wall
G1 X305.8639 Y262.073 E1.14524 F4800 ; Print pattern wall
G1 E-0.8 F2100 ; Retract
G1 Z0.4 F36000 ; Z hop
G0 X306.4396 Y223.367 F36000 ; Move to start next pattern wall
G1 Z0.3 F36000 ; Z hop return
G1 E0.8 F2100 ; Un-retract
G1 X325.7926 Y242.72 E1.14524 F4800 ; Print pattern wall
G1 X306.4396 Y262.073 E1.14524 F4800 ; Print pattern wall
G1 E-0.8 F2100 ; Retract
G1 Z0.4 F36000 ; Z hop
G0 X307.0153 Y223.367 F36000 ; Move to start next pattern wall
G1 Z0.3 F36000 ; Z hop return
G1 E0.8 F2100 ; Un-retract
G1 X326.3683 Y242.72 E1.14524 F4800 ; Print pattern wall
G1 X307.0153 Y262.073 E1.14524 F4800 ; Print pattern wall
G1 E-0.8 F2100 ; Retract
G1 Z0.4 F36000 ; Z hop
G0 X309.4653 Y223.367 F36000 ; Move to next pattern
G1 Z0.3 F36000 ; Z hop return
G1 E0.8 F2100 ; Un-retract
SET_PRESSURE_ADVANCE ADVANCE=0.049 ; Set pressure advance
M117 PA 0.049
G1 X328.8183 Y242.72 E1.14524 F4800 ; Print pattern wall
G1 X309.4653 Y262.073 E1.14524 F4800 ; Print pattern wall
G1 E-0.8 F2100 ; Retract
G1 Z0.4 F36000 ; Z hop
G0 X310.041 Y223.367 F36000 ; Move to start next pattern wall
G1 Z0.3 F36000 ; Z hop return
G1 E0.8 F2100 ; Un-retract
G1 X329.394 Y242.72 E1.14524 F4800 ; Print pattern wall
G1 X310.041 Y262.073 E1.14524 F4800 ; Print pattern wall
G1 E-0.8 F2100 ; Retract
G1 Z0.4 F36000 ; Z hop
G0 X310.6167 Y223.367 F36000 ; Move to start next pattern wall
G1 Z0.3 F36000 ; Z hop return
G1 E0.8 F2100 ; Un-retract
G1 X329.9697 Y242.72 E1.14524 F4800 ; Print pattern wall
G1 X310.6167 Y262.073 E1.14524 F4800 ; Print pattern wall
G1 E-0.8 F2100 ; Retract
G1 Z0.4 F36000 ; Z hop
G0 X313.0667 Y223.367 F36000 ; Move to next pattern
G1 Z0.3 F36000 ; Z hop return
G1 E0.8 F2100 ; Un-retract
SET_PRESSURE_ADVANCE ADVANCE=0.05 ; Set pressure advance
M117 PA 0.05
G1 X332.4197 Y242.72 E1.14524 F4800 ; Print pattern wall
G1 X313.0667 Y262.073 E1.14524 F4800 ; Print pattern wall
G1 E-0.8 F2100 ; Retract
G1 Z0.4 F36000 ; Z hop
G0 X313.6424 Y223.367 F36000 ; Move to start next pattern wall
G1 Z0.3 F36000 ; Z hop return
G1 E0.8 F2100 ; Un-retract
G1 X332.9954 Y242.72 E1.14524 F4800 ; Print pattern wall
G1 X313.6424 Y262.073 E1.14524 F4800 ; Print pattern wall
G1 E-0.8 F2100 ; Retract
G1 Z0.4 F36000 ; Z hop
G0 X314.2181 Y223.367 F36000 ; Move to start next pattern wall
G1 Z0.3 F36000 ; Z hop return
G1 E0.8 F2100 ; Un-retract
G1 X333.5711 Y242.72 E1.14524 F4800 ; Print pattern wall
G1 X314.2181 Y262.073 E1.14524 F4800 ; Print pattern wall
G1 E-0.8 F2100 ; Retract
G1 Z0.4 F36000 ; Z hop
G0 X169.0109 Y223.367 F36000 ; Move back to start position
G1 Z0.3 F36000 ; Z hop return
G1 E0.8 F2100 ; Un-retract
M106 S102 ; Set fan speed
G0 Z0.5 F36000 ; Move to layer height
SET_PRESSURE_ADVANCE ADVANCE=0.01 ; Set pressure advance to start value for numbering
M117 PA 0.01
G1 E-0.8 F2100 ; Retract
G1 Z0.6 F36000 ; Z hop
G0 X165.7264 Y265.3832 F36000 ; Move
G1 Z0.5 F36000 ; Z hop return
G1 E0.8 F2100 ; Un-retract
G1 X167.7264 Y265.3832 E0.0589 F4800 ; Glyph: 0
G1 X169.7264 Y265.3832 E0.0589 F4800 ; Glyph: 0
G1 X169.7264 Y267.3832 E0.0589 F4800 ; Glyph: 0
G1 X167.7264 Y267.3832 E0.0589 F4800 ; Glyph: 0
G1 X165.7264 Y267.3832 E0.0589 F4800 ; Glyph: 0
G1 X165.7264 Y265.3832 E0.0589 F4800 ; Glyph: 0
G1 E-0.8 F2100 ; Retract
G1 Z0.6 F36000 ; Z hop
G0 X169.7264 Y268.3832 F36000 ; Move
G1 Z0.5 F36000 ; Z hop return
G1 E0.8 F2100 ; Un-retract
G1 X168.9764 Y268.3832 E0.02209 F4800 ; Glyph: .
G1 E-0.8 F2100 ; Retract
G1 Z0.6 F36000 ; Z hop
G0 X165.7264 Y269.3832 F36000 ; Move
G1 Z0.5 F36000 ; Z hop return
G1 E0.8 F2100 ; Un-retract
G1 X167.7264 Y269.3832 E0.0589 F4800 ; Glyph: 0
G1 X169.7264 Y269.3832 E0.0589 F4800 ; Glyph: 0
G1 X169.7264 Y271.3832 E0.0589 F4800 ; Glyph: 0
G1 X167.7264 Y271.3832 E0.0589 F4800 ; Glyph: 0
G1 X165.7264 Y271.3832 E0.0589 F4800 ; Glyph: 0
G1 X165.7264 Y269.3832 E0.0589 F4800 ; Glyph: 0
G1 E-0.8 F2100 ; Retract
G1 Z0.6 F36000 ; Z hop
G0 X165.7264 Y272.3832 F36000 ; Move
G1 Z0.5 F36000 ; Z hop return
G1 E0.8 F2100 ; Un-retract
G1 X167.7264 Y272.3832 E0.0589 F4800 ; Glyph: 1
G1 X169.7264 Y272.3832 E0.0589 F4800 ; Glyph: 1
G1 E-0.8 F2100 ; Retract
G1 Z0.6 F36000 ; Z hop
G0 X172.9292 Y265.3832 F36000 ; Move
G1 Z0.5 F36000 ; Z hop return
G1 E0.8 F2100 ; Un-retract
G1 X174.9292 Y265.3832 E0.0589 F4800 ; Glyph: 0
G1 X176.9292 Y265.3832 E0.0589 F4800 ; Glyph: 0
G1 X176.9292 Y267.3832 E0.0589 F4800 ; Glyph: 0
G1 X174.9292 Y267.3832 E0.0589 F4800 ; Glyph: 0
G1 X172.9292 Y267.3832 E0.0589 F4800 ; Glyph: 0
G1 X172.9292 Y265.3832 E0.0589 F4800 ; Glyph: 0
G1 E-0.8 F2100 ; Retract
G1 Z0.6 F36000 ; Z hop
G0 X176.9292 Y268.3832 F36000 ; Move
G1 Z0.5 F36000 ; Z hop return
G1 E0.8 F2100 ; Un-retract
G1 X176.1792 Y268.3832 E0.02209 F4800 ; Glyph: .
G1 E-0.8 F2100 ; Retract
G1 Z0.6 F36000 ; Z hop
G0 X172.9292 Y269.3832 F36000 ; Move
G1 Z0.5 F36000 ; Z hop return
G1 E0.8 F2100 ; Un-retract
G1 X174.9292 Y269.3832 E0.0589 F4800 ; Glyph: 0
G1 X176.9292 Y269.3832 E0.0589 F4800 ; Glyph: 0
G1 X176.9292 Y271.3832 E0.0589 F4800 ; Glyph: 0
G1 X174.9292 Y271.3832 E0.0589 F4800 ; Glyph: 0
G1 X172.9292 Y271.3832 E0.0589 F4800 ; Glyph: 0
G1 X172.9292 Y269.3832 E0.0589 F4800 ; Glyph: 0
G1 E-0.8 F2100 ; Retract
G1 Z0.6 F36000 ; Z hop
G0 X172.9292 Y272.3832 F36000 ; Move
G1 Z0.5 F36000 ; Z hop return
G1 E0.8 F2100 ; Un-retract
G1 X174.9292 Y272.3832 E0.0589 F4800 ; Glyph: 1
G1 X176.9292 Y272.3832 E0.0589 F4800 ; Glyph: 1
G1 E-0.8 F2100 ; Retract
G1 Z0.6 F36000 ; Z hop
G0 X172.9292 Y273.3832 F36000 ; Move
G1 Z0.5 F36000 ; Z hop return
G1 E0.8 F2100 ; Un-retract
G1 X172.9292 Y275.3832 E0.0589 F4800 ; Glyph: 2
G1 X174.9292 Y275.3832 E0.0589 F4800 ; Glyph: 2
G1 X174.9292 Y273.3832 E0.0589 F4800 ; Glyph: 2
G1 X176.9292 Y273.3832 E0.0589 F4800 ; Glyph: 2
G1 X176.9292 Y275.3832 E0.0589 F4800 ; Glyph: 2
G1 E-0.8 F2100 ; Retract
G1 Z0.6 F36000 ; Z hop
G0 X180.132 Y265.3832 F36000 ; Move
G1 Z0.5 F36000 ; Z hop return
G1 E0.8 F2100 ; Un-retract
G1 X182.132 Y265.3832 E0.0589 F4800 ; Glyph: 0
G1 X184.132 Y265.3832 E0.0589 F4800 ; Glyph: 0
G1 X184.132 Y267.3832 E0.0589 F4800 ; Glyph: 0
G1 X182.132 Y267.3832 E0.0589 F4800 ; Glyph: 0
G1 X180.132 Y267.3832 E0.0589 F4800 ; Glyph: 0
G1 X180.132 Y265.3832 E0.0589 F4800 ; Glyph: 0
G1 E-0.8 F2100 ; Retract
G1 Z0.6 F36000 ; Z hop
G0 X184.132 Y268.3832 F36000 ; Move
G1 Z0.5 F36000 ; Z hop return
G1 E0.8 F2100 ; Un-retract
G1 X183.382 Y268.3832 E0.02209 F4800 ; Glyph: .
G1 E-0.8 F2100 ; Retract
G1 Z0.6 F36000 ; Z hop
G0 X180.132 Y269.3832 F36000 ; Move
G1 Z0.5 F36000 ; Z hop return
G1 E0.8 F2100 ; Un-retract
G1 X182.132 Y269.3832 E0.0589 F4800 ; Glyph: 0
G1 X184.132 Y269.3832 E0.0589 F4800 ; Glyph: 0
G1 X184.132 Y271.3832 E0.0589 F4800 ; Glyph: 0
G1 X182.132 Y271.3832 E0.0589 F4800 ; Glyph: 0
G1 X180.132 Y271.3832 E0.0589 F4800 ; Glyph: 0
G1 X180.132 Y269.3832 E0.0589 F4800 ; Glyph: 0
G1 E-0.8 F2100 ; Retract
G1 Z0.6 F36000 ; Z hop
G0 X180.132 Y272.3832 F36000 ; Move
G1 Z0.5 F36000 ; Z hop return
G1 E0.8 F2100 ; Un-retract
G1 X182.132 Y272.3832 E0.0589 F4800 ; Glyph: 1
G1 X184.132 Y272.3832 E0.0589 F4800 ; Glyph: 1
G1 E-0.8 F2100 ; Retract
G1 Z0.6 F36000 ; Z hop
G0 X180.132 Y275.3832 F36000 ; Move
G1 Z0.5 F36000 ; Z hop return
G1 E0.8 F2100 ; Un-retract
G1 X182.132 Y275.3832 E0.0589 F4800 ; Glyph: 4
G1 X184.132 Y275.3832 E0.0589 F4800 ; Glyph: 4
G0 X182.132 Y275.3832 F36000 ; Move
G1 X182.132 Y273.3832 E0.0589 F4800 ; Glyph: 4
G1 X180.132 Y273.3832 E0.0589 F4800 ; Glyph: 4
G1 E-0.8 F2100 ; Retract
G1 Z0.6 F36000 ; Z hop
G0 X187.3348 Y265.3832 F36000 ; Move
G1 Z0.5 F36000 ; Z hop return
G1 E0.8 F2100 ; Un-retract
G1 X189.3348 Y265.3832 E0.0589 F4800 ; Glyph: 0
G1 X191.3348 Y265.3832 E0.0589 F4800 ; Glyph: 0
G1 X191.3348 Y267.3832 E0.0589 F4800 ; Glyph: 0
G1 X189.3348 Y267.3832 E0.0589 F4800 ; Glyph: 0
G1 X187.3348 Y267.3832 E0.0589 F4800 ; Glyph: 0
G1 X187.3348 Y265.3832 E0.0589 F4800 ; Glyph: 0
G1 E-0.8 F2100 ; Retract
G1 Z0.6 F36000 ; Z hop
G0 X191.3348 Y268.3832 F36000 ; Move
G1 Z0.5 F36000 ; Z hop return
G1 E0.8 F2100 ; Un-retract
G1 X190.5848 Y268.3832 E0.02209 F4800 ; Glyph: .
G1 E-0.8 F2100 ; Retract
G1 Z0.6 F36000 ; Z hop
G0 X187.3348 Y269.3832 F36000 ; Move
G1 Z0.5 F36000 ; Z hop return
G1 E0.8 F2100 ; Un-retract
G1 X189.3348 Y269.3832 E0.0589 F4800 ; Glyph: 0
G1 X191.3348 Y269.3832 E0.0589 F4800 ; Glyph: 0
G1 X191.3348 Y271.3832 E0.0589 F4800 ; Glyph: 0
G1 X189.3348 Y271.3832 E0.0589 F4800 ; Glyph: 0
G1 X187.3348 Y271.3832 E0.0589 F4800 ; Glyph: 0
G1 X187.3348 Y269.3832 E0.0589 F4800 ; Glyph: 0
G1 E-0.8 F2100 ; Retract
G1 Z0.6 F36000 ; Z hop
G0 X187.3348 Y272.3832 F36000 ; Move
G1 Z0.5 F36000 ; Z hop return
G1 E0.8 F2100 ; Un-retract
G1 X189.3348 Y272.3832 E0.0589 F4800 ; Glyph: 1
G1 X191.3348 Y272.3832 E0.0589 F4800 ; Glyph: 1
G1 E-0.8 F2100 ; Retract
G1 Z0.6 F36000 ; Z hop
G0 X187.3348 Y275.3832 F36000 ; Move
G1 Z0.5 F36000 ; Z hop return
G1 E0.8 F2100 ; Un-retract
G1 X187.3348 Y273.3832 E0.0589 F4800 ; Glyph: 6
G1 X189.3348 Y273.3832 E0.0589 F4800 ; Glyph: 6
G1 X191.3348 Y273.3832 E0.0589 F4800 ; Glyph: 6
G1 X191.3348 Y275.3832 E0.0589 F4800 ; Glyph: 6
G1 X189.3348 Y275.3832 E0.0589 F4800 ; Glyph: 6
G1 X189.3348 Y273.3832 E0.0589 F4800 ; Glyph: 6
G1 E-0.8 F2100 ; Retract
G1 Z0.6 F36000 ; Z hop
G0 X194.5376 Y265.3832 F36000 ; Move
G1 Z0.5 F36000 ; Z hop return
G1 E0.8 F2100 ; Un-retract
G1 X196.5376 Y265.3832 E0.0589 F4800 ; Glyph: 0
G1 X198.5376 Y265.3832 E0.0589 F4800 ; Glyph: 0
G1 X198.5376 Y267.3832 E0.0589 F4800 ; Glyph: 0
G1 X196.5376 Y267.3832 E0.0589 F4800 ; Glyph: 0
G1 X194.5376 Y267.3832 E0.0589 F4800 ; Glyph: 0
G1 X194.5376 Y265.3832 E0.0589 F4800 ; Glyph: 0
G1 E-0.8 F2100 ; Retract
G1 Z0.6 F36000 ; Z hop
G0 X198.5376 Y268.3832 F36000 ; Move
G1 Z0.5 F36000 ; Z hop return
G1 E0.8 F2100 ; Un-retract
G1 X197.7876 Y268.3832 E0.02209 F4800 ; Glyph: .
G1 E-0.8 F2100 ; Retract
G1 Z0.6 F36000 ; Z hop
G0 X194.5376 Y269.3832 F36000 ; Move
G1 Z0.5 F36000 ; Z hop return
G1 E0.8 F2100 ; Un-retract
G1 X196.5376 Y269.3832 E0.0589 F4800 ; Glyph: 0
G1 X198.5376 Y269.3832 E0.0589 F4800 ; Glyph: 0
G1 X198.5376 Y271.3832 E0.0589 F4800 ; Glyph: 0
G1 X196.5376 Y271.3832 E0.0589 F4800 ; Glyph: 0
G1 X194.5376 Y271.3832 E0.0589 F4800 ; Glyph: 0
G1 X194.5376 Y269.3832 E0.0589 F4800 ; Glyph: 0
G1 E-0.8 F2100 ; Retract
G1 Z0.6 F36000 ; Z hop
G0 X194.5376 Y272.3832 F36000 ; Move
G1 Z0.5 F36000 ; Z hop return
G1 E0.8 F2100 ; Un-retract
G1 X196.5376 Y272.3832 E0.0589 F4800 ; Glyph: 1
G1 X198.5376 Y272.3832 E0.0589 F4800 ; Glyph: 1
G1 E-0.8 F2100 ; Retract
G1 Z0.6 F36000 ; Z hop
G0 X194.5376 Y273.3832 F36000 ; Move
G1 Z0.5 F36000 ; Z hop return
G1 E0.8 F2100 ; Un-retract
G1 X196.5376 Y273.3832 E0.0589 F4800 ; Glyph: 8
G1 X198.5376 Y273.3832 E0.0589 F4800 ; Glyph: 8
G1 X198.5376 Y275.3832 E0.0589 F4800 ; Glyph: 8
G1 X196.5376 Y275.3832 E0.0589 F4800 ; Glyph: 8
G1 X194.5376 Y275.3832 E0.0589 F4800 ; Glyph: 8
G1 X194.5376 Y273.3832 E0.0589 F4800 ; Glyph: 8
G0 X196.5376 Y273.3832 F36000 ; Move
G1 X196.5376 Y275.3832 E0.0589 F4800 ; Glyph: 8
G1 E-0.8 F2100 ; Retract
G1 Z0.6 F36000 ; Z hop
G0 X201.7404 Y265.3832 F36000 ; Move
G1 Z0.5 F36000 ; Z hop return
G1 E0.8 F2100 ; Un-retract
G1 X203.7404 Y265.3832 E0.0589 F4800 ; Glyph: 0
G1 X205.7404 Y265.3832 E0.0589 F4800 ; Glyph: 0
G1 X205.7404 Y267.3832 E0.0589 F4800 ; Glyph: 0
G1 X203.7404 Y267.3832 E0.0589 F4800 ; Glyph: 0
G1 X201.7404 Y267.3832 E0.0589 F4800 ; Glyph: 0
G1 X201.7404 Y265.3832 E0.0589 F4800 ; Glyph: 0
G1 E-0.8 F2100 ; Retract
G1 Z0.6 F36000 ; Z hop
G0 X205.7404 Y268.3832 F36000 ; Move
G1 Z0.5 F36000 ; Z hop return
G1 E0.8 F2100 ; Un-retract
G1 X204.9904 Y268.3832 E0.02209 F4800 ; Glyph: .
G1 E-0.8 F2100 ; Retract
G1 Z0.6 F36000 ; Z hop
G0 X201.7404 Y269.3832 F36000 ; Move
G1 Z0.5 F36000 ; Z hop return
G1 E0.8 F2100 ; Un-retract
G1 X203.7404 Y269.3832 E0.0589 F4800 ; Glyph: 0
G1 X205.7404 Y269.3832 E0.0589 F4800 ; Glyph: 0
G1 X205.7404 Y271.3832 E0.0589 F4800 ; Glyph: 0
G1 X203.7404 Y271.3832 E0.0589 F4800 ; Glyph: 0
G1 X201.7404 Y271.3832 E0.0589 F4800 ; Glyph: 0
G1 X201.7404 Y269.3832 E0.0589 F4800 ; Glyph: 0
G1 E-0.8 F2100 ; Retract
G1 Z0.6 F36000 ; Z hop
G0 X201.7404 Y272.3832 F36000 ; Move
G1 Z0.5 F36000 ; Z hop return
G1 E0.8 F2100 ; Un-retract
G1 X201.7404 Y274.3832 E0.0589 F4800 ; Glyph: 2
G1 X203.7404 Y274.3832 E0.0589 F4800 ; Glyph: 2
G1 X203.7404 Y272.3832 E0.0589 F4800 ; Glyph: 2
G1 X205.7404 Y272.3832 E0.0589 F4800 ; Glyph: 2
G1 X205.7404 Y274.3832 E0.0589 F4800 ; Glyph: 2
G1 E-0.8 F2100 ; Retract
G1 Z0.6 F36000 ; Z hop
G0 X208.9432 Y265.3832 F36000 ; Move
G1 Z0.5 F36000 ; Z hop return
G1 E0.8 F2100 ; Un-retract
G1 X210.9432 Y265.3832 E0.0589 F4800 ; Glyph: 0
G1 X212.9432 Y265.3832 E0.0589 F4800 ; Glyph: 0
G1 X212.9432 Y267.3832 E0.0589 F4800 ; Glyph: 0
G1 X210.9432 Y267.3832 E0.0589 F4800 ; Glyph: 0
G1 X208.9432 Y267.3832 E0.0589 F4800 ; Glyph: 0
G1 X208.9432 Y265.3832 E0.0589 F4800 ; Glyph: 0
G1 E-0.8 F2100 ; Retract
G1 Z0.6 F36000 ; Z hop
G0 X212.9432 Y268.3832 F36000 ; Move
G1 Z0.5 F36000 ; Z hop return
G1 E0.8 F2100 ; Un-retract
G1 X212.1932 Y268.3832 E0.02209 F4800 ; Glyph: .
G1 E-0.8 F2100 ; Retract
G1 Z0.6 F36000 ; Z hop
G0 X208.9432 Y269.3832 F36000 ; Move
G1 Z0.5 F36000 ; Z hop return
G1 E0.8 F2100 ; Un-retract
G1 X210.9432 Y269.3832 E0.0589 F4800 ; Glyph: 0
G1 X212.9432 Y269.3832 E0.0589 F4800 ; Glyph: 0
G1 X212.9432 Y271.3832 E0.0589 F4800 ; Glyph: 0
G1 X210.9432 Y271.3832 E0.0589 F4800 ; Glyph: 0
G1 X208.9432 Y271.3832 E0.0589 F4800 ; Glyph: 0
G1 X208.9432 Y269.3832 E0.0589 F4800 ; Glyph: 0
G1 E-0.8 F2100 ; Retract
G1 Z0.6 F36000 ; Z hop
G0 X208.9432 Y272.3832 F36000 ; Move
G1 Z0.5 F36000 ; Z hop return
G1 E0.8 F2100 ; Un-retract
G1 X208.9432 Y274.3832 E0.0589 F4800 ; Glyph: 2
G1 X210.9432 Y274.3832 E0.0589 F4800 ; Glyph: 2
G1 X210.9432 Y272.3832 E0.0589 F4800 ; Glyph: 2
G1 X212.9432 Y272.3832 E0.0589 F4800 ; Glyph: 2
G1 X212.9432 Y274.3832 E0.0589 F4800 ; Glyph: 2
G1 E-0.8 F2100 ; Retract
G1 Z0.6 F36000 ; Z hop
G0 X208.9432 Y275.3832 F36000 ; Move
G1 Z0.5 F36000 ; Z hop return
G1 E0.8 F2100 ; Un-retract
G1 X208.9432 Y277.3832 E0.0589 F4800 ; Glyph: 2
G1 X210.9432 Y277.3832 E0.0589 F4800 ; Glyph: 2
G1 X210.9432 Y275.3832 E0.0589 F4800 ; Glyph: 2
G1 X212.9432 Y275.3832 E0.0589 F4800 ; Glyph: 2
G1 X212.9432 Y277.3832 E0.0589 F4800 ; Glyph: 2
G1 E-0.8 F2100 ; Retract
G1 Z0.6 F36000 ; Z hop
G0 X216.1459 Y265.3832 F36000 ; Move
G1 Z0.5 F36000 ; Z hop return
G1 E0.8 F2100 ; Un-retract
G1 X218.1459 Y265.3832 E0.0589 F4800 ; Glyph: 0
G1 X220.1459 Y265.3832 E0.0589 F4800 ; Glyph: 0
G1 X220.1459 Y267.3832 E0.0589 F4800 ; Glyph: 0
G1 X218.1459 Y267.3832 E0.0589 F4800 ; Glyph: 0
G1 X216.1459 Y267.3832 E0.0589 F4800 ; Glyph: 0
G1 X216.1459 Y265.3832 E0.0589 F4800 ; Glyph: 0
G1 E-0.8 F2100 ; Retract
G1 Z0.6 F36000 ; Z hop
G0 X220.1459 Y268.3832 F36000 ; Move
G1 Z0.5 F36000 ; Z hop return
G1 E0.8 F2100 ; Un-retract
G1 X219.3959 Y268.3832 E0.02209 F4800 ; Glyph: .
G1 E-0.8 F2100 ; Retract
G1 Z0.6 F36000 ; Z hop
G0 X216.1459 Y269.3832 F36000 ; Move
G1 Z0.5 F36000 ; Z hop return
G1 E0.8 F2100 ; Un-retract
G1 X218.1459 Y269.3832 E0.0589 F4800 ; Glyph: 0
G1 X220.1459 Y269.3832 E0.0589 F4800 ; Glyph: 0
G1 X220.1459 Y271.3832 E0.0589 F4800 ; Glyph: 0
G1 X218.1459 Y271.3832 E0.0589 F4800 ; Glyph: 0
G1 X216.1459 Y271.3832 E0.0589 F4800 ; Glyph: 0
G1 X216.1459 Y269.3832 E0.0589 F4800 ; Glyph: 0
G1 E-0.8 F2100 ; Retract
G1 Z0.6 F36000 ; Z hop
G0 X216.1459 Y272.3832 F36000 ; Move
G1 Z0.5 F36000 ; Z hop return
G1 E0.8 F2100 ; Un-retract
G1 X216.1459 Y274.3832 E0.0589 F4800 ; Glyph: 2
G1 X218.1459 Y274.3832 E0.0589 F4800 ; Glyph: 2
G1 X218.1459 Y272.3832 E0.0589 F4800 ; Glyph: 2
G1 X220.1459 Y272.3832 E0.0589 F4800 ; Glyph: 2
G1 X220.1459 Y274.3832 E0.0589 F4800 ; Glyph: 2
G1 E-0.8 F2100 ; Retract
G1 Z0.6 F36000 ; Z hop
G0 X216.1459 Y277.3832 F36000 ; Move
G1 Z0.5 F36000 ; Z hop return
G1 E0.8 F2100 ; Un-retract
G1 X218.1459 Y277.3832 E0.0589 F4800 ; Glyph: 4
G1 X220.1459 Y277.3832 E0.0589 F4800 ; Glyph: 4
G0 X218.1459 Y277.3832 F36000 ; Move
G1 X218.1459 Y275.3832 E0.0589 F4800 ; Glyph: 4
G1 X216.1459 Y275.3832 E0.0589 F4800 ; Glyph: 4
G1 E-0.8 F2100 ; Retract
G1 Z0.6 F36000 ; Z hop
G0 X223.3487 Y265.3832 F36000 ; Move
G1 Z0.5 F36000 ; Z hop return
G1 E0.8 F2100 ; Un-retract
G1 X225.3487 Y265.3832 E0.0589 F4800 ; Glyph: 0
G1 X227.3487 Y265.3832 E0.0589 F4800 ; Glyph: 0
G1 X227.3487 Y267.3832 E0.0589 F4800 ; Glyph: 0
G1 X225.3487 Y267.3832 E0.0589 F4800 ; Glyph: 0
G1 X223.3487 Y267.3832 E0.0589 F4800 ; Glyph: 0
G1 X223.3487 Y265.3832 E0.0589 F4800 ; Glyph: 0
G1 E-0.8 F2100 ; Retract
G1 Z0.6 F36000 ; Z hop
G0 X227.3487 Y268.3832 F36000 ; Move
G1 Z0.5 F36000 ; Z hop return
G1 E0.8 F2100 ; Un-retract
G1 X226.5987 Y268.3832 E0.02209 F4800 ; Glyph: .
G1 E-0.8 F2100 ; Retract
G1 Z0.6 F36000 ; Z hop
G0 X223.3487 Y269.3832 F36000 ; Move
G1 Z0.5 F36000 ; Z hop return
G1 E0.8 F2100 ; Un-retract
G1 X225.3487 Y269.3832 E0.0589 F4800 ; Glyph: 0
G1 X227.3487 Y269.3832 E0.0589 F4800 ; Glyph: 0
G1 X227.3487 Y271.3832 E0.0589 F4800 ; Glyph: 0
G1 X225.3487 Y271.3832 E0.0589 F4800 ; Glyph: 0
G1 X223.3487 Y271.3832 E0.0589 F4800 ; Glyph: 0
G1 X223.3487 Y269.3832 E0.0589 F4800 ; Glyph: 0
G1 E-0.8 F2100 ; Retract
G1 Z0.6 F36000 ; Z hop
G0 X223.3487 Y272.3832 F36000 ; Move
G1 Z0.5 F36000 ; Z hop return
G1 E0.8 F2100 ; Un-retract
G1 X223.3487 Y274.3832 E0.0589 F4800 ; Glyph: 2
G1 X225.3487 Y274.3832 E0.0589 F4800 ; Glyph: 2
G1 X225.3487 Y272.3832 E0.0589 F4800 ; Glyph: 2
G1 X227.3487 Y272.3832 E0.0589 F4800 ; Glyph: 2
G1 X227.3487 Y274.3832 E0.0589 F4800 ; Glyph: 2
G1 E-0.8 F2100 ; Retract
G1 Z0.6 F36000 ; Z hop
G0 X223.3487 Y277.3832 F36000 ; Move
G1 Z0.5 F36000 ; Z hop return
G1 E0.8 F2100 ; Un-retract
G1 X223.3487 Y275.3832 E0.0589 F4800 ; Glyph: 6
G1 X225.3487 Y275.3832 E0.0589 F4800 ; Glyph: 6
G1 X227.3487 Y275.3832 E0.0589 F4800 ; Glyph: 6
G1 X227.3487 Y277.3832 E0.0589 F4800 ; Glyph: 6
G1 X225.3487 Y277.3832 E0.0589 F4800 ; Glyph: 6
G1 X225.3487 Y275.3832 E0.0589 F4800 ; Glyph: 6
G1 E-0.8 F2100 ; Retract
G1 Z0.6 F36000 ; Z hop
G0 X230.5515 Y265.3832 F36000 ; Move
G1 Z0.5 F36000 ; Z hop return
G1 E0.8 F2100 ; Un-retract
G1 X232.5515 Y265.3832 E0.0589 F4800 ; Glyph: 0
G1 X234.5515 Y265.3832 E0.0589 F4800 ; Glyph: 0
G1 X234.5515 Y267.3832 E0.0589 F4800 ; Glyph: 0
G1 X232.5515 Y267.3832 E0.0589 F4800 ; Glyph: 0
G1 X230.5515 Y267.3832 E0.0589 F4800 ; Glyph: 0
G1 X230.5515 Y265.3832 E0.0589 F4800 ; Glyph: 0
G1 E-0.8 F2100 ; Retract
G1 Z0.6 F36000 ; Z hop
G0 X234.5515 Y268.3832 F36000 ; Move
G1 Z0.5 F36000 ; Z hop return
G1 E0.8 F2100 ; Un-retract
G1 X233.8015 Y268.3832 E0.02209 F4800 ; Glyph: .
G1 E-0.8 F2100 ; Retract
G1 Z0.6 F36000 ; Z hop
G0 X230.5515 Y269.3832 F36000 ; Move
G1 Z0.5 F36000 ; Z hop return
G1 E0.8 F2100 ; Un-retract
G1 X232.5515 Y269.3832 E0.0589 F4800 ; Glyph: 0
G1 X234.5515 Y269.3832 E0.0589 F4800 ; Glyph: 0
G1 X234.5515 Y271.3832 E0.0589 F4800 ; Glyph: 0
G1 X232.5515 Y271.3832 E0.0589 F4800 ; Glyph: 0
G1 X230.5515 Y271.3832 E0.0589 F4800 ; Glyph: 0
G1 X230.5515 Y269.3832 E0.0589 F4800 ; Glyph: 0
G1 E-0.8 F2100 ; Retract
G1 Z0.6 F36000 ; Z hop
G0 X230.5515 Y272.3832 F36000 ; Move
G1 Z0.5 F36000 ; Z hop return
G1 E0.8 F2100 ; Un-retract
G1 X230.5515 Y274.3832 E0.0589 F4800 ; Glyph: 2
G1 X232.5515 Y274.3832 E0.0589 F4800 ; Glyph: 2
G1 X232.5515 Y272.3832 E0.0589 F4800 ; Glyph: 2
G1 X234.5515 Y272.3832 E0.0589 F4800 ; Glyph: 2
G1 X234.5515 Y274.3832 E0.0589 F4800 ; Glyph: 2
G1 E-0.8 F2100 ; Retract
G1 Z0.6 F36000 ; Z hop
G0 X230.5515 Y275.3832 F36000 ; Move
G1 Z0.5 F36000 ; Z hop return
G1 E0.8 F2100 ; Un-retract
G1 X232.5515 Y275.3832 E0.0589 F4800 ; Glyph: 8
G1 X234.5515 Y275.3832 E0.0589 F4800 ; Glyph: 8
G1 X234.5515 Y277.3832 E0.0589 F4800 ; Glyph: 8
G1 X232.5515 Y277.3832 E0.0589 F4800 ; Glyph: 8
G1 X230.5515 Y277.3832 E0.0589 F4800 ; Glyph: 8
G1 X230.5515 Y275.3832 E0.0589 F4800 ; Glyph: 8
G0 X232.5515 Y275.3832 F36000 ; Move
G1 X232.5515 Y277.3832 E0.0589 F4800 ; Glyph: 8
G1 E-0.8 F2100 ; Retract
G1 Z0.6 F36000 ; Z hop
G0 X237.7543 Y265.3832 F36000 ; Move
G1 Z0.5 F36000 ; Z hop return
G1 E0.8 F2100 ; Un-retract
G1 X239.7543 Y265.3832 E0.0589 F4800 ; Glyph: 0
G1 X241.7543 Y265.3832 E0.0589 F4800 ; Glyph: 0
G1 X241.7543 Y267.3832 E0.0589 F4800 ; Glyph: 0
G1 X239.7543 Y267.3832 E0.0589 F4800 ; Glyph: 0
G1 X237.7543 Y267.3832 E0.0589 F4800 ; Glyph: 0
G1 X237.7543 Y265.3832 E0.0589 F4800 ; Glyph: 0
G1 E-0.8 F2100 ; Retract
G1 Z0.6 F36000 ; Z hop
G0 X241.7543 Y268.3832 F36000 ; Move
G1 Z0.5 F36000 ; Z hop return
G1 E0.8 F2100 ; Un-retract
G1 X241.0043 Y268.3832 E0.02209 F4800 ; Glyph: .
G1 E-0.8 F2100 ; Retract
G1 Z0.6 F36000 ; Z hop
G0 X237.7543 Y269.3832 F36000 ; Move
G1 Z0.5 F36000 ; Z hop return
G1 E0.8 F2100 ; Un-retract
G1 X239.7543 Y269.3832 E0.0589 F4800 ; Glyph: 0
G1 X241.7543 Y269.3832 E0.0589 F4800 ; Glyph: 0
G1 X241.7543 Y271.3832 E0.0589 F4800 ; Glyph: 0
G1 X239.7543 Y271.3832 E0.0589 F4800 ; Glyph: 0
G1 X237.7543 Y271.3832 E0.0589 F4800 ; Glyph: 0
G1 X237.7543 Y269.3832 E0.0589 F4800 ; Glyph: 0
G1 E-0.8 F2100 ; Retract
G1 Z0.6 F36000 ; Z hop
G0 X237.7543 Y272.3832 F36000 ; Move
G1 Z0.5 F36000 ; Z hop return
G1 E0.8 F2100 ; Un-retract
G1 X237.7543 Y274.3832 E0.0589 F4800 ; Glyph: 3
G1 X239.7543 Y274.3832 E0.0589 F4800 ; Glyph: 3
G1 X239.7543 Y272.3832 E0.0589 F4800 ; Glyph: 3
G0 X239.7543 Y274.3832 F36000 ; Move
G1 X241.7543 Y274.3832 E0.0589 F4800 ; Glyph: 3
G1 X241.7543 Y272.3832 E0.0589 F4800 ; Glyph: 3
G1 E-0.8 F2100 ; Retract
G1 Z0.6 F36000 ; Z hop
G0 X244.9571 Y265.3832 F36000 ; Move
G1 Z0.5 F36000 ; Z hop return
G1 E0.8 F2100 ; Un-retract
G1 X246.9571 Y265.3832 E0.0589 F4800 ; Glyph: 0
G1 X248.9571 Y265.3832 E0.0589 F4800 ; Glyph: 0
G1 X248.9571 Y267.3832 E0.0589 F4800 ; Glyph: 0
G1 X246.9571 Y267.3832 E0.0589 F4800 ; Glyph: 0
G1 X244.9571 Y267.3832 E0.0589 F4800 ; Glyph: 0
G1 X244.9571 Y265.3832 E0.0589 F4800 ; Glyph: 0
G1 E-0.8 F2100 ; Retract
G1 Z0.6 F36000 ; Z hop
G0 X248.9571 Y268.3832 F36000 ; Move
G1 Z0.5 F36000 ; Z hop return
G1 E0.8 F2100 ; Un-retract
G1 X248.2071 Y268.3832 E0.02209 F4800 ; Glyph: .
G1 E-0.8 F2100 ; Retract
G1 Z0.6 F36000 ; Z hop
G0 X244.9571 Y269.3832 F36000 ; Move
G1 Z0.5 F36000 ; Z hop return
G1 E0.8 F2100 ; Un-retract
G1 X246.9571 Y269.3832 E0.0589 F4800 ; Glyph: 0
G1 X248.9571 Y269.3832 E0.0589 F4800 ; Glyph: 0
G1 X248.9571 Y271.3832 E0.0589 F4800 ; Glyph: 0
G1 X246.9571 Y271.3832 E0.0589 F4800 ; Glyph: 0
G1 X244.9571 Y271.3832 E0.0589 F4800 ; Glyph: 0
G1 X244.9571 Y269.3832 E0.0589 F4800 ; Glyph: 0
G1 E-0.8 F2100 ; Retract
G1 Z0.6 F36000 ; Z hop
G0 X244.9571 Y272.3832 F36000 ; Move
G1 Z0.5 F36000 ; Z hop return
G1 E0.8 F2100 ; Un-retract
G1 X244.9571 Y274.3832 E0.0589 F4800 ; Glyph: 3
G1 X246.9571 Y274.3832 E0.0589 F4800 ; Glyph: 3
G1 X246.9571 Y272.3832 E0.0589 F4800 ; Glyph: 3
G0 X246.9571 Y274.3832 F36000 ; Move
G1 X248.9571 Y274.3832 E0.0589 F4800 ; Glyph: 3
G1 X248.9571 Y272.3832 E0.0589 F4800 ; Glyph: 3
G1 E-0.8 F2100 ; Retract
G1 Z0.6 F36000 ; Z hop
G0 X244.9571 Y275.3832 F36000 ; Move
G1 Z0.5 F36000 ; Z hop return
G1 E0.8 F2100 ; Un-retract
G1 X244.9571 Y277.3832 E0.0589 F4800 ; Glyph: 2
G1 X246.9571 Y277.3832 E0.0589 F4800 ; Glyph: 2
G1 X246.9571 Y275.3832 E0.0589 F4800 ; Glyph: 2
G1 X248.9571 Y275.3832 E0.0589 F4800 ; Glyph: 2
G1 X248.9571 Y277.3832 E0.0589 F4800 ; Glyph: 2
G1 E-0.8 F2100 ; Retract
G1 Z0.6 F36000 ; Z hop
G0 X252.1599 Y265.3832 F36000 ; Move
G1 Z0.5 F36000 ; Z hop return
G1 E0.8 F2100 ; Un-retract
G1 X254.1599 Y265.3832 E0.0589 F4800 ; Glyph: 0
G1 X256.1599 Y265.3832 E0.0589 F4800 ; Glyph: 0
G1 X256.1599 Y267.3832 E0.0589 F4800 ; Glyph: 0
G1 X254.1599 Y267.3832 E0.0589 F4800 ; Glyph: 0
G1 X252.1599 Y267.3832 E0.0589 F4800 ; Glyph: 0
G1 X252.1599 Y265.3832 E0.0589 F4800 ; Glyph: 0
G1 E-0.8 F2100 ; Retract
G1 Z0.6 F36000 ; Z hop
G0 X256.1599 Y268.3832 F36000 ; Move
G1 Z0.5 F36000 ; Z hop return
G1 E0.8 F2100 ; Un-retract
G1 X255.4099 Y268.3832 E0.02209 F4800 ; Glyph: .
G1 E-0.8 F2100 ; Retract
G1 Z0.6 F36000 ; Z hop
G0 X252.1599 Y269.3832 F36000 ; Move
G1 Z0.5 F36000 ; Z hop return
G1 E0.8 F2100 ; Un-retract
G1 X254.1599 Y269.3832 E0.0589 F4800 ; Glyph: 0
G1 X256.1599 Y269.3832 E0.0589 F4800 ; Glyph: 0
G1 X256.1599 Y271.3832 E0.0589 F4800 ; Glyph: 0
G1 X254.1599 Y271.3832 E0.0589 F4800 ; Glyph: 0
G1 X252.1599 Y271.3832 E0.0589 F4800 ; Glyph: 0
G1 X252.1599 Y269.3832 E0.0589 F4800 ; Glyph: 0
G1 E-0.8 F2100 ; Retract
G1 Z0.6 F36000 ; Z hop
G0 X252.1599 Y272.3832 F36000 ; Move
G1 Z0.5 F36000 ; Z hop return
G1 E0.8 F2100 ; Un-retract
G1 X252.1599 Y274.3832 E0.0589 F4800 ; Glyph: 3
G1 X254.1599 Y274.3832 E0.0589 F4800 ; Glyph: 3
G1 X254.1599 Y272.3832 E0.0589 F4800 ; Glyph: 3
G0 X254.1599 Y274.3832 F36000 ; Move
G1 X256.1599 Y274.3832 E0.0589 F4800 ; Glyph: 3
G1 X256.1599 Y272.3832 E0.0589 F4800 ; Glyph: 3
G1 E-0.8 F2100 ; Retract
G1 Z0.6 F36000 ; Z hop
G0 X252.1599 Y277.3832 F36000 ; Move
G1 Z0.5 F36000 ; Z hop return
G1 E0.8 F2100 ; Un-retract
G1 X254.1599 Y277.3832 E0.0589 F4800 ; Glyph: 4
G1 X256.1599 Y277.3832 E0.0589 F4800 ; Glyph: 4
G0 X254.1599 Y277.3832 F36000 ; Move
G1 X254.1599 Y275.3832 E0.0589 F4800 ; Glyph: 4
G1 X252.1599 Y275.3832 E0.0589 F4800 ; Glyph: 4
G1 E-0.8 F2100 ; Retract
G1 Z0.6 F36000 ; Z hop
G0 X259.3627 Y265.3832 F36000 ; Move
G1 Z0.5 F36000 ; Z hop return
G1 E0.8 F2100 ; Un-retract
G1 X261.3627 Y265.3832 E0.0589 F4800 ; Glyph: 0
G1 X263.3627 Y265.3832 E0.0589 F4800 ; Glyph: 0
G1 X263.3627 Y267.3832 E0.0589 F4800 ; Glyph: 0
G1 X261.3627 Y267.3832 E0.0589 F4800 ; Glyph: 0
G1 X259.3627 Y267.3832 E0.0589 F4800 ; Glyph: 0
G1 X259.3627 Y265.3832 E0.0589 F4800 ; Glyph: 0
G1 E-0.8 F2100 ; Retract
G1 Z0.6 F36000 ; Z hop
G0 X263.3627 Y268.3832 F36000 ; Move
G1 Z0.5 F36000 ; Z hop return
G1 E0.8 F2100 ; Un-retract
G1 X262.6127 Y268.3832 E0.02209 F4800 ; Glyph: .
G1 E-0.8 F2100 ; Retract
G1 Z0.6 F36000 ; Z hop
G0 X259.3627 Y269.3832 F36000 ; Move
G1 Z0.5 F36000 ; Z hop return
G1 E0.8 F2100 ; Un-retract
G1 X261.3627 Y269.3832 E0.0589 F4800 ; Glyph: 0
G1 X263.3627 Y269.3832 E0.0589 F4800 ; Glyph: 0
G1 X263.3627 Y271.3832 E0.0589 F4800 ; Glyph: 0
G1 X261.3627 Y271.3832 E0.0589 F4800 ; Glyph: 0
G1 X259.3627 Y271.3832 E0.0589 F4800 ; Glyph: 0
G1 X259.3627 Y269.3832 E0.0589 F4800 ; Glyph: 0
G1 E-0.8 F2100 ; Retract
G1 Z0.6 F36000 ; Z hop
G0 X259.3627 Y272.3832 F36000 ; Move
G1 Z0.5 F36000 ; Z hop return
G1 E0.8 F2100 ; Un-retract
G1 X259.3627 Y274.3832 E0.0589 F4800 ; Glyph: 3
G1 X261.3627 Y274.3832 E0.0589 F4800 ; Glyph: 3
G1 X261.3627 Y272.3832 E0.0589 F4800 ; Glyph: 3
G0 X261.3627 Y274.3832 F36000 ; Move
G1 X263.3627 Y274.3832 E0.0589 F4800 ; Glyph: 3
G1 X263.3627 Y272.3832 E0.0589 F4800 ; Glyph: 3
G1 E-0.8 F2100 ; Retract
G1 Z0.6 F36000 ; Z hop
G0 X259.3627 Y277.3832 F36000 ; Move
G1 Z0.5 F36000 ; Z hop return
G1 E0.8 F2100 ; Un-retract
G1 X259.3627 Y275.3832 E0.0589 F4800 ; Glyph: 6
G1 X261.3627 Y275.3832 E0.0589 F4800 ; Glyph: 6
G1 X263.3627 Y275.3832 E0.0589 F4800 ; Glyph: 6
G1 X263.3627 Y277.3832 E0.0589 F4800 ; Glyph: 6
G1 X261.3627 Y277.3832 E0.0589 F4800 ; Glyph: 6
G1 X261.3627 Y275.3832 E0.0589 F4800 ; Glyph: 6
G1 E-0.8 F2100 ; Retract
G1 Z0.6 F36000 ; Z hop
G0 X266.5655 Y265.3832 F36000 ; Move
G1 Z0.5 F36000 ; Z hop return
G1 E0.8 F2100 ; Un-retract
G1 X268.5655 Y265.3832 E0.0589 F4800 ; Glyph: 0
G1 X270.5655 Y265.3832 E0.0589 F4800 ; Glyph: 0
G1 X270.5655 Y267.3832 E0.0589 F4800 ; Glyph: 0
G1 X268.5655 Y267.3832 E0.0589 F4800 ; Glyph: 0
G1 X266.5655 Y267.3832 E0.0589 F4800 ; Glyph: 0
G1 X266.5655 Y265.3832 E0.0589 F4800 ; Glyph: 0
G1 E-0.8 F2100 ; Retract
G1 Z0.6 F36000 ; Z hop
G0 X270.5655 Y268.3832 F36000 ; Move
G1 Z0.5 F36000 ; Z hop return
G1 E0.8 F2100 ; Un-retract
G1 X269.8155 Y268.3832 E0.02209 F4800 ; Glyph: .
G1 E-0.8 F2100 ; Retract
G1 Z0.6 F36000 ; Z hop
G0 X266.5655 Y269.3832 F36000 ; Move
G1 Z0.5 F36000 ; Z hop return
G1 E0.8 F2100 ; Un-retract
G1 X268.5655 Y269.3832 E0.0589 F4800 ; Glyph: 0
G1 X270.5655 Y269.3832 E0.0589 F4800 ; Glyph: 0
G1 X270.5655 Y271.3832 E0.0589 F4800 ; Glyph: 0
G1 X268.5655 Y271.3832 E0.0589 F4800 ; Glyph: 0
G1 X266.5655 Y271.3832 E0.0589 F4800 ; Glyph: 0
G1 X266.5655 Y269.3832 E0.0589 F4800 ; Glyph: 0
G1 E-0.8 F2100 ; Retract
G1 Z0.6 F36000 ; Z hop
G0 X266.5655 Y272.3832 F36000 ; Move
G1 Z0.5 F36000 ; Z hop return
G1 E0.8 F2100 ; Un-retract
G1 X266.5655 Y274.3832 E0.0589 F4800 ; Glyph: 3
G1 X268.5655 Y274.3832 E0.0589 F4800 ; Glyph: 3
G1 X268.5655 Y272.3832 E0.0589 F4800 ; Glyph: 3
G0 X268.5655 Y274.3832 F36000 ; Move
G1 X270.5655 Y274.3832 E0.0589 F4800 ; Glyph: 3
G1 X270.5655 Y272.3832 E0.0589 F4800 ; Glyph: 3
G1 E-0.8 F2100 ; Retract
G1 Z0.6 F36000 ; Z hop
G0 X266.5655 Y275.3832 F36000 ; Move
G1 Z0.5 F36000 ; Z hop return
G1 E0.8 F2100 ; Un-retract
G1 X268.5655 Y275.3832 E0.0589 F4800 ; Glyph: 8
G1 X270.5655 Y275.3832 E0.0589 F4800 ; Glyph: 8
G1 X270.5655 Y277.3832 E0.0589 F4800 ; Glyph: 8
G1 X268.5655 Y277.3832 E0.0589 F4800 ; Glyph: 8
G1 X266.5655 Y277.3832 E0.0589 F4800 ; Glyph: 8
G1 X266.5655 Y275.3832 E0.0589 F4800 ; Glyph: 8
G0 X268.5655 Y275.3832 F36000 ; Move
G1 X268.5655 Y277.3832 E0.0589 F4800 ; Glyph: 8
G1 E-0.8 F2100 ; Retract
G1 Z0.6 F36000 ; Z hop
G0 X273.7683 Y265.3832 F36000 ; Move
G1 Z0.5 F36000 ; Z hop return
G1 E0.8 F2100 ; Un-retract
G1 X275.7683 Y265.3832 E0.0589 F4800 ; Glyph: 0
G1 X277.7683 Y265.3832 E0.0589 F4800 ; Glyph: 0
G1 X277.7683 Y267.3832 E0.0589 F4800 ; Glyph: 0
G1 X275.7683 Y267.3832 E0.0589 F4800 ; Glyph: 0
G1 X273.7683 Y267.3832 E0.0589 F4800 ; Glyph: 0
G1 X273.7683 Y265.3832 E0.0589 F4800 ; Glyph: 0
G1 E-0.8 F2100 ; Retract
G1 Z0.6 F36000 ; Z hop
G0 X277.7683 Y268.3832 F36000 ; Move
G1 Z0.5 F36000 ; Z hop return
G1 E0.8 F2100 ; Un-retract
G1 X277.0183 Y268.3832 E0.02209 F4800 ; Glyph: .
G1 E-0.8 F2100 ; Retract
G1 Z0.6 F36000 ; Z hop
G0 X273.7683 Y269.3832 F36000 ; Move
G1 Z0.5 F36000 ; Z hop return
G1 E0.8 F2100 ; Un-retract
G1 X275.7683 Y269.3832 E0.0589 F4800 ; Glyph: 0
G1 X277.7683 Y269.3832 E0.0589 F4800 ; Glyph: 0
G1 X277.7683 Y271.3832 E0.0589 F4800 ; Glyph: 0
G1 X275.7683 Y271.3832 E0.0589 F4800 ; Glyph: 0
G1 X273.7683 Y271.3832 E0.0589 F4800 ; Glyph: 0
G1 X273.7683 Y269.3832 E0.0589 F4800 ; Glyph: 0
G1 E-0.8 F2100 ; Retract
G1 Z0.6 F36000 ; Z hop
G0 X273.7683 Y274.3832 F36000 ; Move
G1 Z0.5 F36000 ; Z hop return
G1 E0.8 F2100 ; Un-retract
G1 X275.7683 Y274.3832 E0.0589 F4800 ; Glyph: 4
G1 X277.7683 Y274.3832 E0.0589 F4800 ; Glyph: 4
G0 X275.7683 Y274.3832 F36000 ; Move
G1 X275.7683 Y272.3832 E0.0589 F4800 ; Glyph: 4
G1 X273.7683 Y272.3832 E0.0589 F4800 ; Glyph: 4
G1 E-0.8 F2100 ; Retract
G1 Z0.6 F36000 ; Z hop
G0 X280.9711 Y265.3832 F36000 ; Move
G1 Z0.5 F36000 ; Z hop return
G1 E0.8 F2100 ; Un-retract
G1 X282.9711 Y265.3832 E0.0589 F4800 ; Glyph: 0
G1 X284.9711 Y265.3832 E0.0589 F4800 ; Glyph: 0
G1 X284.9711 Y267.3832 E0.0589 F4800 ; Glyph: 0
G1 X282.9711 Y267.3832 E0.0589 F4800 ; Glyph: 0
G1 X280.9711 Y267.3832 E0.0589 F4800 ; Glyph: 0
G1 X280.9711 Y265.3832 E0.0589 F4800 ; Glyph: 0
G1 E-0.8 F2100 ; Retract
G1 Z0.6 F36000 ; Z hop
G0 X284.9711 Y268.3832 F36000 ; Move
G1 Z0.5 F36000 ; Z hop return
G1 E0.8 F2100 ; Un-retract
G1 X284.2211 Y268.3832 E0.02209 F4800 ; Glyph: .
G1 E-0.8 F2100 ; Retract
G1 Z0.6 F36000 ; Z hop
G0 X280.9711 Y269.3832 F36000 ; Move
G1 Z0.5 F36000 ; Z hop return
G1 E0.8 F2100 ; Un-retract
G1 X282.9711 Y269.3832 E0.0589 F4800 ; Glyph: 0
G1 X284.9711 Y269.3832 E0.0589 F4800 ; Glyph: 0
G1 X284.9711 Y271.3832 E0.0589 F4800 ; Glyph: 0
G1 X282.9711 Y271.3832 E0.0589 F4800 ; Glyph: 0
G1 X280.9711 Y271.3832 E0.0589 F4800 ; Glyph: 0
G1 X280.9711 Y269.3832 E0.0589 F4800 ; Glyph: 0
G1 E-0.8 F2100 ; Retract
G1 Z0.6 F36000 ; Z hop
G0 X280.9711 Y274.3832 F36000 ; Move
G1 Z0.5 F36000 ; Z hop return
G1 E0.8 F2100 ; Un-retract
G1 X282.9711 Y274.3832 E0.0589 F4800 ; Glyph: 4
G1 X284.9711 Y274.3832 E0.0589 F4800 ; Glyph: 4
G0 X282.9711 Y274.3832 F36000 ; Move
G1 X282.9711 Y272.3832 E0.0589 F4800 ; Glyph: 4
G1 X280.9711 Y272.3832 E0.0589 F4800 ; Glyph: 4
G1 E-0.8 F2100 ; Retract
G1 Z0.6 F36000 ; Z hop
G0 X280.9711 Y275.3832 F36000 ; Move
G1 Z0.5 F36000 ; Z hop return
G1 E0.8 F2100 ; Un-retract
G1 X280.9711 Y277.3832 E0.0589 F4800 ; Glyph: 2
G1 X282.9711 Y277.3832 E0.0589 F4800 ; Glyph: 2
G1 X282.9711 Y275.3832 E0.0589 F4800 ; Glyph: 2
G1 X284.9711 Y275.3832 E0.0589 F4800 ; Glyph: 2
G1 X284.9711 Y277.3832 E0.0589 F4800 ; Glyph: 2
G1 E-0.8 F2100 ; Retract
G1 Z0.6 F36000 ; Z hop
G0 X288.1738 Y265.3832 F36000 ; Move
G1 Z0.5 F36000 ; Z hop return
G1 E0.8 F2100 ; Un-retract
G1 X290.1738 Y265.3832 E0.0589 F4800 ; Glyph: 0
G1 X292.1738 Y265.3832 E0.0589 F4800 ; Glyph: 0
G1 X292.1738 Y267.3832 E0.0589 F4800 ; Glyph: 0
G1 X290.1738 Y267.3832 E0.0589 F4800 ; Glyph: 0
G1 X288.1738 Y267.3832 E0.0589 F4800 ; Glyph: 0
G1 X288.1738 Y265.3832 E0.0589 F4800 ; Glyph: 0
G1 E-0.8 F2100 ; Retract
G1 Z0.6 F36000 ; Z hop
G0 X292.1738 Y268.3832 F36000 ; Move
G1 Z0.5 F36000 ; Z hop return
G1 E0.8 F2100 ; Un-retract
G1 X291.4238 Y268.3832 E0.02209 F4800 ; Glyph: .
G1 E-0.8 F2100 ; Retract
G1 Z0.6 F36000 ; Z hop
G0 X288.1738 Y269.3832 F36000 ; Move
G1 Z0.5 F36000 ; Z hop return
G1 E0.8 F2100 ; Un-retract
G1 X290.1738 Y269.3832 E0.0589 F4800 ; Glyph: 0
G1 X292.1738 Y269.3832 E0.0589 F4800 ; Glyph: 0
G1 X292.1738 Y271.3832 E0.0589 F4800 ; Glyph: 0
G1 X290.1738 Y271.3832 E0.0589 F4800 ; Glyph: 0
G1 X288.1738 Y271.3832 E0.0589 F4800 ; Glyph: 0
G1 X288.1738 Y269.3832 E0.0589 F4800 ; Glyph: 0
G1 E-0.8 F2100 ; Retract
G1 Z0.6 F36000 ; Z hop
G0 X288.1738 Y274.3832 F36000 ; Move
G1 Z0.5 F36000 ; Z hop return
G1 E0.8 F2100 ; Un-retract
G1 X290.1738 Y274.3832 E0.0589 F4800 ; Glyph: 4
G1 X292.1738 Y274.3832 E0.0589 F4800 ; Glyph: 4
G0 X290.1738 Y274.3832 F36000 ; Move
G1 X290.1738 Y272.3832 E0.0589 F4800 ; Glyph: 4
G1 X288.1738 Y272.3832 E0.0589 F4800 ; Glyph: 4
G1 E-0.8 F2100 ; Retract
G1 Z0.6 F36000 ; Z hop
G0 X288.1738 Y277.3832 F36000 ; Move
G1 Z0.5 F36000 ; Z hop return
G1 E0.8 F2100 ; Un-retract
G1 X290.1738 Y277.3832 E0.0589 F4800 ; Glyph: 4
G1 X292.1738 Y277.3832 E0.0589 F4800 ; Glyph: 4
G0 X290.1738 Y277.3832 F36000 ; Move
G1 X290.1738 Y275.3832 E0.0589 F4800 ; Glyph: 4
G1 X288.1738 Y275.3832 E0.0589 F4800 ; Glyph: 4
G1 E-0.8 F2100 ; Retract
G1 Z0.6 F36000 ; Z hop
G0 X295.3766 Y265.3832 F36000 ; Move
G1 Z0.5 F36000 ; Z hop return
G1 E0.8 F2100 ; Un-retract
G1 X297.3766 Y265.3832 E0.0589 F4800 ; Glyph: 0
G1 X299.3766 Y265.3832 E0.0589 F4800 ; Glyph: 0
G1 X299.3766 Y267.3832 E0.0589 F4800 ; Glyph: 0
G1 X297.3766 Y267.3832 E0.0589 F4800 ; Glyph: 0
G1 X295.3766 Y267.3832 E0.0589 F4800 ; Glyph: 0
G1 X295.3766 Y265.3832 E0.0589 F4800 ; Glyph: 0
G1 E-0.8 F2100 ; Retract
G1 Z0.6 F36000 ; Z hop
G0 X299.3766 Y268.3832 F36000 ; Move
G1 Z0.5 F36000 ; Z hop return
G1 E0.8 F2100 ; Un-retract
G1 X298.6266 Y268.3832 E0.02209 F4800 ; Glyph: .
G1 E-0.8 F2100 ; Retract
G1 Z0.6 F36000 ; Z hop
G0 X295.3766 Y269.3832 F36000 ; Move
G1 Z0.5 F36000 ; Z hop return
G1 E0.8 F2100 ; Un-retract
G1 X297.3766 Y269.3832 E0.0589 F4800 ; Glyph: 0
G1 X299.3766 Y269.3832 E0.0589 F4800 ; Glyph: 0
G1 X299.3766 Y271.3832 E0.0589 F4800 ; Glyph: 0
G1 X297.3766 Y271.3832 E0.0589 F4800 ; Glyph: 0
G1 X295.3766 Y271.3832 E0.0589 F4800 ; Glyph: 0
G1 X295.3766 Y269.3832 E0.0589 F4800 ; Glyph: 0
G1 E-0.8 F2100 ; Retract
G1 Z0.6 F36000 ; Z hop
G0 X295.3766 Y274.3832 F36000 ; Move
G1 Z0.5 F36000 ; Z hop return
G1 E0.8 F2100 ; Un-retract
G1 X297.3766 Y274.3832 E0.0589 F4800 ; Glyph: 4
G1 X299.3766 Y274.3832 E0.0589 F4800 ; Glyph: 4
G0 X297.3766 Y274.3832 F36000 ; Move
G1 X297.3766 Y272.3832 E0.0589 F4800 ; Glyph: 4
G1 X295.3766 Y272.3832 E0.0589 F4800 ; Glyph: 4
G1 E-0.8 F2100 ; Retract
G1 Z0.6 F36000 ; Z hop
G0 X295.3766 Y277.3832 F36000 ; Move
G1 Z0.5 F36000 ; Z hop return
G1 E0.8 F2100 ; Un-retract
G1 X295.3766 Y275.3832 E0.0589 F4800 ; Glyph: 6
G1 X297.3766 Y275.3832 E0.0589 F4800 ; Glyph: 6
G1 X299.3766 Y275.3832 E0.0589 F4800 ; Glyph: 6
G1 X299.3766 Y277.3832 E0.0589 F4800 ; Glyph: 6
G1 X297.3766 Y277.3832 E0.0589 F4800 ; Glyph: 6
G1 X297.3766 Y275.3832 E0.0589 F4800 ; Glyph: 6
G1 E-0.8 F2100 ; Retract
G1 Z0.6 F36000 ; Z hop
G0 X302.5794 Y265.3832 F36000 ; Move
G1 Z0.5 F36000 ; Z hop return
G1 E0.8 F2100 ; Un-retract
G1 X304.5794 Y265.3832 E0.0589 F4800 ; Glyph: 0
G1 X306.5794 Y265.3832 E0.0589 F4800 ; Glyph: 0
G1 X306.5794 Y267.3832 E0.0589 F4800 ; Glyph: 0
G1 X304.5794 Y267.3832 E0.0589 F4800 ; Glyph: 0
G1 X302.5794 Y267.3832 E0.0589 F4800 ; Glyph: 0
G1 X302.5794 Y265.3832 E0.0589 F4800 ; Glyph: 0
G1 E-0.8 F2100 ; Retract
G1 Z0.6 F36000 ; Z hop
G0 X306.5794 Y268.3832 F36000 ; Move
G1 Z0.5 F36000 ; Z hop return
G1 E0.8 F2100 ; Un-retract
G1 X305.8294 Y268.3832 E0.02209 F4800 ; Glyph: .
G1 E-0.8 F2100 ; Retract
G1 Z0.6 F36000 ; Z hop
G0 X302.5794 Y269.3832 F36000 ; Move
G1 Z0.5 F36000 ; Z hop return
G1 E0.8 F2100 ; Un-retract
G1 X304.5794 Y269.3832 E0.0589 F4800 ; Glyph: 0
G1 X306.5794 Y269.3832 E0.0589 F4800 ; Glyph: 0
G1 X306.5794 Y271.3832 E0.0589 F4800 ; Glyph: 0
G1 X304.5794 Y271.3832 E0.0589 F4800 ; Glyph: 0
G1 X302.5794 Y271.3832 E0.0589 F4800 ; Glyph: 0
G1 X302.5794 Y269.3832 E0.0589 F4800 ; Glyph: 0
G1 E-0.8 F2100 ; Retract
G1 Z0.6 F36000 ; Z hop
G0 X302.5794 Y274.3832 F36000 ; Move
G1 Z0.5 F36000 ; Z hop return
G1 E0.8 F2100 ; Un-retract
G1 X304.5794 Y274.3832 E0.0589 F4800 ; Glyph: 4
G1 X306.5794 Y274.3832 E0.0589 F4800 ; Glyph: 4
G0 X304.5794 Y274.3832 F36000 ; Move
G1 X304.5794 Y272.3832 E0.0589 F4800 ; Glyph: 4
G1 X302.5794 Y272.3832 E0.0589 F4800 ; Glyph: 4
G1 E-0.8 F2100 ; Retract
G1 Z0.6 F36000 ; Z hop
G0 X302.5794 Y275.3832 F36000 ; Move
G1 Z0.5 F36000 ; Z hop return
G1 E0.8 F2100 ; Un-retract
G1 X304.5794 Y275.3832 E0.0589 F4800 ; Glyph: 8
G1 X306.5794 Y275.3832 E0.0589 F4800 ; Glyph: 8
G1 X306.5794 Y277.3832 E0.0589 F4800 ; Glyph: 8
G1 X304.5794 Y277.3832 E0.0589 F4800 ; Glyph: 8
G1 X302.5794 Y277.3832 E0.0589 F4800 ; Glyph: 8
G1 X302.5794 Y275.3832 E0.0589 F4800 ; Glyph: 8
G0 X304.5794 Y275.3832 F36000 ; Move
G1 X304.5794 Y277.3832 E0.0589 F4800 ; Glyph: 8
G1 E-0.8 F2100 ; Retract
G1 Z0.6 F36000 ; Z hop
G0 X309.7822 Y265.3832 F36000 ; Move
G1 Z0.5 F36000 ; Z hop return
G1 E0.8 F2100 ; Un-retract
G1 X311.7822 Y265.3832 E0.0589 F4800 ; Glyph: 0
G1 X313.7822 Y265.3832 E0.0589 F4800 ; Glyph: 0
G1 X313.7822 Y267.3832 E0.0589 F4800 ; Glyph: 0
G1 X311.7822 Y267.3832 E0.0589 F4800 ; Glyph: 0
G1 X309.7822 Y267.3832 E0.0589 F4800 ; Glyph: 0
G1 X309.7822 Y265.3832 E0.0589 F4800 ; Glyph: 0
G1 E-0.8 F2100 ; Retract
G1 Z0.6 F36000 ; Z hop
G0 X313.7822 Y268.3832 F36000 ; Move
G1 Z0.5 F36000 ; Z hop return
G1 E0.8 F2100 ; Un-retract
G1 X313.0322 Y268.3832 E0.02209 F4800 ; Glyph: .
G1 E-0.8 F2100 ; Retract
G1 Z0.6 F36000 ; Z hop
G0 X309.7822 Y269.3832 F36000 ; Move
G1 Z0.5 F36000 ; Z hop return
G1 E0.8 F2100 ; Un-retract
G1 X311.7822 Y269.3832 E0.0589 F4800 ; Glyph: 0
G1 X313.7822 Y269.3832 E0.0589 F4800 ; Glyph: 0
G1 X313.7822 Y271.3832 E0.0589 F4800 ; Glyph: 0
G1 X311.7822 Y271.3832 E0.0589 F4800 ; Glyph: 0
G1 X309.7822 Y271.3832 E0.0589 F4800 ; Glyph: 0
G1 X309.7822 Y269.3832 E0.0589 F4800 ; Glyph: 0
G1 E-0.8 F2100 ; Retract
G1 Z0.6 F36000 ; Z hop
G0 X309.7822 Y274.3832 F36000 ; Move
G1 Z0.5 F36000 ; Z hop return
G1 E0.8 F2100 ; Un-retract
G1 X309.7822 Y272.3832 E0.0589 F4800 ; Glyph: 5
G1 X311.7822 Y272.3832 E0.0589 F4800 ; Glyph: 5
G1 X311.7822 Y274.3832 E0.0589 F4800 ; Glyph: 5
G1 X313.7822 Y274.3832 E0.0589 F4800 ; Glyph: 5
G1 X313.7822 Y272.3832 E0.0589 F4800 ; Glyph: 5
G1 E-0.8 F2100 ; Retract
G1 Z0.6 F36000 ; Z hop
G0 X167.1507 Y221.5068 F36000 ; Move to pattern start

G1 Z0.5 F36000 ; Z hop return
G1 E0.8 F2100 ; Un-retract
SET_PRESSURE_ADVANCE ADVANCE=0.01 ; Set pressure advance
M117 PA 0.01
G1 X188.3639 Y242.72 E0.88345 F15000 ; Print pattern wall
G1 X167.1507 Y263.9332 E0.88345 F15000 ; Print pattern wall
G1 E-0.8 F2100 ; Retract
G1 Z0.6 F36000 ; Z hop
G0 X167.7264 Y221.5068 F36000 ; Move to start next pattern wall
G1 Z0.5 F36000 ; Z hop return
G1 E0.8 F2100 ; Un-retract
G1 X188.9396 Y242.72 E0.88345 F15000 ; Print pattern wall
G1 X167.7264 Y263.9332 E0.88345 F15000 ; Print pattern wall
G1 E-0.8 F2100 ; Retract
G1 Z0.6 F36000 ; Z hop
G0 X168.3021 Y221.5068 F36000 ; Move to start next pattern wall
G1 Z0.5 F36000 ; Z hop return
G1 E0.8 F2100 ; Un-retract
G1 X189.5153 Y242.72 E0.88345 F15000 ; Print pattern wall
G1 X168.3021 Y263.9332 E0.88345 F15000 ; Print pattern wall
G1 E-0.8 F2100 ; Retract
G1 Z0.6 F36000 ; Z hop
G0 X170.7521 Y221.5068 F36000 ; Move to next pattern
G1 Z0.5 F36000 ; Z hop return
G1 E0.8 F2100 ; Un-retract
SET_PRESSURE_ADVANCE ADVANCE=0.011 ; Set pressure advance
M117 PA 0.011
G1 X191.9653 Y242.72 E0.88345 F15000 ; Print pattern wall
G1 X170.7521 Y263.9332 E0.88345 F15000 ; Print pattern wall
G1 E-0.8 F2100 ; Retract
G1 Z0.6 F36000 ; Z hop
G0 X171.3278 Y221.5068 F36000 ; Move to start next pattern wall
G1 Z0.5 F36000 ; Z hop return
G1 E0.8 F2100 ; Un-retract
G1 X192.541 Y242.72 E0.88345 F15000 ; Print pattern wall
G1 X171.3278 Y263.9332 E0.88345 F15000 ; Print pattern wall
G1 E-0.8 F2100 ; Retract
G1 Z0.6 F36000 ; Z hop
G0 X171.9035 Y221.5068 F36000 ; Move to start next pattern wall
G1 Z0.5 F36000 ; Z hop return
G1 E0.8 F2100 ; Un-retract
G1 X193.1167 Y242.72 E0.88345 F15000 ; Print pattern wall
G1 X171.9035 Y263.9332 E0.88345 F15000 ; Print pattern wall
G1 E-0.8 F2100 ; Retract
G1 Z0.6 F36000 ; Z hop
G0 X174.3535 Y221.5068 F36000 ; Move to next pattern
G1 Z0.5 F36000 ; Z hop return
G1 E0.8 F2100 ; Un-retract
SET_PRESSURE_ADVANCE ADVANCE=0.012 ; Set pressure advance
M117 PA 0.012
G1 X195.5667 Y242.72 E0.88345 F15000 ; Print pattern wall
G1 X174.3535 Y263.9332 E0.88345 F15000 ; Print pattern wall
G1 E-0.8 F2100 ; Retract
G1 Z0.6 F36000 ; Z hop
G0 X174.9292 Y221.5068 F36000 ; Move to start next pattern wall
G1 Z0.5 F36000 ; Z hop return
G1 E0.8 F2100 ; Un-retract
G1 X196.1424 Y242.72 E0.88345 F15000 ; Print pattern wall
G1 X174.9292 Y263.9332 E0.88345 F15000 ; Print pattern wall
G1 E-0.8 F2100 ; Retract
G1 Z0.6 F36000 ; Z hop
G0 X175.5049 Y221.5068 F36000 ; Move to start next pattern wall
G1 Z0.5 F36000 ; Z hop return
G1 E0.8 F2100 ; Un-retract
G1 X196.7181 Y242.72 E0.88345 F15000 ; Print pattern wall
G1 X175.5049 Y263.9332 E0.88345 F15000 ; Print pattern wall
G1 E-0.8 F2100 ; Retract
G1 Z0.6 F36000 ; Z hop
G0 X177.9549 Y221.5068 F36000 ; Move to next pattern
G1 Z0.5 F36000 ; Z hop return
G1 E0.8 F2100 ; Un-retract
