; generated by PrusaSlicer 2.8.0+win64 on 2024-09-23 at 11:25:40 UTC


;
;

;
;
; Generic print settings recomended by RatRig, you may change them.

; external perimeters extrusion width = 0.45mm
; perimeters extrusion width = 0.45mm
; infill extrusion width = 0.45mm
; solid infill extrusion width = 0.45mm
; top infill extrusion width = 0.45mm
; first layer extrusion width = 0.50mm

M73 P0 R5
;TYPE:Custom
START_PRINT EXTRUDER_TEMP=260,260 EXTRUDER_OTHER_LAYER_TEMP=260,260 BED_TEMP=110 INITIAL_TOOL=0 TOTAL_LAYER_COUNT=150 X0=122.209 Y0=122.209 X1=177.791 Y1=177.791
G21 ; set units to millimeters
G90 ; use absolute coordinates
M83 ; use relative distances for extrusion
;Filament gcode
SET_PRESSURE_ADVANCE ADVANCE=0.025
M107
;LAYER_CHANGE
;Z:0.3
;HEIGHT:0.3
G1 E-.8 F7200
G1 Z.5 F3000
G1 X130.511 Y130.5 F30000
G1 Z.3 F3000
G1 E.8 F7200
M204 S1500
;TYPE:Skirt/Brim
;WIDTH:0.5
G1 F3000
G3 X150.388 Y122.43 I19.49 J19.489 E1.10144
G1 X152.975 Y122.588 E.12956
G3 X130.468 Y130.543 I-2.974 J27.401 E7.42241
M73 P1 R5
M204 S10000
G1 X130.468 Y130.543 F30000
G1 X130.777 Y130.85
M204 S1500
G1 F3000
G3 X150.384 Y122.865 I19.224 J19.139 E1.08712
G1 X152.925 Y123.021 E.12725
G3 X130.735 Y130.893 I-2.924 J26.968 E7.30234
M73 P2 R5
M204 S10000
G1 E-.8 F7200
G1 X130.735 Y130.893 Z.5 F30000
G1 X150.292 Y133.433
G1 Z.3 F3000
G1 E.8 F7200
M204 S1500
;TYPE:External perimeter
G1 F3000
G1 X150.866 Y133.453 E.02871
G3 X150.232 Y133.432 I-.866 J16.545 E5.17192
M73 P3 R5
M204 S10000
;LAYER_CHANGE
;Z:0.5
;HEIGHT:0.2
;0.5
G1 E-.8 F7200
G1 Z.5 F3000
;AFTER_LAYER_CHANGE
;0.5
G92 E0
_ON_LAYER_CHANGE LAYER=2
G1 X150.232 Y133.432 Z.5 F30000
G1 X150.293 Y133.313
G1 E.8 F7200
M204 S4000
;WIDTH:0.45
G1 F3194
G1 X150.874 Y133.328 E.0181
G3 X150.003 Y133.305 I-.874 J16.67 E3.23913
G1 X150.233 Y133.311 E.00716
M204 S10000
M106 S150.45
;LAYER_CHANGE
;Z:0.7
;HEIGHT:0.2
;0.7
G1 E-.8 F7200
G1 Z.7 F3000
;AFTER_LAYER_CHANGE
;0.7
G92 E0
_ON_LAYER_CHANGE LAYER=3
G1 X150.233 Y133.311 Z.7 F30000
G1 X150.293 Y133.313
G1 E.8 F7200
M204 S4000
G1 F3193
G1 X150.874 Y133.328 E.0181
G3 X150.005 Y133.305 I-.874 J16.67 E3.23919
M73 P4 R5
G1 X150.233 Y133.311 E.0071
M204 S10000
;LAYER_CHANGE
;Z:0.9
;HEIGHT:0.2
;0.9
G1 E-.8 F7200
G1 Z.9 F3000
;AFTER_LAYER_CHANGE
;0.9
G92 E0
_ON_LAYER_CHANGE LAYER=4
G1 X150.233 Y133.311 Z.9 F30000
G1 X150.293 Y133.313
G1 E.8 F7200
M204 S4000
G1 F3193
G1 X150.874 Y133.328 E.0181
G3 X150.007 Y133.305 I-.873 J16.67 E3.23925
M73 P5 R5
G1 X150.233 Y133.311 E.00704
M204 S10000
;LAYER_CHANGE
;Z:1.1
;HEIGHT:0.2
;1.1
G1 E-.8 F7200
G1 Z1.1 F3000
;AFTER_LAYER_CHANGE
;1.1
G92 E0
_ON_LAYER_CHANGE LAYER=5
G1 X150.233 Y133.311 Z1.1 F30000
G1 X150.293 Y133.313
G1 E.8 F7200
M204 S4000
G1 F3193
G1 X150.874 Y133.328 E.0181
G3 X150.009 Y133.305 I-.873 J16.67 E3.23931
G1 X150.233 Y133.311 E.00698
M204 S10000
;LAYER_CHANGE
;Z:1.3
;HEIGHT:0.2
;1.3
G1 E-.8 F7200
G1 Z1.3 F3000
;AFTER_LAYER_CHANGE
;1.3
G92 E0
_ON_LAYER_CHANGE LAYER=6
G1 X150.233 Y133.311 Z1.3 F30000
G1 X150.293 Y133.313
G1 E.8 F7200
M204 S4000
G1 F3193
G1 X150.874 Y133.328 E.0181
G3 X150.011 Y133.305 I-.873 J16.67 E3.23937
M73 P6 R4
G1 X150.233 Y133.311 E.00692
M204 S10000
;LAYER_CHANGE
;Z:1.5
;HEIGHT:0.2
;1.5
G1 E-.8 F7200
G1 Z1.5 F3000
;AFTER_LAYER_CHANGE
;1.5
G92 E0
_ON_LAYER_CHANGE LAYER=7
G1 X150.233 Y133.311 Z1.5 F30000
G1 X150.293 Y133.313
G1 E.8 F7200
M204 S4000
G1 F3193
G1 X150.874 Y133.328 E.0181
G3 X150.013 Y133.305 I-.872 J16.67 E3.23944
M73 P7 R4
G1 X150.233 Y133.311 E.00685
M204 S10000
;LAYER_CHANGE
;Z:1.7
;HEIGHT:0.2
;1.7
G1 E-.8 F7200
G1 Z1.7 F3000
;AFTER_LAYER_CHANGE
;1.7
G92 E0
_ON_LAYER_CHANGE LAYER=8
G1 X150.233 Y133.311 Z1.7 F30000
G1 X150.293 Y133.313
G1 E.8 F7200
M204 S4000
G1 F3193
G1 X150.874 Y133.328 E.0181
G3 X150.015 Y133.305 I-.872 J16.67 E3.2395
G1 X150.233 Y133.311 E.00679
M204 S10000
;LAYER_CHANGE
;Z:1.9
;HEIGHT:0.2
;1.9
G1 E-.8 F7200
G1 Z1.9 F3000
;AFTER_LAYER_CHANGE
;1.9
G92 E0
_ON_LAYER_CHANGE LAYER=9
G1 X150.233 Y133.311 Z1.9 F30000
G1 X150.293 Y133.313
G1 E.8 F7200
M204 S4000
G1 F3193
G1 X150.874 Y133.328 E.0181
G3 X150.017 Y133.305 I-.872 J16.67 E3.23956
M73 P8 R4
G1 X150.233 Y133.311 E.00673
M204 S10000
;LAYER_CHANGE
;Z:2.1
;HEIGHT:0.2
;2.1
G1 E-.8 F7200
G1 Z2.1 F3000
;AFTER_LAYER_CHANGE
;2.1
G92 E0
_ON_LAYER_CHANGE LAYER=10
G1 X150.233 Y133.311 Z2.1 F30000
G1 X150.293 Y133.313
G1 E.8 F7200
M204 S4000
G1 F3193
G1 X150.874 Y133.328 E.0181
G3 X150.019 Y133.305 I-.871 J16.67 E3.23962
M73 P9 R4
G1 X150.233 Y133.311 E.00667
M204 S10000
;LAYER_CHANGE
;Z:2.3
;HEIGHT:0.2
;2.3
G1 E-.8 F7200
G1 Z2.3 F3000
;AFTER_LAYER_CHANGE
;2.3
G92 E0
_ON_LAYER_CHANGE LAYER=11
G1 X150.233 Y133.311 Z2.3 F30000
G1 X150.293 Y133.313
G1 E.8 F7200
M204 S4000
G1 F3193
G1 X150.874 Y133.328 E.0181
G3 X150.021 Y133.305 I-.871 J16.67 E3.23968
G1 X150.233 Y133.311 E.0066
M204 S10000
;LAYER_CHANGE
;Z:2.5
;HEIGHT:0.2
;2.5
G1 E-.8 F7200
G1 Z2.5 F3000
;AFTER_LAYER_CHANGE
;2.5
G92 E0
_ON_LAYER_CHANGE LAYER=12
G1 X150.233 Y133.311 Z2.5 F30000
G1 X150.293 Y133.312
G1 E.8 F7200
M204 S4000
G1 F3193
G1 X150.874 Y133.328 E.0181
G3 X150.022 Y133.305 I-.871 J16.67 E3.23971
M73 P10 R4
G1 X150.233 Y133.311 E.00657
M204 S10000
;LAYER_CHANGE
;Z:2.7
;HEIGHT:0.2
;2.7
G1 E-.8 F7200
G1 Z2.7 F3000
;AFTER_LAYER_CHANGE
;2.7
G92 E0
_ON_LAYER_CHANGE LAYER=13
G1 X150.233 Y133.311 Z2.7 F30000
G1 X150.293 Y133.312
G1 E.8 F7200
M204 S4000
G1 F3193
G1 X150.874 Y133.328 E.0181
G3 X150.024 Y133.305 I-.87 J16.67 E3.23977
G1 X150.233 Y133.311 E.00651
M204 S10000
;LAYER_CHANGE
;Z:2.9
;HEIGHT:0.2
;2.9
G1 E-.8 F7200
G1 Z2.9 F3000
;AFTER_LAYER_CHANGE
;2.9
G92 E0
_ON_LAYER_CHANGE LAYER=14
G1 X150.233 Y133.311 Z2.9 F30000
M73 P11 R4
G1 X150.293 Y133.312
G1 E.8 F7200
M204 S4000
G1 F3193
G1 X150.874 Y133.328 E.0181
G3 X150.026 Y133.305 I-.87 J16.67 E3.23984
G1 X150.233 Y133.311 E.00645
M204 S10000
;LAYER_CHANGE
;Z:3.1
;HEIGHT:0.2
;3.1
G1 E-.8 F7200
G1 Z3.1 F3000
;AFTER_LAYER_CHANGE
;3.1
G92 E0
_ON_LAYER_CHANGE LAYER=15
G1 X150.233 Y133.311 Z3.1 F30000
G1 X150.293 Y133.312
G1 E.8 F7200
M204 S4000
G1 F3193
G1 X150.874 Y133.328 E.0181
G3 X150.028 Y133.305 I-.87 J16.67 E3.2399
M73 P12 R4
G1 X150.233 Y133.311 E.00639
M204 S10000
;LAYER_CHANGE
;Z:3.3
;HEIGHT:0.2
;3.3
G1 E-.8 F7200
G1 Z3.3 F3000
;AFTER_LAYER_CHANGE
;3.3
G92 E0
_ON_LAYER_CHANGE LAYER=16
G1 X150.233 Y133.311 Z3.3 F30000
G1 X150.293 Y133.312
G1 E.8 F7200
M204 S4000
G1 F3193
G1 X150.874 Y133.328 E.0181
G3 X150.03 Y133.305 I-.87 J16.67 E3.23996
G1 X150.233 Y133.311 E.00632
M204 S10000
;LAYER_CHANGE
;Z:3.5
;HEIGHT:0.2
;3.5
G1 E-.8 F7200
G1 Z3.5 F3000
;AFTER_LAYER_CHANGE
;3.5
G92 E0
_ON_LAYER_CHANGE LAYER=17
G1 X150.233 Y133.311 Z3.5 F30000
G1 X150.293 Y133.312
G1 E.8 F7200
M204 S4000
G1 F3193
G1 X150.874 Y133.328 E.0181
G3 X150.032 Y133.305 I-.869 J16.67 E3.24002
M73 P13 R4
G1 X150.233 Y133.311 E.00626
M204 S10000
;LAYER_CHANGE
;Z:3.7
;HEIGHT:0.2
;3.7
G1 E-.8 F7200
G1 Z3.7 F3000
;AFTER_LAYER_CHANGE
;3.7
G92 E0
_ON_LAYER_CHANGE LAYER=18
G1 X150.233 Y133.311 Z3.7 F30000
G1 X150.293 Y133.312
G1 E.8 F7200
M204 S4000
G1 F3194
G1 X150.874 Y133.328 E.0181
G3 X150.034 Y133.305 I-.869 J16.671 E3.24008
M73 P14 R4
G1 X150.233 Y133.311 E.0062
M204 S10000
;LAYER_CHANGE
;Z:3.9
;HEIGHT:0.2
;3.9
G1 E-.8 F7200
G1 Z3.9 F3000
;AFTER_LAYER_CHANGE
;3.9
G92 E0
_ON_LAYER_CHANGE LAYER=19
G1 X150.233 Y133.311 Z3.9 F30000
G1 X150.293 Y133.312
G1 E.8 F7200
M204 S4000
G1 F3194
G1 X150.874 Y133.328 E.0181
G3 X150.036 Y133.305 I-.869 J16.671 E3.24015
G1 X150.233 Y133.311 E.00614
M204 S10000
;LAYER_CHANGE
;Z:4.1
;HEIGHT:0.2
;4.1
G1 E-.8 F7200
G1 Z4.1 F3000
;AFTER_LAYER_CHANGE
;4.1
G92 E0
_ON_LAYER_CHANGE LAYER=20
G1 X150.233 Y133.311 Z4.1 F30000
G1 X150.293 Y133.312
G1 E.8 F7200
M204 S4000
G1 F3194
G1 X150.874 Y133.328 E.0181
G3 X150.038 Y133.305 I-.869 J16.671 E3.24021
M73 P15 R4
G1 X150.233 Y133.311 E.00608
M204 S10000
;LAYER_CHANGE
;Z:4.3
;HEIGHT:0.2
;4.3
G1 E-.8 F7200
G1 Z4.3 F3000
;AFTER_LAYER_CHANGE
;4.3
G92 E0
_ON_LAYER_CHANGE LAYER=21
G1 X150.233 Y133.311 Z4.3 F30000
G1 X150.293 Y133.312
G1 E.8 F7200
M204 S4000
G1 F3194
G1 X150.874 Y133.328 E.0181
G3 X150.04 Y133.305 I-.868 J16.671 E3.24027
M73 P16 R4
G1 X150.233 Y133.311 E.00601
M204 S10000
;LAYER_CHANGE
;Z:4.5
;HEIGHT:0.2
;4.5
G1 E-.8 F7200
G1 Z4.5 F3000
;AFTER_LAYER_CHANGE
;4.5
G92 E0
_ON_LAYER_CHANGE LAYER=22
G1 X150.233 Y133.311 Z4.5 F30000
G1 X150.293 Y133.312
G1 E.8 F7200
M204 S4000
G1 F3194
G1 X150.874 Y133.328 E.0181
G3 X150.042 Y133.305 I-.868 J16.671 E3.24033
G1 X150.233 Y133.311 E.00595
M204 S10000
;LAYER_CHANGE
;Z:4.7
;HEIGHT:0.2
;4.7
G1 E-.8 F7200
G1 Z4.7 F3000
;AFTER_LAYER_CHANGE
;4.7
G92 E0
_ON_LAYER_CHANGE LAYER=23
G1 X150.233 Y133.311 Z4.7 F30000
G1 X150.293 Y133.312
G1 E.8 F7200
M204 S4000
G1 F3194
G1 X150.874 Y133.328 E.0181
G3 X150.044 Y133.305 I-.868 J16.671 E3.24039
M73 P17 R4
G1 X150.233 Y133.311 E.00589
M204 S10000
;LAYER_CHANGE
;Z:4.9
;HEIGHT:0.2
;4.9
G1 E-.8 F7200
G1 Z4.9 F3000
;AFTER_LAYER_CHANGE
;4.9
G92 E0
_ON_LAYER_CHANGE LAYER=24
G1 X150.233 Y133.311 Z4.9 F30000
G1 X150.293 Y133.312
G1 E.8 F7200
M204 S4000
G1 F3194
G1 X150.874 Y133.328 E.0181
G3 X150.046 Y133.305 I-.868 J16.671 E3.24045
M73 P18 R4
G1 X150.233 Y133.311 E.00583
M204 S10000
;LAYER_CHANGE
;Z:5.1
;HEIGHT:0.2
;5.1
G1 E-.8 F7200
G1 Z5.1 F3000
;AFTER_LAYER_CHANGE
;5.1
G92 E0
_ON_LAYER_CHANGE LAYER=25
G1 X150.233 Y133.311 Z5.1 F30000
G1 X150.293 Y133.312
G1 E.8 F7200
M204 S4000
G1 F3194
G1 X150.874 Y133.328 E.0181
G3 X150.048 Y133.305 I-.867 J16.671 E3.24052
G1 X150.233 Y133.311 E.00576
M204 S10000
;LAYER_CHANGE
;Z:5.3
;HEIGHT:0.2
;5.3
G1 E-.8 F7200
G1 Z5.3 F3000
;AFTER_LAYER_CHANGE
;5.3
G92 E0
_ON_LAYER_CHANGE LAYER=26
G1 X150.233 Y133.311 Z5.3 F30000
G1 X150.293 Y133.312
G1 E.8 F7200
M204 S4000
G1 F3194
G1 X150.874 Y133.328 E.0181
G3 X150.05 Y133.305 I-.867 J16.671 E3.24058
M73 P19 R4
G1 X150.233 Y133.31 E.0057
M204 S10000
;LAYER_CHANGE
;Z:5.5
;HEIGHT:0.2
;5.5
G1 E-.8 F7200
G1 Z5.5 F3000
;AFTER_LAYER_CHANGE
;5.5
G92 E0
_ON_LAYER_CHANGE LAYER=27
G1 X150.233 Y133.31 Z5.5 F30000
G1 X150.293 Y133.312
G1 E.8 F7200
M204 S4000
G1 F3194
G1 X150.874 Y133.328 E.0181
G3 X150.052 Y133.306 I-.867 J16.671 E3.24064
M73 P20 R4
G1 X150.233 Y133.31 E.00564
M204 S10000
;LAYER_CHANGE
;Z:5.7
;HEIGHT:0.2
;5.7
G1 E-.8 F7200
G1 Z5.7 F3000
;AFTER_LAYER_CHANGE
;5.7
G92 E0
_ON_LAYER_CHANGE LAYER=28
G1 X150.233 Y133.31 Z5.7 F30000
G1 X150.293 Y133.312
G1 E.8 F7200
M204 S4000
G1 F3194
G1 X150.874 Y133.328 E.0181
G3 X150.054 Y133.306 I-.867 J16.671 E3.2407
G1 X150.233 Y133.31 E.00558
M204 S10000
;LAYER_CHANGE
;Z:5.9
;HEIGHT:0.2
;5.9
G1 E-.8 F7200
G1 Z5.9 F3000
;AFTER_LAYER_CHANGE
;5.9
G92 E0
_ON_LAYER_CHANGE LAYER=29
G1 X150.233 Y133.31 Z5.9 F30000
G1 X150.293 Y133.312
G1 E.8 F7200
M204 S4000
G1 F3194
G1 X150.874 Y133.328 E.0181
G3 X150.056 Y133.306 I-.866 J16.671 E3.24076
M73 P21 R4
G1 X150.233 Y133.31 E.00551
M204 S10000
;LAYER_CHANGE
;Z:6.1
;HEIGHT:0.2
;6.1
G1 E-.8 F7200
G1 Z6.1 F3000
;AFTER_LAYER_CHANGE
;6.1
G92 E0
_ON_LAYER_CHANGE LAYER=30
G1 X150.233 Y133.31 Z6.1 F30000
G1 X150.293 Y133.312
G1 E.8 F7200
M204 S4000
G1 F3194
G1 X150.874 Y133.328 E.0181
G3 X150.058 Y133.306 I-.866 J16.671 E3.24083
M73 P22 R4
G1 X150.233 Y133.31 E.00545
M204 S10000
;LAYER_CHANGE
;Z:6.3
;HEIGHT:0.2
;6.3
G1 E-.8 F7200
G1 Z6.3 F3000
;AFTER_LAYER_CHANGE
;6.3
G92 E0
_ON_LAYER_CHANGE LAYER=31
G1 X150.233 Y133.31 Z6.3 F30000
G1 X150.293 Y133.312
G1 E.8 F7200
M204 S4000
G1 F3194
G1 X150.874 Y133.328 E.0181
G3 X150.06 Y133.306 I-.866 J16.671 E3.24089
G1 X150.233 Y133.31 E.00539
M204 S10000
;LAYER_CHANGE
;Z:6.5
;HEIGHT:0.2
;6.5
G1 E-.8 F7200
G1 Z6.5 F3000
;AFTER_LAYER_CHANGE
;6.5
G92 E0
_ON_LAYER_CHANGE LAYER=32
G1 X150.233 Y133.31 Z6.5 F30000
G1 X150.293 Y133.312
G1 E.8 F7200
M204 S4000
G1 F3194
G1 X150.874 Y133.328 E.0181
G3 X150.062 Y133.306 I-.866 J16.671 E3.24095
M73 P23 R4
G1 X150.233 Y133.31 E.00533
M204 S10000
;LAYER_CHANGE
;Z:6.7
;HEIGHT:0.2
;6.7
G1 E-.8 F7200
G1 Z6.7 F3000
;AFTER_LAYER_CHANGE
;6.7
G92 E0
_ON_LAYER_CHANGE LAYER=33
G1 X150.233 Y133.31 Z6.7 F30000
G1 X150.293 Y133.311
G1 E.8 F7200
M204 S4000
G1 F3193
G3 X150.874 Y133.328 I-.331 J21.01 E.0181
G3 X149.418 Y133.315 I-.874 J16.67 E3.2209
G3 X150.233 Y133.31 I.544 J21.006 E.02538
M204 S10000
;LAYER_CHANGE
;Z:6.9
;HEIGHT:0.2
;6.9
G1 E-.8 F7200
G1 Z6.9 F3000
;AFTER_LAYER_CHANGE
;6.9
G92 E0
_ON_LAYER_CHANGE LAYER=34
G1 X150.233 Y133.31 Z6.9 F30000
M73 P24 R4
G1 X150.293 Y133.311
G1 E.8 F7200
M204 S4000
G1 F3193
G3 X150.874 Y133.328 I-.331 J21.014 E.0181
G3 X149.418 Y133.315 I-.874 J16.67 E3.2209
G3 X150.233 Y133.31 I.544 J21.01 E.02538
M204 S10000
;LAYER_CHANGE
;Z:7.1
;HEIGHT:0.2
;7.1
G1 E-.8 F7200
G1 Z7.1 F3000
;AFTER_LAYER_CHANGE
;7.1
G92 E0
_ON_LAYER_CHANGE LAYER=35
G1 X150.233 Y133.31 Z7.1 F30000
G1 X150.293 Y133.311
G1 E.8 F7200
M204 S4000
G1 F3193
G3 X150.874 Y133.328 I-.331 J21.019 E.0181
G3 X149.418 Y133.315 I-.874 J16.67 E3.2209
M73 P25 R3
G3 X150.233 Y133.31 I.544 J21.015 E.02538
M204 S10000
;LAYER_CHANGE
;Z:7.3
;HEIGHT:0.2
;7.3
G1 E-.8 F7200
G1 Z7.3 F3000
;AFTER_LAYER_CHANGE
;7.3
G92 E0
_ON_LAYER_CHANGE LAYER=36
G1 X150.233 Y133.31 Z7.3 F30000
G1 X150.293 Y133.311
G1 E.8 F7200
M204 S4000
G1 F3193
G3 X150.874 Y133.328 I-.331 J21.023 E.0181
G3 X149.418 Y133.315 I-.874 J16.67 E3.2209
G3 X150.233 Y133.31 I.544 J21.019 E.02538
M204 S10000
;LAYER_CHANGE
;Z:7.5
;HEIGHT:0.2
;7.5
G1 E-.8 F7200
G1 Z7.5 F3000
;AFTER_LAYER_CHANGE
;7.5
G92 E0
_ON_LAYER_CHANGE LAYER=37
G1 X150.233 Y133.31 Z7.5 F30000
G1 X150.293 Y133.311
G1 E.8 F7200
M204 S4000
G1 F3193
G3 X150.874 Y133.328 I-.331 J21.026 E.0181
G3 X149.418 Y133.315 I-.874 J16.67 E3.2209
M73 P26 R3
G3 X150.233 Y133.31 I.544 J21.022 E.02538
M204 S10000
;LAYER_CHANGE
;Z:7.7
;HEIGHT:0.2
;7.7
G1 E-.8 F7200
G1 Z7.7 F3000
;AFTER_LAYER_CHANGE
;7.7
G92 E0
_ON_LAYER_CHANGE LAYER=38
G1 X150.233 Y133.31 Z7.7 F30000
G1 X150.293 Y133.311
G1 E.8 F7200
M204 S4000
G1 F3193
G3 X150.874 Y133.328 I-.331 J21.03 E.0181
G3 X149.418 Y133.315 I-.874 J16.67 E3.2209
M73 P27 R3
G3 X150.233 Y133.31 I.544 J21.026 E.02538
M204 S10000
;LAYER_CHANGE
;Z:7.9
;HEIGHT:0.2
;7.9
G1 E-.8 F7200
G1 Z7.9 F3000
;AFTER_LAYER_CHANGE
;7.9
G92 E0
_ON_LAYER_CHANGE LAYER=39
G1 X150.233 Y133.31 Z7.9 F30000
G1 X150.293 Y133.311
G1 E.8 F7200
M204 S4000
G1 F3193
G3 X150.874 Y133.328 I-.331 J21.033 E.0181
G3 X149.418 Y133.315 I-.874 J16.67 E3.2209
G3 X150.233 Y133.31 I.544 J21.029 E.02538
M204 S10000
;LAYER_CHANGE
;Z:8.1
;HEIGHT:0.2
;8.1
G1 E-.8 F7200
G1 Z8.1 F3000
;AFTER_LAYER_CHANGE
;8.1
G92 E0
_ON_LAYER_CHANGE LAYER=40
G1 X150.233 Y133.31 Z8.1 F30000
G1 X150.293 Y133.311
G1 E.8 F7200
M204 S4000
G1 F3193
G3 X150.874 Y133.328 I-.331 J21.035 E.0181
G3 X149.418 Y133.315 I-.874 J16.67 E3.22091
M73 P28 R3
G3 X150.233 Y133.31 I.544 J21.031 E.02538
M204 S10000
;LAYER_CHANGE
;Z:8.3
;HEIGHT:0.2
;8.3
G1 E-.8 F7200
G1 Z8.3 F3000
;AFTER_LAYER_CHANGE
;8.3
G92 E0
_ON_LAYER_CHANGE LAYER=41
G1 X150.233 Y133.31 Z8.3 F30000
G1 X150.293 Y133.311
G1 E.8 F7200
M204 S4000
G1 F3193
G3 X150.874 Y133.328 I-.331 J21.04 E.0181
G3 X149.418 Y133.315 I-.874 J16.67 E3.22091
M73 P29 R3
G3 X150.233 Y133.31 I.544 J21.036 E.02538
M204 S10000
;LAYER_CHANGE
;Z:8.5
;HEIGHT:0.2
;8.5
G1 E-.8 F7200
G1 Z8.5 F3000
;AFTER_LAYER_CHANGE
;8.5
G92 E0
_ON_LAYER_CHANGE LAYER=42
G1 X150.233 Y133.31 Z8.5 F30000
G1 X150.293 Y133.311
G1 E.8 F7200
M204 S4000
G1 F3193
G3 X150.873 Y133.328 I-.331 J21.043 E.01807
G3 X149.418 Y133.315 I-.873 J16.67 E3.22094
G3 X150.233 Y133.31 I.544 J21.039 E.02538
M204 S10000
;LAYER_CHANGE
;Z:8.7
;HEIGHT:0.2
;8.7
G1 E-.8 F7200
G1 Z8.7 F3000
;AFTER_LAYER_CHANGE
;8.7
G92 E0
_ON_LAYER_CHANGE LAYER=43
G1 X150.233 Y133.31 Z8.7 F30000
G1 X150.293 Y133.311
G1 E.8 F7200
M204 S4000
G1 F3193
G3 X150.873 Y133.328 I-.331 J21.046 E.01807
G3 X149.418 Y133.315 I-.873 J16.67 E3.22094
M73 P30 R3
G3 X150.233 Y133.31 I.544 J21.042 E.02538
M204 S10000
;LAYER_CHANGE
;Z:8.9
;HEIGHT:0.2
;8.9
G1 E-.8 F7200
G1 Z8.9 F3000
;AFTER_LAYER_CHANGE
;8.9
G92 E0
_ON_LAYER_CHANGE LAYER=44
G1 X150.233 Y133.31 Z8.9 F30000
G1 X150.293 Y133.311
G1 E.8 F7200
M204 S4000
G1 F3193
G3 X150.873 Y133.328 I-.331 J21.05 E.01807
G3 X149.418 Y133.315 I-.873 J16.67 E3.22094
M73 P31 R3
