; processed by RatOS.PostProcessor 1.0.0 on 2024-11-07 at 15:08:23 UTC v:2 m:999
; generated by PrusaSlicer 2.8.0+win64 on 2024-10-31 at 03:31:15 UTC                             

;
;

; external perimeters extrusion width = 0.45mm
; perimeters extrusion width = 0.45mm
; infill extrusion width = 0.45mm
; solid infill extrusion width = 0.45mm
; top infill extrusion width = 0.45mm
; first layer extrusion width = 0.45mm

M73 P0 R13
;TYPE:Custom
START_PRINT EXTRUDER_TEMP=250,250 EXTRUDER_OTHER_LAYER_TEMP=250,250 BED_TEMP=first_layer_bed_temperature START_CHAMBER_TEMP=0,0 CHAMBER_TEMP=0,0 INITIAL_TOOL=0 TOTAL_LAYER_COUNT=150 X0=135 Y0=135 X1=165 Y1=165 FIRST_X=163.961 FIRST_Y=163.961 MIN_X=135.225 MAX_X=164.775 USED_TOOLS=0                                                                                                                                                                                 
G21 ; set units to millimeters
G90 ; use absolute coordinates
M83 ; use relative distances for extrusion

;snip for unit test

G1 X149.783 Y163.627 E.57774
G1 X150.358 Y163.627 E.01752
G1 X136.373 Y149.642 E.60251
G1 X136.373 Y149.066 E.01755
G1 X150.934 Y163.627 E.62732
G1 X151.51 Y163.627 E.01755
G1 X136.373 Y148.49 E.65214
G1 X136.373 Y147.915 E.01752
G1 X152.085 Y163.627 E.67691
G1 X152.661 Y163.627 E.01755
G1 X136.373 Y147.339 E.70173
G1 X136.373 Y146.763 E.01755
G1 X153.237 Y163.627 E.72654
G1 X153.812 Y163.627 E.01752
G1 X136.373 Y146.188 E.75131
G1 X136.373 Y145.612 E.01755
G1 X154.388 Y163.627 E.77613
G1 X154.964 Y163.627 E.01755
G1 X136.373 Y145.036 E.80095
G1 X136.373 Y144.46 E.01755
G1 X155.54 Y163.627 E.82576
G1 X156.115 Y163.627 E.01752
G1 X136.373 Y143.885 E.85053
G1 X136.373 Y143.309 E.01755
G1 X156.691 Y163.627 E.87535
G1 X157.267 Y163.627 E.01755
G1 X136.373 Y142.733 E.90016
G1 X136.373 Y142.158 E.01752
G1 X157.842 Y163.627 E.92494
G1 X158.418 Y163.627 E.01755
G1 X136.373 Y141.582 E.94975
G1 X136.373 Y141.006 E.01755
G1 X158.994 Y163.627 E.97457
G1 X159.569 Y163.627 E.01752
G1 X136.373 Y140.431 E.99934
G1 X136.373 Y139.855 E.01755
G1 X160.145 Y163.627 E1.02416
G1 X160.721 Y163.627 E.01755
G1 X136.373 Y139.279 E1.04897
G1 X136.373 Y138.703 E.01755
G1 X161.297 Y163.627 E1.07379
G1 X161.872 Y163.627 E.01752
G1 X136.373 Y138.128 E1.09856
G1 X136.373 Y137.552 E.01755
G1 X162.448 Y163.627 E1.12337
G1 X163.024 Y163.627 E.01755
G1 X136.373 Y136.976 E1.14819
G1 X136.373 Y136.401 E.01752
G1 X163.599 Y163.627 E1.17296
G1 X163.627 Y163.079 E.01672
G1 X136.921 Y136.373 E1.15056
G1 X137.497 Y136.373 E.01755
G1 X163.627 Y162.503 E1.12574
G1 X163.627 Y161.928 E.01752
G1 X138.072 Y136.373 E1.10097
G1 X138.648 Y136.373 E.01755
G1 X163.627 Y161.352 E1.07616
G1 X163.627 Y160.776 E.01755
G1 X139.224 Y136.373 E1.05134
G1 X139.799 Y136.373 E.01752
G1 X163.627 Y160.201 E1.02657
G1 X163.627 Y159.625 E.01755
G1 X140.375 Y136.373 E1.00175
G1 X140.951 Y136.373 E.01755
G1 X163.627 Y159.049 E.97694
G1 X163.627 Y158.473 E.01755
G1 X141.527 Y136.373 E.95212
G1 X142.102 Y136.373 E.01752
G1 X163.627 Y157.898 E.92735
G1 X163.627 Y157.322 E.01755
G1 X142.678 Y136.373 E.90253
G1 X143.254 Y136.373 E.01755
G1 X163.627 Y156.746 E.87772
G1 X163.627 Y156.171 E.01752
G1 X143.829 Y136.373 E.85295
G1 X144.405 Y136.373 E.01755
G1 X163.627 Y155.595 E.82813
G1 X163.627 Y155.019 E.01755
G1 X144.981 Y136.373 E.80332
G1 X145.556 Y136.373 E.01752
G1 X163.627 Y154.444 E.77854
G1 X163.627 Y153.868 E.01755
G1 X146.132 Y136.373 E.75373
G1 X146.708 Y136.373 E.01755
G1 X163.627 Y153.292 E.72891
G1 X163.627 Y152.717 E.01752
G1 X147.283 Y136.373 E.70414
G1 X147.859 Y136.373 E.01755
G1 X163.627 Y152.141 E.67932
G1 X163.627 Y151.565 E.01755
G1 X148.435 Y136.373 E.65451
G1 X149.011 Y136.373 E.01755
G1 X163.627 Y150.989 E.62969
G1 X163.627 Y150.414 E.01752
G1 X149.586 Y136.373 E.60492
G1 X150.162 Y136.373 E.01755
G1 X163.627 Y149.838 E.58011
G1 X163.627 Y149.262 E.01755
G1 X150.738 Y136.373 E.55529
G1 X151.313 Y136.373 E.01752
G1 X163.627 Y148.687 E.53052
G1 X163.627 Y148.111 E.01755
G1 X151.889 Y136.373 E.5057
G1 X152.465 Y136.373 E.01755
G1 X163.627 Y147.535 E.48089
G1 X163.627 Y146.96 E.01752
G1 X153.04 Y136.373 E.45611
G1 X153.616 Y136.373 E.01755
G1 X163.627 Y146.384 E.4313
G1 X163.627 Y145.808 E.01755
G1 X154.192 Y136.373 E.40648
G1 X154.768 Y136.373 E.01755
G1 X163.627 Y145.232 E.38167
G1 X163.627 Y144.657 E.01752
G1 X155.343 Y136.373 E.35689
G1 X155.919 Y136.373 E.01755
G1 X163.627 Y144.081 E.33208
G1 X163.627 Y143.505 E.01755
G1 X156.495 Y136.373 E.30726
G1 X157.07 Y136.373 E.01752
G1 X163.627 Y142.93 E.28249
G1 X163.627 Y142.354 E.01755
G1 X157.646 Y136.373 E.25768
G1 X158.222 Y136.373 E.01755
G1 X163.627 Y141.778 E.23286
G1 X163.627 Y141.203 E.01752
G1 X158.797 Y136.373 E.20809
G1 X159.373 Y136.373 E.01755
G1 X163.627 Y140.627 E.18327
G1 X163.627 Y140.051 E.01755
G1 X159.949 Y136.373 E.15846
G1 X160.525 Y136.373 E.01755
G1 X163.627 Y139.475 E.13364
G1 X163.627 Y138.9 E.01752
G1 X161.1 Y136.373 E.10887
G1 X161.676 Y136.373 E.01755
G1 X163.627 Y138.324 E.08405
G1 X163.627 Y137.748 E.01755
G1 X162.252 Y136.373 E.05924
G1 X162.827 Y136.373 E.01752
G1 X163.627 Y137.173 E.03447
G1 X163.609 Y136.391 E.02383
;WIDTH:0.581236
G1 X163.626 Y136.456 E.00271
G1 X163.579 Y136.504 E.00271
G1 X163.514 Y136.486 E.00272
G1 X163.496 Y136.421 E.00272
G1 X163.544 Y136.374 E.00271
;LAYER_CHANGE
;Z:30
;HEIGHT:0.200001
;BEFORE_LAYER_CHANGE
;30

;WIPE_START
G1 F24000
G1 X163.496 Y136.421 E-.01915
G1 X163.514 Y136.486 E-.01922
G1 X163.579 Y136.504 E-.01922
G1 X163.626 Y136.456 E-.01915
G1 X163.609 Y136.391 E-.01915
G1 X163.627 Y137.173 E-.22293
G1 X162.827 Y136.373 E-.32244
G1 X162.252 Y136.373 E-.16387
G1 X163.627 Y137.748 E-.55419
G1 X163.627 Y138.324 E-.16416
G1 X162.445 Y137.142 E-.47652
;WIPE_END
G1 Z30 F12000
;AFTER_LAYER_CHANGE
;30
G92 E0
_ON_LAYER_CHANGE LAYER=150
G1 Z31
G1 X164.775 Y164.775 F30000
G1 Z30 F12000
G1 E2 F7200
M204 S10000
;TYPE:External perimeter
;WIDTH:0.449999
G1 F18000
G1 X135.225 Y164.775 E.90021
G1 X135.225 Y135.225 E.90021
G1 X164.775 Y135.225 E.90021
G1 X164.775 Y150 E.4501
G1 X164.775 Y164.715 E.44828
M204 S15000
G1 X163.795 Y164.624 F30000
M73 P97 R0
M204 S3000
;TYPE:Top solid infill
;WIDTH:0.453034
G1 F6000
G1 X164.441 Y163.978 E.02804
G1 X164.441 Y163.398 E.0178
G1 X163.398 Y164.441 E.04527
G1 X162.818 Y164.441 E.0178
G1 X164.441 Y162.818 E.07044
G1 X164.441 Y162.238 E.0178
G1 X162.238 Y164.441 E.09562
G1 X161.658 Y164.441 E.0178
G1 X164.441 Y161.658 E.12079
G1 X164.441 Y161.078 E.0178
G1 X161.078 Y164.441 E.14597
G1 X160.498 Y164.441 E.0178
G1 X164.441 Y160.498 E.17114
G1 X164.441 Y159.918 E.0178
G1 X159.918 Y164.441 E.19631
G1 X159.338 Y164.441 E.0178
G1 X164.441 Y159.338 E.22149
G1 X164.441 Y158.758 E.0178
G1 X158.758 Y164.441 E.24666
G1 X158.178 Y164.441 E.0178
G1 X164.441 Y158.178 E.27184
G1 X164.441 Y157.598 E.0178
G1 X157.598 Y164.441 E.29701
G1 X157.018 Y164.441 E.0178
G1 X164.441 Y157.018 E.32219
G1 X164.441 Y156.438 E.0178
G1 X156.438 Y164.441 E.34736
G1 X155.858 Y164.441 E.0178
G1 X164.441 Y155.858 E.37253
G1 X164.441 Y155.278 E.0178
G1 X155.278 Y164.441 E.39771
G1 X154.698 Y164.441 E.0178
G1 X164.441 Y154.698 E.42288
G1 X164.441 Y154.118 E.0178
G1 X154.118 Y164.441 E.44806
G1 X153.538 Y164.441 E.0178
G1 X164.441 Y153.538 E.47323
G1 X164.441 Y152.958 E.0178
G1 X152.958 Y164.441 E.4984
G1 X152.378 Y164.441 E.0178
G1 X164.441 Y152.378 E.52358
G1 X164.441 Y151.798 E.0178
G1 X151.798 Y164.441 E.54875
G1 X151.218 Y164.441 E.0178
G1 X164.441 Y151.218 E.57393
G1 X164.441 Y150.638 E.0178
G1 X150.638 Y164.441 E.5991
G1 X150.058 Y164.441 E.0178
G1 X164.441 Y150.058 E.62427
G1 X164.441 Y149.479 E.01777
G1 X149.479 Y164.441 E.64941
G1 X148.899 Y164.441 E.0178
G1 X164.441 Y148.899 E.67458
G1 X164.441 Y148.319 E.0178
G1 X148.319 Y164.441 E.69975
G1 X147.739 Y164.441 E.0178
G1 X164.441 Y147.739 E.72493
G1 X164.441 Y147.159 E.0178
G1 X147.159 Y164.441 E.7501
G1 X146.579 Y164.441 E.0178
G1 X164.441 Y146.579 E.77528
G1 X164.441 Y145.999 E.0178
G1 X145.999 Y164.441 E.80045
G1 X145.419 Y164.441 E.0178
G1 X164.441 Y145.419 E.82562
G1 X164.441 Y144.839 E.0178
G1 X144.839 Y164.441 E.8508
G1 X144.259 Y164.441 E.0178
G1 X164.441 Y144.259 E.87597
G1 X164.441 Y143.679 E.0178
G1 X143.679 Y164.441 E.90115
G1 X143.099 Y164.441 E.0178
G1 X164.441 Y143.099 E.92632
G1 X164.441 Y142.519 E.0178
G1 X142.519 Y164.441 E.95149
G1 X141.939 Y164.441 E.0178
G1 X164.441 Y141.939 E.97667
G1 X164.441 Y141.359 E.0178
G1 X141.359 Y164.441 E1.00184
G1 X140.779 Y164.441 E.0178
M73 P98 R0
G1 X164.441 Y140.779 E1.02702
G1 X164.441 Y140.199 E.0178
G1 X140.199 Y164.441 E1.05219
G1 X139.619 Y164.441 E.0178
G1 X164.441 Y139.619 E1.07736
G1 X164.441 Y139.039 E.0178
G1 X139.039 Y164.441 E1.10254
G1 X138.459 Y164.441 E.0178
G1 X164.441 Y138.459 E1.12771
G1 X164.441 Y137.879 E.0178
G1 X137.879 Y164.441 E1.15289
G1 X137.299 Y164.441 E.0178
G1 X164.441 Y137.299 E1.17806
G1 X164.441 Y136.719 E.0178
G1 X136.719 Y164.441 E1.20324
G1 X136.139 Y164.441 E.0178
G1 X164.441 Y136.139 E1.22841
G1 X164.441 Y135.559 E.0178
G1 X135.559 Y164.441 E1.25358
G1 X135.559 Y163.861 E.0178
G1 X163.861 Y135.559 E1.22841
G1 X163.281 Y135.559 E.0178
G1 X135.559 Y163.281 E1.20324
G1 X135.559 Y162.701 E.0178
G1 X162.701 Y135.559 E1.17806
G1 X162.121 Y135.559 E.0178
G1 X135.559 Y162.121 E1.15289
G1 X135.559 Y161.541 E.0178
G1 X161.541 Y135.559 E1.12771
G1 X160.961 Y135.559 E.0178
G1 X135.559 Y160.961 E1.10254
G1 X135.559 Y160.381 E.0178
G1 X160.381 Y135.559 E1.07736
G1 X159.801 Y135.559 E.0178
G1 X135.559 Y159.801 E1.05219
G1 X135.559 Y159.221 E.0178
G1 X159.221 Y135.559 E1.02702
G1 X158.641 Y135.559 E.0178
G1 X135.559 Y158.641 E1.00184
G1 X135.559 Y158.061 E.0178
M73 P99 R0
G1 X158.061 Y135.559 E.97667
G1 X157.481 Y135.559 E.0178
G1 X135.559 Y157.481 E.95149
G1 X135.559 Y156.901 E.0178
G1 X156.901 Y135.559 E.92632
G1 X156.321 Y135.559 E.0178
G1 X135.559 Y156.321 E.90115
G1 X135.559 Y155.741 E.0178
G1 X155.741 Y135.559 E.87597
G1 X155.161 Y135.559 E.0178
G1 X135.559 Y155.161 E.8508
G1 X135.559 Y154.581 E.0178
G1 X154.581 Y135.559 E.82562
G1 X154.001 Y135.559 E.0178
G1 X135.559 Y154.001 E.80045
G1 X135.559 Y153.421 E.0178
G1 X153.421 Y135.559 E.77528
G1 X152.841 Y135.559 E.0178
G1 X135.559 Y152.841 E.7501
G1 X135.559 Y152.261 E.0178
G1 X152.261 Y135.559 E.72493
G1 X151.681 Y135.559 E.0178
G1 X135.559 Y151.681 E.69975
G1 X135.559 Y151.101 E.0178
G1 X151.101 Y135.559 E.67458
G1 X150.521 Y135.559 E.0178
G1 X135.559 Y150.521 E.64941
G1 X135.559 Y149.941 E.0178
G1 X149.941 Y135.559 E.62423
G1 X149.361 Y135.559 E.0178
G1 X135.559 Y149.361 E.59906
G1 X135.559 Y148.781 E.0178
G1 X148.781 Y135.559 E.57388
G1 X148.201 Y135.559 E.0178
G1 X135.559 Y148.201 E.54871
G1 X135.559 Y147.621 E.0178
G1 X147.621 Y135.559 E.52353
G1 X147.042 Y135.559 E.01777
G1 X135.559 Y147.042 E.4984
G1 X135.559 Y146.462 E.0178
G1 X146.462 Y135.559 E.47323
G1 X145.882 Y135.559 E.0178
G1 X135.559 Y145.882 E.44806
G1 X135.559 Y145.302 E.0178
G1 X145.302 Y135.559 E.42288
G1 X144.722 Y135.559 E.0178
G1 X135.559 Y144.722 E.39771
G1 X135.559 Y144.142 E.0178
G1 X144.142 Y135.559 E.37253
G1 X143.562 Y135.559 E.0178
G1 X135.559 Y143.562 E.34736
G1 X135.559 Y142.982 E.0178
G1 X142.982 Y135.559 E.32219
G1 X142.402 Y135.559 E.0178
G1 X135.559 Y142.402 E.29701
G1 X135.559 Y141.822 E.0178
G1 X141.822 Y135.559 E.27184
G1 X141.242 Y135.559 E.0178
G1 X135.559 Y141.242 E.24666
G1 X135.559 Y140.662 E.0178
G1 X140.662 Y135.559 E.22149
G1 X140.082 Y135.559 E.0178
G1 X135.559 Y140.082 E.19631
G1 X135.559 Y139.502 E.0178
G1 X139.502 Y135.559 E.17114
G1 X138.922 Y135.559 E.0178
G1 X135.559 Y138.922 E.14597
G1 X135.559 Y138.342 E.0178
G1 X138.342 Y135.559 E.12079
G1 X137.762 Y135.559 E.0178
G1 X135.559 Y137.762 E.09562
G1 X135.559 Y137.182 E.0178
G1 X137.182 Y135.559 E.07044
G1 X136.602 Y135.559 E.0178
G1 X135.559 Y136.602 E.04527
G1 X135.559 Y136.022 E.0178
G1 X136.205 Y135.376 E.02804
M204 S15000
;WIPE_START
G1 F24000;_WIPE
G1 X135.559 Y136.022 E-.26037
G1 X135.559 Y136.602 E-.1653
G1 X136.602 Y135.559 E-.42038
G1 X137.182 Y135.559 E-.1653
G1 X135.559 Y137.182 E-.65415
G1 X135.559 Y137.762 E-.1653
G1 X135.979 Y137.342 E-.1692
;WIPE_END
M107
;TYPE:Custom
; Filament-specific end gcode
; Filament-specific end gcode
END_PRINT
M73 P100 R0
; objects_info = {"objects":[]}
; filament used [mm] = 3385.84, 0.00
; filament used [cm3] = 8.14, 0.00
; filament used [g] = 10.34, 0.00
; filament cost = 0.38, 0.00
; total filament used [g] = 10.34
; total filament cost = 0.38
; total filament used for wipe tower [g] = 0.00
; estimated printing time (normal mode) = 13m 55s
; estimated first layer printing time (normal mode) = 1m 52s

; prusaslicer_config = begin
; arc_fitting = disabled
; autoemit_temperature_commands = 0
; avoid_crossing_curled_overhangs = 0
; avoid_crossing_perimeters = 0
; avoid_crossing_perimeters_max_detour = 0
; bed_custom_model = C:\\Users\\Helge\\AppData\\Roaming\\PrusaSlicer\\printer\\ratrig-vcore-bed-300x300.stl
; bed_custom_texture = C:\\Users\\Helge\\AppData\\Roaming\\PrusaSlicer\\printer\\Bed-Texture-300x300 - no logo.svg
; bed_shape = 0x0,300x0,300x300,0x300
; bed_temperature = 85,85
; before_layer_gcode = ;BEFORE_LAYER_CHANGE\n;[layer_z]\n
; between_objects_gcode = ;BETWEEN_OBJECTS\nG92 E0
; binary_gcode = 0
; bottom_fill_pattern = monotonic
; bottom_solid_layers = 4
; bottom_solid_min_thickness = 0
; bridge_acceleration = 2500
; bridge_angle = 0
; bridge_fan_speed = 50,50
; bridge_flow_ratio = 0.7
; bridge_speed = 60
; brim_separation = 0
; brim_type = outer_only
; brim_width = 0
; chamber_minimal_temperature = 0,0
; chamber_temperature = 0,0
; color_change_gcode = M600
; colorprint_heights = 
; complete_objects = 0
; cooling = 0,0
; cooling_tube_length = 0
; cooling_tube_retraction = 0
; default_acceleration = 15000
; default_filament_profile = "Generic PLA @RatRig"
; default_print_profile = 0.20mm NORMAL @RatRig
; deretract_speed = 120,120
; disable_fan_first_layers = 0,0
; dont_support_bridges = 1
; draft_shield = disabled
; duplicate_distance = 6
; elefant_foot_compensation = 0
; enable_dynamic_fan_speeds = 0,0
; enable_dynamic_overhang_speeds = 0
; end_filament_gcode = "; Filament-specific end gcode";"; Filament-specific end gcode"
; end_gcode = END_PRINT\n
; external_perimeter_acceleration = 10000
; external_perimeter_extrusion_width = 0.45
; external_perimeter_speed = 300
; external_perimeters_first = 0
; extra_loading_move = 0
; extra_perimeters = 0
; extra_perimeters_on_overhangs = 0
; extruder_clearance_height = 25
; extruder_clearance_radius = 45
; extruder_colour = #DFDF00;#0000A0
; extruder_offset = 0x0,0x0
; extrusion_axis = E
; extrusion_multiplier = 0.9,0.9
; extrusion_width = 0.45
; fan_always_on = 1,1
; fan_below_layer_time = 5,5
; filament_colour = #FF8000;#FF8000
; filament_cooling_final_speed = 2,2
; filament_cooling_initial_speed = 3,3
; filament_cooling_moves = 0,0
; filament_cost = 36.29,36.29
; filament_density = 1.27,1.27
; filament_deretract_speed = nil,nil
; filament_diameter = 1.75,1.75
; filament_infill_max_crossing_speed = 0,0
; filament_infill_max_speed = 0,0
; filament_load_time = 0,0
; filament_loading_speed = 14,14
; filament_loading_speed_start = 19,19
; filament_max_volumetric_speed = 0,0
; filament_minimal_purge_on_wipe_tower = 10,10
; filament_multitool_ramming = 0,0
; filament_multitool_ramming_flow = 10,10
; filament_multitool_ramming_volume = 10,10
; filament_notes = CHAMBER_TEMP=50;CHAMBER_TEMP=50
; filament_purge_multiplier = 100%,100%
; filament_ramming_parameters = "10 10| 0.05 2.66451 0.45 3.05805 0.95 4.05807 1.45 5.97742 1.95 7.69999 2.45 8.1936 2.95 11.342 3.45 11.4065 3.95 7.6 4.45 7.6 4.95 7.6";"10 10| 0.05 2.66451 0.45 3.05805 0.95 4.05807 1.45 5.97742 1.95 7.69999 2.45 8.1936 2.95 11.342 3.45 11.4065 3.95 7.6 4.45 7.6 4.95 7.6"
; filament_retract_before_travel = nil,nil
; filament_retract_before_wipe = nil,nil
; filament_retract_layer_change = 1,1
; filament_retract_length = 2,2
; filament_retract_length_toolchange = nil,nil
; filament_retract_lift = 1,1
; filament_retract_lift_above = nil,nil
