; processed by RatOS 2.0.2-586-g981e86a4 on 2024-11-05 at 13:26:06 UTC
; generated by SuperSlicer 2.5.60.0 on 2024-11-04 at 06:44:44 UTC                             


;
;

;
;
; 

; external perimeters extrusion width = 0.50mm
; perimeters extrusion width = 0.50mm
; infill extrusion width = 0.50mm
; solid infill extrusion width = 0.50mm
; top infill extrusion width = 0.50mm
; support material extrusion width = 0.38mm
; first layer extrusion width = 0.50mm


M73 P0 R8
M107
;TYPE:Custom
; custom gcode: start_gcode
; ESTIMATOR_ADD_TIME 300 Print start
START_PRINT EXTRUDER_TEMP=255,255 EXTRUDER_OTHER_LAYER_TEMP=250,250 BED_TEMP=85 INITIAL_TOOL=0 TOTAL_LAYER_COUNT=150 X0=135.2 Y0=135.2 X1=164.8 Y1=164.8 FIRST_X=164.55 FIRST_Y=164.55 MIN_X=135.225 MAX_X=164.775 USED_TOOLS=0 WIPE_ACCEL=0                                                                                                                                                                      
; custom gcode end: start_gcode

; custom gcode: start_filament_gcode
; Filament gcode
SET_PRESSURE_ADVANCE ADVANCE=0.04 
; custom gcode end: start_filament_gcode
;LAYER_CHANGE
;Z:0.2
;HEIGHT:0.2
G1 E-1 F7200
M73 P3 R8
G1 Z0.2 F3000
; custom gcode: layer_gcode
;AFTER_LAYER_CHANGE
;0.2
G92 E0
_ON_LAYER_CHANGE LAYER=1
; custom gcode end: layer_gcode

M104 S255 ; set temperature
G1 Z0.4
M204 S2000
G1 X164.55 Y164.55 F30000
M73 P4 R8
G1 Z0.2 F3000
G1 E1 F7200
; custom gcode: feature_gcode
;BETWEEN_EXTRUSION_ROLE
G92 E0
; custom gcode end: feature_gcode

;TYPE:External perimeter
;WIDTH:0.5
G1 F3000
G1 X135.45 Y164.55 E0.99539
G1 X135.45 Y135.45 E0.99538
G1 X164.55 Y135.45 E0.99539
G1 X164.55 Y164.49 E0.99333
G1 E-1 F7200
M204 S40000
G1 Z0.4 F3000
; acceleration to travel
G1 X163.511 Y137.035 F30000
; decel to extrusion
M204 S2000
G1 X163.457 Y135.619
; end travel
G1 Z0.2 F3000
G1 E1 F7200
; custom gcode: feature_gcode
;BETWEEN_EXTRUSION_ROLE
G92 E0
; custom gcode end: feature_gcode

;TYPE:Solid infill
;WIDTH:0.493951
G1 F6000
G1 X164.184 Y136.347 E0.03476
G1 X164.184 Y136.993 E0.02185
G1 X163.007 Y135.816 E0.05626
G1 X162.361 Y135.816 E0.02184
G1 X164.184 Y137.639 E0.08715
G1 X164.184 Y138.286 E0.02185
G1 X161.714 Y135.816 E0.11804
G1 X161.068 Y135.816 E0.02184
G1 X164.184 Y138.932 E0.14894
G1 X164.184 Y139.579 E0.02184
G1 X160.421 Y135.816 E0.17983
G1 X159.775 Y135.816 E0.02184
G1 X164.184 Y140.225 E0.21072
G1 X164.184 Y140.871 E0.02184
G1 X159.129 Y135.816 E0.24161
G1 X158.482 Y135.816 E0.02184
G1 X164.184 Y141.518 E0.2725
G1 X164.184 Y142.164 E0.02185
G1 X157.836 Y135.816 E0.30339
G1 X157.189 Y135.816 E0.02184
G1 X164.184 Y142.811 E0.33428
G1 X164.184 Y143.457 E0.02185
G1 X156.543 Y135.816 E0.36517
G1 X155.897 Y135.816 E0.02184
G1 X164.184 Y144.103 E0.39607
G1 X164.184 Y144.75 E0.02184
G1 X155.25 Y135.816 E0.42696
G1 X154.604 Y135.816 E0.02184
G1 X164.184 Y145.396 E0.45784
G1 X164.184 Y146.043 E0.02185
G1 X153.957 Y135.816 E0.48874
G1 X153.311 Y135.816 E0.02184
G1 X164.184 Y146.689 E0.51963
M73 P5 R8
G1 X164.184 Y147.335 E0.02184
G1 X152.665 Y135.816 E0.55052
G1 X152.018 Y135.816 E0.02184
G1 X164.184 Y147.982 E0.58141
G1 X164.184 Y148.628 E0.02185
G1 X151.372 Y135.816 E0.6123
G1 X150.725 Y135.816 E0.02184
G1 X164.184 Y149.275 E0.6432
G1 X164.184 Y149.921 E0.02184
G1 X150.079 Y135.816 E0.67408
G1 X149.433 Y135.816 E0.02185
G1 X164.184 Y150.567 E0.70497
G1 X164.184 Y151.214 E0.02185
G1 X148.786 Y135.816 E0.73586
G1 X148.14 Y135.816 E0.02185
G1 X164.184 Y151.86 E0.76675
G1 X164.184 Y152.507 E0.02185
G1 X147.493 Y135.816 E0.79765
G1 X146.847 Y135.816 E0.02184
G1 X164.184 Y153.153 E0.82854
G1 X164.184 Y153.8 E0.02184
G1 X146.2 Y135.816 E0.85943
G1 X145.554 Y135.816 E0.02185
G1 X164.184 Y154.446 E0.89032
G1 X164.184 Y155.092 E0.02184
G1 X144.908 Y135.816 E0.92122
G1 X144.261 Y135.816 E0.02184
G1 X164.184 Y155.739 E0.9521
G1 X164.184 Y156.385 E0.02185
G1 X143.615 Y135.816 E0.98299
G1 X142.968 Y135.816 E0.02185
G1 X164.184 Y157.032 E1.01388
G1 X164.184 Y157.678 E0.02185
G1 X142.322 Y135.816 E1.04477
M73 P6 R8
G1 X141.676 Y135.816 E0.02185
G1 X164.184 Y158.324 E1.07567
G1 X164.184 Y158.971 E0.02184
G1 X141.029 Y135.816 E1.10656
G1 X140.383 Y135.816 E0.02184
G1 X164.184 Y159.617 E1.13745
G1 X164.184 Y160.264 E0.02185
G1 X139.736 Y135.816 E1.16834
G1 X139.09 Y135.816 E0.02184
G1 X164.184 Y160.91 E1.19924
M73 P6 R7
G1 X164.184 Y161.556 E0.02184
G1 X138.444 Y135.816 E1.23013
G1 X137.797 Y135.816 E0.02184
G1 X164.184 Y162.203 E1.26101
G1 X164.184 Y162.849 E0.02185
G1 X137.151 Y135.816 E1.2919
G1 X136.504 Y135.816 E0.02185
G1 X164.184 Y163.496 E1.3228
G1 X164.184 Y164.142 E0.02184
G1 X135.858 Y135.816 E1.35369
G1 X135.816 Y135.816 E0.00143
G1 X135.816 Y136.42 E0.02041
G1 X163.58 Y164.184 E1.32684
G1 X162.934 Y164.184 E0.02185
G1 X135.816 Y137.066 E1.29595
M73 P7 R7
G1 X135.816 Y137.713 E0.02184
G1 X162.287 Y164.184 E1.26506
G1 X161.641 Y164.184 E0.02185
G1 X135.816 Y138.359 E1.23416
G1 X135.816 Y139.005 E0.02185
G1 X160.995 Y164.184 E1.20328
G1 X160.348 Y164.184 E0.02184
G1 X135.816 Y139.652 E1.17239
G1 X135.816 Y140.298 E0.02184
G1 X159.702 Y164.184 E1.1415
G1 X159.055 Y164.184 E0.02184
G1 X135.816 Y140.945 E1.1106
G1 X135.816 Y141.591 E0.02185
G1 X158.409 Y164.184 E1.07971
G1 X157.763 Y164.184 E0.02184
G1 X135.816 Y142.237 E1.04883
G1 X135.816 Y142.884 E0.02184
G1 X157.116 Y164.184 E1.01793
G1 X156.47 Y164.184 E0.02184
G1 X135.816 Y143.53 E0.98704
G1 X135.816 Y144.177 E0.02185
G1 X155.823 Y164.184 E0.95615
G1 X155.177 Y164.184 E0.02184
G1 X135.816 Y144.823 E0.92526
G1 X135.816 Y145.469 E0.02184
G1 X154.531 Y164.184 E0.89437
M73 P8 R7
G1 X153.884 Y164.184 E0.02184
G1 X135.816 Y146.116 E0.86348
G1 X135.816 Y146.762 E0.02184
G1 X153.238 Y164.184 E0.83258
G1 X152.591 Y164.184 E0.02185
G1 X135.816 Y147.409 E0.80169
G1 X135.816 Y148.055 E0.02184
G1 X151.945 Y164.184 E0.7708
G1 X151.299 Y164.184 E0.02185
G1 X135.816 Y148.701 E0.73991
G1 X135.816 Y149.348 E0.02184
G1 X150.652 Y164.184 E0.70902
G1 X150.006 Y164.184 E0.02185
G1 X135.816 Y149.994 E0.67812
G1 X135.816 Y150.641 E0.02185
G1 X149.359 Y164.184 E0.64723
G1 X148.713 Y164.184 E0.02185
G1 X135.816 Y151.287 E0.61634
G1 X135.816 Y151.934 E0.02185
G1 X148.066 Y164.184 E0.58545
G1 X147.42 Y164.184 E0.02185
G1 X135.816 Y152.58 E0.55456
G1 X135.816 Y153.226 E0.02184
G1 X146.774 Y164.184 E0.52368
G1 X146.127 Y164.184 E0.02184
G1 X135.816 Y153.873 E0.49278
G1 X135.816 Y154.519 E0.02184
G1 X145.481 Y164.184 E0.4619
G1 X144.834 Y164.184 E0.02184
G1 X135.816 Y155.166 E0.431
G1 X135.816 Y155.812 E0.02184
G1 X144.188 Y164.184 E0.40011
G1 X143.542 Y164.184 E0.02184
G1 X135.816 Y156.458 E0.36922
G1 X135.816 Y157.105 E0.02184
G1 X142.895 Y164.184 E0.33833
G1 X142.249 Y164.184 E0.02184
G1 X135.816 Y157.751 E0.30744
G1 X135.816 Y158.398 E0.02184
G1 X141.602 Y164.184 E0.27655
G1 X140.956 Y164.184 E0.02184
G1 X135.816 Y159.044 E0.24565
G1 X135.816 Y159.69 E0.02185
G1 X140.31 Y164.184 E0.21476
G1 X139.663 Y164.184 E0.02184
G1 X135.816 Y160.337 E0.18387
M73 P9 R7
G1 X135.816 Y160.983 E0.02184
G1 X139.017 Y164.184 E0.15298
G1 X138.37 Y164.184 E0.02185
G1 X135.816 Y161.63 E0.12208
G1 X135.816 Y162.276 E0.02185
G1 X137.724 Y164.184 E0.0912
G1 X137.078 Y164.184 E0.02184
G1 X135.816 Y162.922 E0.0603
G1 X135.816 Y163.569 E0.02185
G1 X136.628 Y164.381 E0.0388
M106 S43.35
;LAYER_CHANGE
;Z:0.4
;HEIGHT:0.2
G1 E-1 F7200
M204 S40000
G1 Z0.4 F3000
; custom gcode: layer_gcode
;AFTER_LAYER_CHANGE
;0.4
G92 E0
_ON_LAYER_CHANGE LAYER=2
M104 S250 T0                                                                                                                                                                                                                                             
; custom gcode end: layer_gcode

; Removed by RatOS post processor: M104 S250 ; set temperature
M140 S80 ; set bed temperature
G1 Z0.6
G1 X163.961 Y163.961 F30000
G1 Z0.4 F3000
G1 E1 F7200
; custom gcode: feature_gcode
;BETWEEN_EXTRUSION_ROLE
G92 E0
; custom gcode end: feature_gcode

;TYPE:Internal perimeter
;WIDTH:0.45
G1 F24000
G1 X136.039 Y163.961 E0.8506
M106 S89.25
G1 X136.039 Y136.039 E0.85061
G1 X163.961 Y136.039 E0.8506
G1 X163.961 Y163.901 E0.84878
G1 X164.368 Y164.368 F30000
G1 F24000
G1 X135.632 Y164.368 E0.87541
G1 X135.632 Y135.632 E0.8754
G1 X164.368 Y135.632 E0.87541
G1 X164.368 Y164.308 E0.87358
M204 S10000
G1 X164.775 Y164.775 F30000
; custom gcode: feature_gcode
;BETWEEN_EXTRUSION_ROLE
G92 E0
; custom gcode end: feature_gcode

;TYPE:Overhang perimeter
G1 F15000
G1 X135.225 Y164.775 E0.90021
G1 X135.225 Y135.225 E0.90021
G1 X164.775 Y135.225 E0.90021
G1 X164.775 Y164.715 E0.89838
M106 S43.35
G1 E-1 F7200
M204 S40000
G1 Z0.6 F3000
G1 X162.987 Y163.81 F30000
G1 Z0.4 F3000
G1 E1 F7200
; custom gcode: feature_gcode
;BETWEEN_EXTRUSION_ROLE
G92 E0
; custom gcode end: feature_gcode

;TYPE:Solid infill
;WIDTH:0.444961
G1 F24000
G1 X163.635 Y163.162 E0.0276
G1 X163.635 Y162.587 E0.01734
G1 X162.587 Y163.635 E0.04467
G1 X162.011 Y163.635 E0.01734
G1 X163.635 Y162.011 E0.06919
G1 X163.635 Y161.435 E0.01734
G1 X161.435 Y163.635 E0.09372
G1 X160.86 Y163.635 E0.01734
G1 X163.635 Y160.86 E0.11824
G1 X163.635 Y160.284 E0.01734
G1 X160.284 Y163.635 E0.14277
G1 X159.708 Y163.635 E0.01734
G1 X163.635 Y159.708 E0.16729
G1 X163.635 Y159.133 E0.01734
G1 X159.133 Y163.635 E0.19182
G1 X158.557 Y163.635 E0.01734
G1 X163.635 Y158.557 E0.21634
G1 X163.635 Y157.981 E0.01734
G1 X157.981 Y163.635 E0.24086
G1 X157.405 Y163.635 E0.01735
G1 X163.635 Y157.405 E0.26539
G1 X163.635 Y156.83 E0.01734
G1 X156.83 Y163.635 E0.28991
G1 X156.254 Y163.635 E0.01734
G1 X163.635 Y156.254 E0.31444
G1 X163.635 Y155.678 E0.01734
G1 X155.678 Y163.635 E0.33897
G1 X155.103 Y163.635 E0.01734
G1 X163.635 Y155.103 E0.36349
G1 X163.635 Y154.527 E0.01734
G1 X154.527 Y163.635 E0.38801
G1 X153.951 Y163.635 E0.01734
G1 X163.635 Y153.951 E0.41254
G1 X163.635 Y153.376 E0.01734
G1 X153.376 Y163.635 E0.43706
G1 X152.8 Y163.635 E0.01734
G1 X163.635 Y152.8 E0.46159
G1 X163.635 Y152.224 E0.01734
G1 X152.224 Y163.635 E0.48611
G1 X151.648 Y163.635 E0.01735
G1 X163.635 Y151.648 E0.51063
G1 X163.635 Y151.073 E0.01734
G1 X151.073 Y163.635 E0.53517
G1 X150.497 Y163.635 E0.01734
G1 X163.635 Y150.497 E0.55968
G1 X163.635 Y149.921 E0.01734
G1 X149.921 Y163.635 E0.58421
G1 X149.346 Y163.635 E0.01735
G1 X163.635 Y149.346 E0.60873
G1 X163.635 Y148.77 E0.01734
G1 X148.77 Y163.635 E0.63326
G1 X148.194 Y163.635 E0.01734
G1 X163.635 Y148.194 E0.65779
G1 X163.635 Y147.619 E0.01734
G1 X147.619 Y163.635 E0.68231
G1 X147.043 Y163.635 E0.01734
G1 X163.635 Y147.043 E0.70684
G1 X163.635 Y146.467 E0.01734
G1 X146.467 Y163.635 E0.73136
G1 X145.891 Y163.635 E0.01734
G1 X163.635 Y145.891 E0.75588
G1 X163.635 Y145.316 E0.01734
G1 X145.316 Y163.635 E0.78041
G1 X144.74 Y163.635 E0.01734
G1 X163.635 Y144.74 E0.80494
G1 X163.635 Y144.164 E0.01734
G1 X144.164 Y163.635 E0.82945
G1 X143.589 Y163.635 E0.01735
G1 X163.635 Y143.589 E0.85398
G1 X163.635 Y143.013 E0.01734
G1 X143.013 Y163.635 E0.87851
G1 X142.437 Y163.635 E0.01734
G1 X163.635 Y142.437 E0.90303
G1 X163.635 Y141.862 E0.01734
G1 X141.862 Y163.635 E0.92756
G1 X141.286 Y163.635 E0.01734
G1 X163.635 Y141.286 E0.95208
G1 X163.635 Y140.71 E0.01734
G1 X140.71 Y163.635 E0.97661
G1 X140.135 Y163.635 E0.01734
G1 X163.635 Y140.135 E1.00113
G1 X163.635 Y139.559 E0.01734
G1 X139.559 Y163.635 E1.02566
G1 X138.983 Y163.635 E0.01734
G1 X163.635 Y138.983 E1.05018
G1 X163.635 Y138.407 E0.01734
G1 X138.407 Y163.635 E1.07471
G1 X137.832 Y163.635 E0.01734
G1 X163.635 Y137.832 E1.09923
G1 X163.635 Y137.256 E0.01734
G1 X137.256 Y163.635 E1.12375
G1 X136.68 Y163.635 E0.01734
G1 X163.635 Y136.68 E1.14828
G1 X163.635 Y136.365 E0.00951
G1 X163.375 Y136.365 E0.00783
G1 X136.365 Y163.375 E1.15064
G1 X136.365 Y162.799 E0.01734
G1 X162.799 Y136.365 E1.12612
M73 P10 R7
G1 X162.224 Y136.365 E0.01734
G1 X136.365 Y162.224 E1.10159
G1 X136.365 Y161.648 E0.01734
G1 X161.648 Y136.365 E1.07707
G1 X161.072 Y136.365 E0.01734
G1 X136.365 Y161.072 E1.05254
G1 X136.365 Y160.497 E0.01734
G1 X160.497 Y136.365 E1.02801
G1 X159.921 Y136.365 E0.01734
G1 X136.365 Y159.921 E1.00349
G1 X136.365 Y159.345 E0.01735
G1 X159.345 Y136.365 E0.97896
G1 X158.769 Y136.365 E0.01734
G1 X136.365 Y158.769 E0.95444
G1 X136.365 Y158.194 E0.01735
G1 X158.194 Y136.365 E0.92991
G1 X157.618 Y136.365 E0.01734
G1 X136.365 Y157.618 E0.90539
G1 X136.365 Y157.042 E0.01735
G1 X157.042 Y136.365 E0.88086
G1 X156.467 Y136.365 E0.01734
G1 X136.365 Y156.467 E0.85635
G1 X136.365 Y155.891 E0.01734
G1 X155.891 Y136.365 E0.83181
G1 X155.315 Y136.365 E0.01735
G1 X136.365 Y155.315 E0.80729
G1 X136.365 Y154.74 E0.01734
G1 X154.74 Y136.365 E0.78277
G1 X154.164 Y136.365 E0.01734
G1 X136.365 Y154.164 E0.75824
G1 X136.365 Y153.588 E0.01734
G1 X153.588 Y136.365 E0.73372
G1 X153.013 Y136.365 E0.01734
G1 X136.365 Y153.013 E0.7092
G1 X136.365 Y152.437 E0.01734
G1 X152.437 Y136.365 E0.68467
G1 X151.861 Y136.365 E0.01734
G1 X136.365 Y151.861 E0.66014
G1 X136.365 Y151.285 E0.01735
G1 X151.285 Y136.365 E0.63561
G1 X150.71 Y136.365 E0.01735
G1 X136.365 Y150.71 E0.61109
G1 X136.365 Y150.134 E0.01734
G1 X150.134 Y136.365 E0.58657
G1 X149.558 Y136.365 E0.01734
G1 X136.365 Y149.558 E0.56205
G1 X136.365 Y148.983 E0.01734
G1 X148.983 Y136.365 E0.53752
G1 X148.407 Y136.365 E0.01734
G1 X136.365 Y148.407 E0.513
G1 X136.365 Y147.831 E0.01734
G1 X147.831 Y136.365 E0.48847
G1 X147.256 Y136.365 E0.01734
G1 X136.365 Y147.256 E0.46395
G1 X136.365 Y146.68 E0.01734
G1 X146.68 Y136.365 E0.43942
G1 X146.104 Y136.365 E0.01734
G1 X136.365 Y146.104 E0.4149
G1 X136.365 Y145.528 E0.01734
G1 X145.528 Y136.365 E0.39038
G1 X144.953 Y136.365 E0.01734
G1 X136.365 Y144.953 E0.36585
G1 X136.365 Y144.377 E0.01734
G1 X144.377 Y136.365 E0.34132
G1 X143.801 Y136.365 E0.01734
G1 X136.365 Y143.801 E0.3168
G1 X136.365 Y143.226 E0.01734
G1 X143.226 Y136.365 E0.29227
G1 X142.65 Y136.365 E0.01735
G1 X136.365 Y142.65 E0.26774
G1 X136.365 Y142.074 E0.01735
G1 X142.074 Y136.365 E0.24322
G1 X141.499 Y136.365 E0.01734
G1 X136.365 Y141.499 E0.2187
G1 X136.365 Y140.923 E0.01734
G1 X140.923 Y136.365 E0.19418
G1 X140.347 Y136.365 E0.01734
G1 X136.365 Y140.347 E0.16965
G1 X136.365 Y139.771 E0.01734
G1 X139.771 Y136.365 E0.14513
G1 X139.196 Y136.365 E0.01734
G1 X136.365 Y139.196 E0.1206
G1 X136.365 Y138.62 E0.01734
G1 X138.62 Y136.365 E0.09608
G1 X138.044 Y136.365 E0.01734
G1 X136.365 Y138.044 E0.07155
G1 X136.365 Y137.469 E0.01734
G1 X137.469 Y136.365 E0.04703
G1 X136.893 Y136.365 E0.01734
G1 X136.19 Y137.068 E0.02996
M106 S89.25
;LAYER_CHANGE
;Z:0.6
;HEIGHT:0.2
G1 E-1 F7200
G1 Z0.6 F3000
; custom gcode: layer_gcode
;AFTER_LAYER_CHANGE
;0.6
G92 E0
_ON_LAYER_CHANGE LAYER=3
; custom gcode end: layer_gcode

G1 Z0.8
G1 X163.961 Y163.961 F30000
G1 Z0.6 F3000
G1 E1 F7200
; custom gcode: feature_gcode
;BETWEEN_EXTRUSION_ROLE
G92 E0
; custom gcode end: feature_gcode

;TYPE:Internal perimeter
;WIDTH:0.45
G1 F24000
G1 X136.039 Y163.961 E0.8506
G1 X136.039 Y136.039 E0.85061
G1 X163.961 Y136.039 E0.8506
G1 X163.961 Y163.901 E0.84878
G1 X164.368 Y164.368 F30000
G1 F24000
G1 X135.632 Y164.368 E0.87541
G1 X135.632 Y135.632 E0.8754
G1 X164.368 Y135.632 E0.87541
G1 X164.368 Y164.308 E0.87358
; acceleration to travel
G1 X164.694 Y164.682 F30000
; decel to extrusion
M204 S10000
G1 X164.775 Y164.775
; end travel
; custom gcode: feature_gcode
;BETWEEN_EXTRUSION_ROLE
G92 E0
; custom gcode end: feature_gcode

;TYPE:External perimeter
G1 F24000
G1 X135.225 Y164.775 E0.90021
G1 X135.225 Y135.225 E0.90021
G1 X164.775 Y135.225 E0.90021
G1 X164.775 Y164.715 E0.89838
G1 E-1 F7200
M204 S40000
G1 Z0.8 F3000
G1 X163.81 Y137.013 F30000
G1 Z0.6 F3000
G1 E1 F7200
; custom gcode: feature_gcode
;BETWEEN_EXTRUSION_ROLE
G92 E0
; custom gcode end: feature_gcode

;TYPE:Solid infill
;WIDTH:0.444961
G1 F24000
G1 X163.162 Y136.365 E0.0276
G1 X162.587 Y136.365 E0.01734
G1 X163.635 Y137.413 E0.04467
G1 X163.635 Y137.989 E0.01734
G1 X162.011 Y136.365 E0.06919
G1 X161.435 Y136.365 E0.01734
G1 X163.635 Y138.565 E0.09372
G1 X163.635 Y139.14 E0.01734
G1 X160.86 Y136.365 E0.11824
