; processed by RatOS 2.0.2-586-g981e86a4 on 2024-11-05 at 13:26:07 UTC
; HEADER_BLOCK_START                             
; generated by OrcaSlicer 2.2.0 on 2024-11-05 at 08:20:11
; total layer number: 50
; filament_density: 1.27,1.27
; filament_diameter: 1.75,1.75
; max_z_height: 10.00
; HEADER_BLOCK_END

; THUMBNAIL_BLOCK_START

;
; THUMBNAIL_BLOCK_END

; THUMBNAIL_BLOCK_START

;
; THUMBNAIL_BLOCK_END

; external perimeters extrusion width = 0.40mm
; perimeters extrusion width = 0.40mm
; infill extrusion width = 0.40mm
; solid infill extrusion width = 0.40mm
; top infill extrusion width = 0.40mm
; first layer extrusion width = 0.45mm

; external perimeters extrusion width = 0.40mm
; perimeters extrusion width = 0.40mm
; infill extrusion width = 0.40mm
; solid infill extrusion width = 0.40mm
; top infill extrusion width = 0.40mm
; first layer extrusion width = 0.45mm

; EXECUTABLE_BLOCK_START
M73 P0 R8
;TYPE:Custom
START_PRINT EXTRUDER_TEMP=245,245 EXTRUDER_OTHER_LAYER_TEMP=245,245 BED_TEMP=85 CHAMBER_TEMP=0 INITIAL_TOOL=0 TOTAL_LAYER_COUNT=50 X0=143 Y0=143 X1=157 Y1=157 TOTAL_TOOLSHIFTS=13 FIRST_X=153.961 FIRST_Y=153.961 MIN_X=145.2 MAX_X=154.8 USED_TOOLS=0,1 WIPE_ACCEL=0                                                                                                                                                  
G90
G21
M83 ; use relative distances for extrusion
; Removed by RatOS post processor: T0
;_FORCE_RESUME_FAN_SPEED
; filament start gcode
SET_PRESSURE_ADVANCE ADVANCE=0.045; Override pressure advance value
M106 S0
;LAYER_CHANGE
;Z:0.2
;HEIGHT:0.2
;BEFORE_LAYER_CHANGE
;0.2
G92 E0

G1 E-1 F7200
;AFTER_LAYER_CHANGE
;0.2
G92 E0
_ON_LAYER_CHANGE LAYER=1
;_SET_FAN_SPEED_CHANGING_LAYER
SET_VELOCITY_LIMIT ACCEL=500 ACCEL_TO_DECEL=250
G1 Z.6 F21000
G1 X153.961 Y153.961
G1 Z.2
G1 E1 F7200
;TYPE:Inner wall
;WIDTH:0.449999
G1 F2047
G1 X146.039 Y153.961 E.25205
G1 X146.039 Y146.039 E.25205
G1 X153.961 Y146.039 E.25205
G1 X153.961 Y153.921 E.25078
G1 X154.368 Y154.368 F21000
G1 F2047
G1 X145.632 Y154.368 E.27796
M73 P0 R7
G1 X145.632 Y145.632 E.27796
M73 P0 R7
G1 X154.368 Y145.632 E.27796
G1 X154.368 Y154.328 E.27668
G1 X154.775 Y154.775 F21000
;TYPE:Outer wall
G1 F2047
G1 X145.225 Y154.775 E.30386
G1 X145.225 Y145.225 E.30386
G1 X154.775 Y145.225 E.30386
M73 P1 R7
G1 X154.775 Y154.735 E.30259
M73 P1 R7
G1 E-.7 F7200
;WIPE_START
G1 F3000
G1 X153.775 Y154.739 E-.3
;WIPE_END
G1 Z.6 F21000
G1 X153.839 Y147.011 Z.6
G1 Z.2
G1 E1 F7200
;TYPE:Bottom surface
;WIDTH:0.462731
G1 F2047
G1 X153.172 Y146.344 E.03094
G1 X152.578 Y146.344 E.01948
G1 X153.656 Y147.422 E.04999
G1 X153.656 Y148.015 E.01948
G1 X151.985 Y146.344 E.07754
G1 X151.391 Y146.344 E.01948
G1 X153.656 Y148.609 E.10509
G1 X153.656 Y149.203 E.01948
G1 X150.797 Y146.344 E.13264
G1 X150.203 Y146.344 E.01948
G1 X153.656 Y149.797 E.16019
G1 X153.656 Y150.39 E.01948
G1 X149.61 Y146.344 E.18774
G1 X149.016 Y146.344 E.01948
G1 X153.656 Y150.984 E.21529
G1 X153.656 Y151.578 E.01948
G1 X148.422 Y146.344 E.24284
G1 X147.829 Y146.344 E.01948
G1 X153.656 Y152.171 E.27039
G1 X153.656 Y152.765 E.01948
G1 X147.235 Y146.344 E.29794
G1 X146.641 Y146.344 E.01948
G1 X153.656 Y153.359 E.32549
G1 X153.656 Y153.656 E.00974
G1 X153.359 Y153.656 E.00974
G1 X146.344 Y146.641 E.32549
G1 X146.344 Y147.235 E.01948
G1 X152.765 Y153.656 E.29794
G1 X152.171 Y153.656 E.01948
G1 X146.344 Y147.829 E.27039
G1 X146.344 Y148.422 E.01948
M73 P2 R7
G1 X151.578 Y153.656 E.24284
M73 P2 R7
G1 X150.984 Y153.656 E.01948
G1 X146.344 Y149.016 E.21529
G1 X146.344 Y149.61 E.01948
G1 X150.39 Y153.656 E.18774
G1 X149.796 Y153.656 E.01948
G1 X146.344 Y150.204 E.16019
G1 X146.344 Y150.797 E.01948
G1 X149.203 Y153.656 E.13264
G1 X148.609 Y153.656 E.01948
G1 X146.344 Y151.391 E.10509
G1 X146.344 Y151.985 E.01948
G1 X148.015 Y153.656 E.07753
G1 X147.422 Y153.656 E.01948
G1 X146.344 Y152.578 E.04998
G1 X146.344 Y153.172 E.01948
G1 X147.011 Y153.839 E.03093
;LAYER_CHANGE
;Z:0.4
;HEIGHT:0.2
;BEFORE_LAYER_CHANGE
;0.4
G92 E0

G1 E-.7 F7200
;WIPE_START
G1 F6300
G1 X146.344 Y153.172 E-.28283
G1 X146.344 Y153.115 E-.01717
;WIPE_END
;AFTER_LAYER_CHANGE
;0.4
G92 E0
_ON_LAYER_CHANGE LAYER=2
M104 S245 T0
M104 S245 T1                                                                                                                                                                                                                                
;_SET_FAN_SPEED_CHANGING_LAYER
SET_VELOCITY_LIMIT ACCEL=5000 ACCEL_TO_DECEL=2500
M140 S80 ; set bed temperature
G1 Z.8 F21000
G1 X154.086 Y154.086 Z.8
G1 Z.4
G1 E1 F7200
;TYPE:Inner wall
;WIDTH:0.399999
G1 F2166
G1 X145.914 Y154.086 E.22807
G1 X145.914 Y145.914 E.22807
G1 X154.086 Y145.914 E.22807
G1 X154.086 Y154.046 E.22695
G1 X154.443 Y154.443 F21000
G1 F2166
G1 X145.557 Y154.443 E.248
G1 X145.557 Y145.557 E.248
G1 X154.443 Y145.557 E.248
G1 X154.443 Y154.403 E.24689
G1 X154.8 Y154.8 F21000
SET_VELOCITY_LIMIT ACCEL=3000 ACCEL_TO_DECEL=1500
;TYPE:Outer wall
G1 F2166
G1 X145.2 Y154.8 E.26793
G1 X145.2 Y145.2 E.26793
G1 X154.8 Y145.2 E.26793
M73 P3 R7
G1 X154.8 Y154.76 E.26682
M73 P3 R7
SET_VELOCITY_LIMIT ACCEL=5000 ACCEL_TO_DECEL=2500
G1 E-.7 F7200
;WIPE_START
G1 X153.8 Y154.764 E-.3
;WIPE_END
G1 Z.8 F21000
G1 X153.25 Y153.979 Z.8
G1 Z.4
G1 E1 F7200
;TYPE:Internal solid infill
;WIDTH:0.403057
G1 F2166
G1 X153.818 Y153.411 E.0226
G1 X153.818 Y152.902 E.01434
G1 X152.902 Y153.818 E.03648
G1 X152.392 Y153.818 E.01434
G1 X153.818 Y152.392 E.05675
G1 X153.818 Y151.883 E.01434
G1 X151.883 Y153.818 E.07702
G1 X151.374 Y153.818 E.01434
G1 X153.818 Y151.374 E.0973
G1 X153.818 Y150.865 E.01434
G1 X150.865 Y153.818 E.11757
G1 X150.355 Y153.818 E.01434
G1 X153.818 Y150.355 E.13785
G1 X153.818 Y149.846 E.01434
G1 X149.846 Y153.818 E.15812
G1 X149.337 Y153.818 E.01434
G1 X153.818 Y149.337 E.1784
G1 X153.818 Y148.827 E.01434
G1 X148.827 Y153.818 E.19867
G1 X148.318 Y153.818 E.01434
G1 X153.818 Y148.318 E.21895
G1 X153.818 Y147.809 E.01434
G1 X147.809 Y153.818 E.23922
G1 X147.299 Y153.818 E.01434
G1 X153.818 Y147.299 E.2595
G1 X153.818 Y146.79 E.01434
G1 X146.79 Y153.818 E.27977
G1 X146.281 Y153.818 E.01434
G1 X153.818 Y146.281 E.30005
G1 X153.818 Y146.182 E.00278
G1 X153.407 Y146.182 E.01156
G1 X146.182 Y153.407 E.28764
G1 X146.182 Y152.898 E.01434
G1 X152.898 Y146.182 E.26736
G1 X152.389 Y146.182 E.01434
G1 X146.182 Y152.389 E.24709
G1 X146.182 Y151.88 E.01434
G1 X151.88 Y146.182 E.22681
G1 X151.37 Y146.182 E.01434
G1 X146.182 Y151.37 E.20654
G1 X146.182 Y150.861 E.01434
G1 X150.861 Y146.182 E.18626
M73 P4 R7
G1 X150.352 Y146.182 E.01434
M73 P4 R7
G1 X146.182 Y150.352 E.16599
G1 X146.182 Y149.842 E.01434
G1 X149.842 Y146.182 E.14571
G1 X149.333 Y146.182 E.01434
G1 X146.182 Y149.333 E.12544
G1 X146.182 Y148.824 E.01434
G1 X148.824 Y146.182 E.10516
G1 X148.314 Y146.182 E.01434
G1 X146.182 Y148.314 E.08489
G1 X146.182 Y147.805 E.01434
G1 X147.805 Y146.182 E.06461
G1 X147.296 Y146.182 E.01434
G1 X146.182 Y147.296 E.04434
G1 X146.182 Y146.786 E.01434
G1 X146.947 Y146.021 E.03046
G1 X146.284 Y146.225 F21000
;WIDTH:0.38292
G1 F2166
G1 X146.22 Y146.262 E.00196
G1 X146.285 Y146.297 E.00196
;LAYER_CHANGE
;Z:0.6
;HEIGHT:0.2
;BEFORE_LAYER_CHANGE
;0.6
G92 E0

G1 E-.89075 F7200
;WIPE_START
G1 F9705.882
G1 X146.22 Y146.262 E-.05464
G1 X146.284 Y146.225 E-.05461
;WIPE_END
;AFTER_LAYER_CHANGE
;0.6
G92 E0
_ON_LAYER_CHANGE LAYER=3
;_SET_FAN_SPEED_CHANGING_LAYER
G1 Z1 F21000
G1 X154.086 Y154.086 Z1
G1 Z.6
G1 E1 F7200
;TYPE:Inner wall
;WIDTH:0.399999
G1 F2171
G1 X145.914 Y154.086 E.22807
G1 X145.914 Y145.914 E.22807
G1 X154.086 Y145.914 E.22807
G1 X154.086 Y154.046 E.22695
G1 X154.443 Y154.443 F21000
G1 F2171
G1 X145.557 Y154.443 E.248
G1 X145.557 Y145.557 E.248
G1 X154.443 Y145.557 E.248
G1 X154.443 Y154.403 E.24689
G1 X154.8 Y154.8 F21000
SET_VELOCITY_LIMIT ACCEL=3000 ACCEL_TO_DECEL=1500
;TYPE:Outer wall
G1 F2171
G1 X145.2 Y154.8 E.26793
G1 X145.2 Y145.2 E.26793
G1 X154.8 Y145.2 E.26793
G1 X154.8 Y154.76 E.26682
SET_VELOCITY_LIMIT ACCEL=5000 ACCEL_TO_DECEL=2500
G1 E-.7 F7200
;WIPE_START
G1 X153.8 Y154.764 E-.3
;WIPE_END
G1 Z1 F21000
G1 X153.979 Y146.75 Z1
G1 Z.6
G1 E1 F7200
;TYPE:Internal solid infill
;WIDTH:0.403057
G1 F2171
G1 X153.411 Y146.182 E.0226
G1 X152.902 Y146.182 E.01434
M73 P5 R7
G1 X153.818 Y147.098 E.03648
M73 P5 R7
G1 X153.818 Y147.608 E.01434
G1 X152.392 Y146.182 E.05675
G1 X151.883 Y146.182 E.01434
G1 X153.818 Y148.117 E.07702
G1 X153.818 Y148.626 E.01434
G1 X151.374 Y146.182 E.0973
G1 X150.865 Y146.182 E.01434
G1 X153.818 Y149.135 E.11757
G1 X153.818 Y149.645 E.01434
G1 X150.355 Y146.182 E.13785
G1 X149.846 Y146.182 E.01434
G1 X153.818 Y150.154 E.15812
G1 X153.818 Y150.663 E.01434
G1 X149.337 Y146.182 E.1784
G1 X148.827 Y146.182 E.01434
G1 X153.818 Y151.173 E.19867
G1 X153.818 Y151.682 E.01434
G1 X148.318 Y146.182 E.21895
G1 X147.809 Y146.182 E.01434
G1 X153.818 Y152.191 E.23922
G1 X153.818 Y152.701 E.01434
G1 X147.299 Y146.182 E.2595
G1 X146.79 Y146.182 E.01434
G1 X153.818 Y153.21 E.27977
G1 X153.818 Y153.719 E.01434
G1 X146.281 Y146.182 E.30005
G1 X146.182 Y146.182 E.00278
G1 X146.182 Y146.593 E.01156
G1 X153.407 Y153.818 E.28764
G1 X152.898 Y153.818 E.01434
G1 X146.182 Y147.102 E.26736
G1 X146.182 Y147.611 E.01434
G1 X152.389 Y153.818 E.24709
G1 X151.88 Y153.818 E.01434
G1 X146.182 Y148.12 E.22681
G1 X146.182 Y148.63 E.01434
G1 X151.37 Y153.818 E.20654
G1 X150.861 Y153.818 E.01434
G1 X146.182 Y149.139 E.18626
G1 X146.182 Y149.648 E.01434
G1 X150.352 Y153.818 E.16599
G1 X149.842 Y153.818 E.01434
G1 X146.182 Y150.158 E.14571
G1 X146.182 Y150.667 E.01434
G1 X149.333 Y153.818 E.12544
G1 X148.824 Y153.818 E.01434
G1 X146.182 Y151.176 E.10516
G1 X146.182 Y151.686 E.01434
G1 X148.314 Y153.818 E.08489
M73 P6 R7
G1 X147.805 Y153.818 E.01434
M73 P6 R7
G1 X146.182 Y152.195 E.06461
G1 X146.182 Y152.704 E.01434
G1 X147.296 Y153.818 E.04434
G1 X146.786 Y153.818 E.01434
G1 X146.021 Y153.053 E.03046
G1 X146.284 Y153.701 F21000
;WIDTH:0.38292
G1 F2171
G1 X146.22 Y153.738 E.00196
G1 X146.285 Y153.772 E.00196
M106 S99
;LAYER_CHANGE
;Z:0.8
;HEIGHT:0.2
;BEFORE_LAYER_CHANGE
;0.8
G92 E0

G1 E-.89076 F7200
;WIPE_START
G1 F9705.882
G1 X146.22 Y153.738 E-.05464
G1 X146.284 Y153.701 E-.05461
;WIPE_END
;AFTER_LAYER_CHANGE
;0.8
G92 E0
_ON_LAYER_CHANGE LAYER=4
;_SET_FAN_SPEED_CHANGING_LAYER
G1 Z1.2 F21000
G1 X154.086 Y154.086 Z1.2
G1 Z.8
G1 E1 F7200
;TYPE:Inner wall
;WIDTH:0.399999
G1 F1134
G1 X145.914 Y154.086 E.22807
G1 X145.914 Y145.914 E.22807
G1 X154.086 Y145.914 E.22807
G1 X154.086 Y154.046 E.22695
G1 X154.443 Y154.443 F21000
G1 F1134
G1 X145.557 Y154.443 E.248
G1 X145.557 Y145.557 E.248
G1 X154.443 Y145.557 E.248
G1 X154.443 Y154.403 E.24689
G1 X154.8 Y154.8 F21000
SET_VELOCITY_LIMIT ACCEL=3000 ACCEL_TO_DECEL=1500
;TYPE:Outer wall
G1 F1134
G1 X145.2 Y154.8 E.26793
G1 X145.2 Y145.2 E.26793
M73 P7 R7
G1 X154.8 Y145.2 E.26793
M73 P7 R7
G1 X154.8 Y154.76 E.26682
SET_VELOCITY_LIMIT ACCEL=5000 ACCEL_TO_DECEL=2500
G1 E-.7 F7200
;WIPE_START
G1 X153.8 Y154.764 E-.3
;WIPE_END
G1 Z1.2 F21000
G1 X147.975 Y153.818 Z1.2
G1 Z.8
G1 E1 F7200
;TYPE:Sparse infill
;WIDTH:0.4
G1 F1134
G1 X146.546 Y153.818 E.03986
G1 X146.182 Y153.454 E.01438
G1 X146.182 Y149.818 E.10148
G1 X150.182 Y153.818 E.15789
G1 X153.818 Y153.818 E.10148
G1 X146.182 Y146.182 E.3014
G1 X149.818 Y146.182 E.10148
G1 X153.818 Y150.182 E.15789
G1 X153.818 Y146.546 E.10148
G1 X153.454 Y146.182 E.01438
G1 X152.025 Y146.182 E.03986
;LAYER_CHANGE
;Z:1
;HEIGHT:0.2
;BEFORE_LAYER_CHANGE
;1
G92 E0

G1 E-.7 F7200
;WIPE_START
G1 F9241.635
G1 X153.025 Y146.182 E-.3
;WIPE_END
;AFTER_LAYER_CHANGE
;1
G92 E0
_ON_LAYER_CHANGE LAYER=5
;_SET_FAN_SPEED_CHANGING_LAYER
G1 Z1.4 F21000
G1 X154.086 Y154.086 Z1.4
G1 Z1
G1 E1 F7200
;TYPE:Inner wall
;WIDTH:0.399999
G1 F1135
G1 X145.914 Y154.086 E.22807
G1 X145.914 Y145.914 E.22807
M73 P8 R7
G1 X154.086 Y145.914 E.22807
M73 P8 R7
G1 X154.086 Y154.046 E.22695
G1 X154.443 Y154.443 F21000
G1 F1135
G1 X145.557 Y154.443 E.248
G1 X145.557 Y145.557 E.248
G1 X154.443 Y145.557 E.248
G1 X154.443 Y154.403 E.24689
G1 X154.8 Y154.8 F21000
SET_VELOCITY_LIMIT ACCEL=3000 ACCEL_TO_DECEL=1500
;TYPE:Outer wall
G1 F1135
G1 X145.2 Y154.8 E.26793
G1 X145.2 Y145.2 E.26793
G1 X154.8 Y145.2 E.26793
G1 X154.8 Y154.76 E.26682
SET_VELOCITY_LIMIT ACCEL=5000 ACCEL_TO_DECEL=2500
M73 P9 R7
G1 E-.7 F7200
M73 P9 R7
;WIPE_START
G1 X153.8 Y154.764 E-.3
;WIPE_END
G1 Z1.4 F21000
G1 X147.975 Y153.818 Z1.4
G1 Z1
G1 E1 F7200
;TYPE:Sparse infill
;WIDTH:0.4
G1 F1135
G1 X146.546 Y153.818 E.03986
G1 X146.182 Y153.454 E.01438
G1 X146.182 Y149.818 E.10148
G1 X150.182 Y153.818 E.15789
G1 X153.818 Y153.818 E.10148
G1 X146.182 Y146.182 E.3014
G1 X149.818 Y146.182 E.10148
G1 X153.818 Y150.182 E.15789
G1 X153.818 Y146.546 E.10148
G1 X153.454 Y146.182 E.01438
G1 X152.025 Y146.182 E.03986
;LAYER_CHANGE
;Z:1.2
;HEIGHT:0.2
;BEFORE_LAYER_CHANGE
;1.2
G92 E0

G1 E-.7 F7200
;WIPE_START
G1 F9241.635
G1 X153.025 Y146.182 E-.3
;WIPE_END
;AFTER_LAYER_CHANGE
;1.2
G92 E0
_ON_LAYER_CHANGE LAYER=6
;_SET_FAN_SPEED_CHANGING_LAYER
G1 Z1.6 F21000
G1 X154.086 Y154.086 Z1.6
G1 Z1.2
G1 E1 F7200
;TYPE:Inner wall
;WIDTH:0.399999
G1 F1135
G1 X145.914 Y154.086 E.22807
G1 X145.914 Y145.914 E.22807
G1 X154.086 Y145.914 E.22807
G1 X154.086 Y154.046 E.22695
M73 P10 R7
G1 X154.443 Y154.443 F21000
M73 P10 R7
G1 F1135
G1 X145.557 Y154.443 E.248
G1 X145.557 Y145.557 E.248
G1 X154.443 Y145.557 E.248
G1 X154.443 Y154.403 E.24689
G1 X154.8 Y154.8 F21000
SET_VELOCITY_LIMIT ACCEL=3000 ACCEL_TO_DECEL=1500
;TYPE:Outer wall
G1 F1135
G1 X145.2 Y154.8 E.26793
G1 X145.2 Y145.2 E.26793
G1 X154.8 Y145.2 E.26793
G1 X154.8 Y154.76 E.26682
SET_VELOCITY_LIMIT ACCEL=5000 ACCEL_TO_DECEL=2500
G1 E-.7 F7200
;WIPE_START
G1 X153.8 Y154.764 E-.3
;WIPE_END
G1 Z1.6 F21000
G1 X147.975 Y153.818 Z1.6
G1 Z1.2
G1 E1 F7200
;TYPE:Sparse infill
;WIDTH:0.4
G1 F1135
G1 X146.546 Y153.818 E.03986
G1 X146.182 Y153.454 E.01438
G1 X146.182 Y149.818 E.10148
G1 X150.182 Y153.818 E.15789
M73 P11 R7
G1 X153.818 Y153.818 E.10148
M73 P11 R7
G1 X146.182 Y146.182 E.3014
G1 X149.818 Y146.182 E.10148
G1 X153.818 Y150.182 E.15789
G1 X153.818 Y146.546 E.10148
G1 X153.454 Y146.182 E.01438
G1 X152.025 Y146.182 E.03986
;LAYER_CHANGE
;Z:1.4
;HEIGHT:0.2
;BEFORE_LAYER_CHANGE
;1.4
G92 E0

G1 E-.7 F7200
;WIPE_START
G1 F9241.635
G1 X153.025 Y146.182 E-.3
;WIPE_END
;AFTER_LAYER_CHANGE
;1.4
G92 E0
_ON_LAYER_CHANGE LAYER=7
;_SET_FAN_SPEED_CHANGING_LAYER
G1 Z1.8 F21000
G1 X154.086 Y154.086 Z1.8
G1 Z1.4
G1 E1 F7200
;TYPE:Inner wall
;WIDTH:0.399999
G1 F1135
G1 X145.914 Y154.086 E.22807
G1 X145.914 Y145.914 E.22807
G1 X154.086 Y145.914 E.22807
G1 X154.086 Y154.046 E.22695
G1 X154.443 Y154.443 F21000
G1 F1135
G1 X145.557 Y154.443 E.248
G1 X145.557 Y145.557 E.248
G1 X154.443 Y145.557 E.248
M73 P12 R7
G1 X154.443 Y154.403 E.24689
M73 P12 R7
G1 X154.8 Y154.8 F21000
SET_VELOCITY_LIMIT ACCEL=3000 ACCEL_TO_DECEL=1500
;TYPE:Outer wall
G1 F1135
M104 S245 T1 ; preheat T1 time: 30s
G1 X145.2 Y154.8 E.26793
G1 X145.2 Y145.2 E.26793
G1 X154.8 Y145.2 E.26793
G1 X154.8 Y154.76 E.26682
SET_VELOCITY_LIMIT ACCEL=5000 ACCEL_TO_DECEL=2500
G1 E-.7 F7200
;WIPE_START
G1 X153.8 Y154.764 E-.3
;WIPE_END
G1 Z1.8 F21000
G1 X147.975 Y153.818 Z1.8
G1 Z1.4
G1 E1 F7200
;TYPE:Sparse infill
;WIDTH:0.4
G1 F1135
G1 X146.546 Y153.818 E.03986
G1 X146.182 Y153.454 E.01438
G1 X146.182 Y149.818 E.10148
G1 X150.182 Y153.818 E.15789
G1 X153.818 Y153.818 E.10148
G1 X146.182 Y146.182 E.3014
G1 X149.818 Y146.182 E.10148
M73 P13 R7
G1 X153.818 Y150.182 E.15789
M73 P13 R7
M73 P13 R6
G1 X153.818 Y146.546 E.10148
M73 P13 R6
G1 X153.454 Y146.182 E.01438
G1 X152.025 Y146.182 E.03986
;LAYER_CHANGE
;Z:1.6
;HEIGHT:0.2
;BEFORE_LAYER_CHANGE
;1.6
G92 E0

G1 E-.7 F7200
;WIPE_START
G1 F9241.635
G1 X153.025 Y146.182 E-.3
;WIPE_END
;AFTER_LAYER_CHANGE
;1.6
G92 E0
_ON_LAYER_CHANGE LAYER=8
;_SET_FAN_SPEED_CHANGING_LAYER
G1 Z2 F21000
G1 X154.086 Y154.086 Z2
G1 Z1.6
G1 E1 F7200
;TYPE:Inner wall
;WIDTH:0.399999
G1 F1135
G1 X145.914 Y154.086 E.22807
G1 X145.914 Y145.914 E.22807
G1 X154.086 Y145.914 E.22807
G1 X154.086 Y154.046 E.22695
