; generated by PrusaSlicer 2.8.0+win64 on 2024-11-07 at 15:11:49 UTC


;
;
; 

; external perimeters extrusion width = 0.45mm
; perimeters extrusion width = 0.45mm
; infill extrusion width = 0.45mm
; solid infill extrusion width = 0.45mm
; top infill extrusion width = 0.40mm
; first layer extrusion width = 0.42mm

M73 P0 R2
M73 Q0 S2
M201 X1000 Y1000 Z200 E5000 ; sets maximum accelerations, mm/sec^2
M203 X200 Y200 Z12 E120 ; sets maximum feedrates, mm / sec
M204 S1250 T1250 ; sets acceleration (S) and retract acceleration (R), mm/sec^2
M205 X8.00 Y8.00 Z0.40 E4.50 ; sets the jerk limits, mm/sec
M205 S0 T0 ; sets the minimum extruding and travel feed rate, mm/sec

; printing object Shape-Box id:0 copy 0
; stop printing object Shape-Box id:0 copy 0

;TYPE:Custom
M862.3 P "MK3S" ; printer model check
M862.1 P0.4 ; nozzle diameter check
M115 U3.14.0 ; tell printer latest fw version
G90 ; use absolute coordinates
M83 ; extruder relative mode
M104 S215 ; set extruder temp
M140 S60 ; set bed temp
M190 S60 ; wait for bed temp
M109 S215 ; wait for extruder temp
G28 W ; home all without mesh bed level
G80 X107.623 Y87.6229 W34.7542 H34.7542 ; mesh bed levelling

G1 Z0.2 F720
G1 Y-3 F1000 ; go outside print area
G92 E0
G1 X60 E9 F1000 ; intro line
G1 X100 E12.5 F1000 ; intro line
M73 P2 R2
M73 Q2 S2

G92 E0
M221 S95

; Don't change E values below. Excessive value can damage the printer.
M907 E430 ; set extruder motor current
G21 ; set units to millimeters
G90 ; use absolute coordinates
M83 ; use relative distances for extrusion

M900 K0.05 ; Filament gcode LA 1.5
M900 K30 ; Filament gcode LA 1.0




M107
;LAYER_CHANGE
;Z:0.2
;HEIGHT:0.2
G1 E-.8 F2100
M73 P4 R2
M73 Q4 S2
G1 Z.6 F720
G1 X108.202 Y88.752 F10800
G1 Z.2 F720
M73 P5 R2
M73 Q5 S2
G1 E.8 F2100
M204 S800
;TYPE:Skirt/Brim
;WIDTH:0.42
G1 F1200
G1 X109.235 Y87.949 E.04102
G1 X110 Y87.811 E.02437
G1 X140 Y87.811 E.94063
G1 X141.248 Y88.202 E.04101
M73 P6 R2
M73 Q6 S2
G1 X142.051 Y89.235 E.04102
G1 X142.189 Y90 E.02437
G1 X142.189 Y120 E.94063
G1 X141.798 Y121.248 E.04101
M73 P7 R2
M73 Q7 S2
G1 X140.765 Y122.051 E.04102
G1 X140 Y122.189 E.02437
G1 X110 Y122.189 E.94063
G1 X108.752 Y121.798 E.04101
M73 P8 R2
M73 Q8 S2
G1 X107.949 Y120.765 E.04102
G1 X107.811 Y120 E.02437
G1 X107.811 Y90 E.94063
M73 Q9 S2
G1 X108.184 Y88.809 E.03913
M73 P9 R2
M73 Q10 S2
M204 S1000
;WIPE_START
G1 F8640
G1 X108.202 Y88.752 E-.0138
G1 X109.235 Y87.949 E-.30211
G1 X110 Y87.811 E-.17949
G1 X111.319 Y87.811 E-.3046
;WIPE_END
G1 Z.6 F720
M73 P10 R2
; printing object Shape-Box id:0 copy 0
G1 X139.213 Y119.213 F10800
G1 Z.2 F720
G1 E.8 F2100
M204 S800
;TYPE:Perimeter
;WIDTH:0.419999
G1 F1200
G1 X110.787 Y119.213 E.89128
G1 X110.787 Y90.787 E.89128
M73 P11 R2
M73 Q11 S2
G1 X139.213 Y90.787 E.89128
M73 P12 R2
M73 Q12 S2
G1 X139.213 Y105 E.44564
M73 P13 R2
M73 Q13 S2
G1 X139.213 Y119.153 E.44376
M73 P14 R2
M73 Q14 S2
M204 S1000
G1 X139.59 Y119.59 F10800
M73 P14 R1
M73 Q14 S1
M204 S800
;TYPE:External perimeter
G1 F1200
G1 X110.41 Y119.59 E.91492
G1 X110.41 Y90.41 E.91492
M73 P15 R1
M73 Q15 S1
G1 X139.59 Y90.41 E.91492
M73 P16 R1
M73 Q16 S1
G1 X139.59 Y105 E.45746
M73 P17 R1
M73 Q17 S1
G1 X139.59 Y119.53 E.45558
M73 P18 R1
M73 Q18 S1
M204 S1000
;WIPE_START
G1 F8640
G1 X139.59 Y119.59 E-.01385
G1 X136.185 Y119.59 E-.78615
M73 Q19 S1
;WIPE_END
G1 Z.6 F720
G1 X139.043 Y91.723 F10800
G1 Z.2 F720
M73 P19 R1
G1 E.8 F2100
M204 S800
;TYPE:Solid infill
;WIDTH:0.421716
G1 F1200
G1 X138.447 Y91.126 E.02657
G1 X137.911 Y91.126 E.01688
G1 X138.874 Y92.089 E.0429
G1 X138.874 Y92.624 E.01685
G1 X137.376 Y91.126 E.06673
G1 X136.84 Y91.126 E.01688
G1 X138.874 Y93.16 E.0906
G1 X138.874 Y93.696 E.01688
G1 X136.304 Y91.126 E.11448
G1 X135.769 Y91.126 E.01685
G1 X138.874 Y94.231 E.13831
M73 Q20 S1
G1 X138.874 Y94.767 E.01688
G1 X135.233 Y91.126 E.16218
G1 X134.697 Y91.126 E.01688
M73 P20 R1
G1 X138.874 Y95.303 E.18606
G1 X138.874 Y95.839 E.01688
G1 X134.161 Y91.126 E.20993
G1 X133.626 Y91.126 E.01685
G1 X138.874 Y96.374 E.23376
G1 X138.874 Y96.91 E.01688
M73 Q21 S1
G1 X133.09 Y91.126 E.25764
G1 X132.554 Y91.126 E.01688
M73 P21 R1
G1 X138.874 Y97.446 E.28151
G1 X138.874 Y97.981 E.01685
G1 X132.019 Y91.126 E.30535
G1 X131.483 Y91.126 E.01688
M73 P22 R1
M73 Q22 S1
G1 X138.874 Y98.517 E.32922
G1 X138.874 Y99.053 E.01688
G1 X130.947 Y91.126 E.3531
G1 X130.412 Y91.126 E.01685
M73 Q23 S1
G1 X138.874 Y99.588 E.37693
G1 X138.874 Y100.124 E.01688
M73 P23 R1
G1 X129.876 Y91.126 E.4008
G1 X129.34 Y91.126 E.01688
M73 Q24 S1
G1 X138.874 Y100.66 E.42468
G1 X138.874 Y101.196 E.01688
M73 P24 R1
G1 X128.804 Y91.126 E.44855
G1 X128.269 Y91.126 E.01685
M73 Q25 S1
G1 X138.874 Y101.731 E.47238
G1 X138.874 Y102.267 E.01688
M73 P25 R1
G1 X127.733 Y91.126 E.49626
G1 X127.197 Y91.126 E.01688
M73 Q26 S1
G1 X138.874 Y102.803 E.52013
M73 P26 R1
G1 X138.874 Y103.338 E.01685
G1 X126.662 Y91.126 E.54397
G1 X126.126 Y91.126 E.01688
M73 P27 R1
M73 Q27 S1
G1 X138.874 Y103.874 E.56784
G1 X138.874 Y104.41 E.01688
M73 Q28 S1
G1 X125.59 Y91.126 E.59172
G1 X125.055 Y91.126 E.01685
M73 P28 R1
G1 X138.874 Y104.945 E.61555
G1 X138.874 Y105.481 E.01688
M73 P29 R1
M73 Q29 S1
G1 X124.519 Y91.126 E.63942
G1 X123.983 Y91.126 E.01688
M73 P30 R1
M73 Q30 S1
G1 X138.874 Y106.017 E.6633
G1 X138.874 Y106.553 E.01688
M73 Q31 S1
G1 X123.447 Y91.126 E.68717
G1 X122.912 Y91.126 E.01685
M73 P31 R1
G1 X138.874 Y107.088 E.711
G1 X138.874 Y107.624 E.01688
M73 P32 R1
M73 Q32 S1
G1 X122.376 Y91.126 E.73488
G1 X121.84 Y91.126 E.01688
M73 P33 R1
M73 Q33 S1
G1 X138.874 Y108.16 E.75875
G1 X138.874 Y108.695 E.01685
M73 P34 R1
M73 Q34 S1
G1 X121.305 Y91.126 E.78258
G1 X120.769 Y91.126 E.01688
M73 P35 R1
M73 Q35 S1
G1 X138.874 Y109.231 E.80646
G1 X138.874 Y109.767 E.01688
M73 P36 R1
M73 Q36 S1
G1 X120.233 Y91.126 E.83034
G1 X119.698 Y91.126 E.01685
M73 P37 R1
M73 Q37 S1
G1 X138.874 Y110.302 E.85417
G1 X138.874 Y110.838 E.01688
M73 P38 R1
M73 Q38 S1
G1 X119.162 Y91.126 E.87804
G1 X118.626 Y91.126 E.01688
M73 P39 R1
M73 Q39 S1
G1 X138.874 Y111.374 E.90192
G1 X138.874 Y111.91 E.01688
M73 P40 R1
M73 Q40 S1
G1 X118.09 Y91.126 E.92579
G1 X117.555 Y91.126 E.01685
M73 P41 R1
M73 Q41 S1
G1 X138.874 Y112.445 E.94962
G1 X138.874 Y112.981 E.01688
M73 P42 R1
M73 Q42 S1
G1 X117.019 Y91.126 E.9735
G1 X116.483 Y91.126 E.01688
M73 P43 R1
M73 Q43 S1
G1 X138.874 Y113.517 E.99737
G1 X138.874 Y114.052 E.01685
M73 P44 R1
M73 Q44 S1
G1 X115.948 Y91.126 E1.0212
G1 X115.412 Y91.126 E.01688
M73 P45 R1
M73 Q46 S1
G1 X138.874 Y114.588 E1.04508
G1 X138.874 Y115.124 E.01688
M73 P47 R1
M73 Q47 S1
G1 X114.876 Y91.126 E1.06896
G1 X114.341 Y91.126 E.01685
M73 P48 R1
M73 Q48 S1
G1 X138.874 Y115.659 E1.09279
G1 X138.874 Y116.195 E.01688
M73 P49 R1
M73 Q49 S1
G1 X113.805 Y91.126 E1.11666
G1 X113.269 Y91.126 E.01688
M73 P50 R1
M73 Q51 S1
G1 X138.874 Y116.731 E1.14054
M73 P51 R1
G1 X138.874 Y117.267 E.01688
M73 P52 R1
M73 Q52 S1
G1 X112.733 Y91.126 E1.16441
G1 X112.198 Y91.126 E.01685
M73 P53 R1
M73 Q53 S1
G1 X138.874 Y117.802 E1.18824
G1 X138.874 Y118.338 E.01688
M73 P55 R1
M73 Q55 S1
G1 X111.662 Y91.126 E1.21212
G1 X111.126 Y91.126 E.01688
M73 P56 R1
M73 Q56 S1
G1 X138.873 Y118.874 E1.23597
G1 X138.338 Y118.874 E.01685
M73 P57 R0
M73 Q58 S0
G1 X111.126 Y91.662 E1.21212
G1 X111.126 Y92.198 E.01688
M73 P59 R0
M73 Q59 S0
G1 X137.802 Y118.874 E1.18824
G1 X137.266 Y118.874 E.01688
M73 P60 R0
M73 Q60 S0
G1 X111.126 Y92.734 E1.16437
G1 X111.126 Y93.269 E.01685
M73 P62 R0
M73 Q62 S0
G1 X136.731 Y118.874 E1.14054
G1 X136.195 Y118.874 E.01688
M73 P63 R0
M73 Q63 S0
G1 X111.126 Y93.805 E1.11666
G1 X111.126 Y94.341 E.01688
M73 P64 R0
M73 Q64 S0
G1 X135.659 Y118.874 E1.09279
G1 X135.124 Y118.874 E.01685
M73 P65 R0
M73 Q66 S0
G1 X111.126 Y94.876 E1.06896
G1 X111.126 Y95.412 E.01688
M73 P67 R0
M73 Q67 S0
G1 X134.588 Y118.874 E1.04508
G1 X134.052 Y118.874 E.01688
M73 P68 R0
M73 Q68 S0
G1 X111.126 Y95.948 E1.0212
G1 X111.126 Y96.483 E.01685
M73 P69 R0
M73 Q69 S0
G1 X133.517 Y118.874 E.99737
G1 X132.981 Y118.874 E.01688
M73 P70 R0
M73 Q70 S0
G1 X111.126 Y97.019 E.9735
G1 X111.126 Y97.555 E.01688
M73 P71 R0
M73 Q72 S0
G1 X132.445 Y118.874 E.94962
G1 X131.909 Y118.874 E.01688
M73 P73 R0
M73 Q73 S0
G1 X111.126 Y98.091 E.92575
G1 X111.126 Y98.626 E.01685
M73 P74 R0
M73 Q74 S0
G1 X131.374 Y118.874 E.90192
G1 X130.838 Y118.874 E.01688
M73 P75 R0
M73 Q75 S0
G1 X111.126 Y99.162 E.87804
G1 X111.126 Y99.698 E.01688
M73 P76 R0
M73 Q76 S0
G1 X130.302 Y118.874 E.85417
G1 X129.767 Y118.874 E.01685
M73 P77 R0
M73 Q77 S0
G1 X111.126 Y100.233 E.83034
G1 X111.126 Y100.769 E.01688
M73 P78 R0
M73 Q78 S0
G1 X129.231 Y118.874 E.80646
G1 X128.695 Y118.874 E.01688
M73 P79 R0
M73 Q79 S0
G1 X111.126 Y101.305 E.78258
G1 X111.126 Y101.84 E.01685
M73 P80 R0
M73 Q80 S0
G1 X128.16 Y118.874 E.75875
G1 X127.624 Y118.874 E.01688
M73 Q81 S0
G1 X111.126 Y102.376 E.73488
G1 X111.126 Y102.912 E.01688
M73 P81 R0
G1 X127.088 Y118.874 E.711
G1 X126.552 Y118.874 E.01688
M73 P82 R0
M73 Q82 S0
G1 X111.126 Y103.448 E.68713
G1 X111.126 Y103.983 E.01685
M73 P83 R0
M73 Q83 S0
G1 X126.017 Y118.874 E.6633
G1 X125.481 Y118.874 E.01688
M73 P84 R0
M73 Q84 S0
G1 X111.126 Y104.519 E.63942
G1 X111.126 Y105.055 E.01688
M73 P85 R0
M73 Q85 S0
G1 X124.945 Y118.874 E.61555
G1 X124.41 Y118.874 E.01685
G1 X111.126 Y105.59 E.59172
G1 X111.126 Y106.126 E.01688
M73 P86 R0
M73 Q86 S0
G1 X123.874 Y118.874 E.56784
G1 X123.338 Y118.874 E.01688
M73 P87 R0
M73 Q87 S0
G1 X111.126 Y106.662 E.54397
G1 X111.126 Y107.197 E.01685
G1 X122.803 Y118.874 E.52013
G1 X122.267 Y118.874 E.01688
M73 P88 R0
M73 Q88 S0
G1 X111.126 Y107.733 E.49626
G1 X111.126 Y108.269 E.01688
M73 Q89 S0
G1 X121.731 Y118.874 E.47238
M73 P89 R0
G1 X121.195 Y118.874 E.01688
G1 X111.126 Y108.805 E.44851
G1 X111.126 Y109.34 E.01685
M73 P90 R0
M73 Q90 S0
G1 X120.66 Y118.874 E.42468
G1 X120.124 Y118.874 E.01688
G1 X111.126 Y109.876 E.4008
G1 X111.126 Y110.412 E.01688
M73 P91 R0
M73 Q91 S0
G1 X119.588 Y118.874 E.37693
G1 X119.053 Y118.874 E.01685
G1 X111.126 Y110.947 E.3531
G1 X111.126 Y111.483 E.01688
M73 Q92 S0
G1 X118.517 Y118.874 E.32922
M73 P92 R0
G1 X117.981 Y118.874 E.01688
G1 X111.126 Y112.019 E.30535
G1 X111.126 Y112.554 E.01685
G1 X117.446 Y118.874 E.28151
G1 X116.91 Y118.874 E.01688
M73 P93 R0
M73 Q93 S0
G1 X111.126 Y113.09 E.25764
G1 X111.126 Y113.626 E.01688
G1 X116.374 Y118.874 E.23376
G1 X115.838 Y118.874 E.01688
G1 X111.126 Y114.162 E.20989
G1 X111.126 Y114.697 E.01685
M73 P94 R0
M73 Q94 S0
G1 X115.303 Y118.874 E.18606
G1 X114.767 Y118.874 E.01688
G1 X111.126 Y115.233 E.16218
G1 X111.126 Y115.769 E.01688
G1 X114.231 Y118.874 E.13831
G1 X113.696 Y118.874 E.01685
G1 X111.126 Y116.304 E.11448
G1 X111.126 Y116.84 E.01688
G1 X113.16 Y118.874 E.0906
G1 X112.624 Y118.874 E.01688
G1 X111.126 Y117.376 E.06673
G1 X111.126 Y117.911 E.01685
M73 P95 R0
M73 Q95 S0
G1 X112.089 Y118.874 E.0429
G1 X111.553 Y118.874 E.01688
G1 X110.957 Y118.277 E.02657
M204 S1000
; stop printing object Shape-Box id:0 copy 0
;WIPE_START
G1 F8640;_WIPE
G1 X111.553 Y118.874 E-.19478
G1 X112.089 Y118.874 E-.12376
G1 X111.126 Y117.911 E-.31446
G1 X111.126 Y117.376 E-.12353
G1 X111.259 Y117.509 E-.04347
;WIPE_END
M107
;TYPE:Custom
; Filament-specific end gcode
G1 Z1.2 F720 ; Move print head up
G1 X0 Y200 F3600 ; park
G1 Z49.2 F720 ; Move print head further up
M73 P97 R0
M73 Q97 S0
G4 ; wait
M221 S100 ; reset flow
M900 K0 ; reset LA
M907 E538 ; reset extruder motor current
M104 S0 ; turn off temperature
M140 S0 ; turn off heatbed
M107 ; turn off fan
M84 ; disable motors
; max_layer_z = 0.2
M73 P100 R0
M73 Q100 S0
; objects_info = {"objects":[{"name":"Shape-Box id:0 copy 0","polygon":[[140.000,120.000],[110.000,120.000],[110.000,90.000],[140.000,90.000]]}]}
; filament used [mm] = 98.67
; filament used [cm3] = 0.24
; filament used [g] = 0.29
; filament cost = 0.01
; total filament used [g] = 0.29
; total filament cost = 0.01
; total filament used for wipe tower [g] = 0.00
; estimated printing time (normal mode) = 2m 19s
; estimated printing time (silent mode) = 2m 19s
; estimated first layer printing time (normal mode) = 2m 19s
; estimated first layer printing time (silent mode) = 2m 19s

; prusaslicer_config = begin
; arc_fitting = disabled
; autoemit_temperature_commands = 1
; avoid_crossing_curled_overhangs = 0
; avoid_crossing_perimeters = 0
; avoid_crossing_perimeters_max_detour = 0
; bed_custom_model = 
; bed_custom_texture = 
; bed_shape = 0x0,250x0,250x210,0x210
; bed_temperature = 60
; before_layer_gcode = ;BEFORE_LAYER_CHANGE\nG92 E0.0\n;[layer_z]\n\n
; between_objects_gcode = 
; binary_gcode = 0
; bottom_fill_pattern = monotonic
; bottom_solid_layers = 4
; bottom_solid_min_thickness = 0.5
; bridge_acceleration = 1000
; bridge_angle = 0
; bridge_fan_speed = 100
; bridge_flow_ratio = 0.95
; bridge_speed = 25
; brim_separation = 0.1
; brim_type = outer_only
; brim_width = 0
; chamber_minimal_temperature = 0
; chamber_temperature = 0
; color_change_gcode = M600\nG1 E0.3 F1500 ; prime after color change
; colorprint_heights = 
; compatible_printers_condition_cummulative = "printer_notes=~/.*PRINTER_VENDOR_PRUSA3D.*/ and printer_notes=~/.*PRINTER_MODEL_MK3.*/ and nozzle_diameter[0]==0.4 and printer_model!=\"MK3.5MMU3\"";"nozzle_diameter[0]!=0.8 and printer_notes!~/.*PG.*/ and printer_notes!~/.*MINIIS.*/ and printer_model!=\"MK3.5\" and ! (printer_notes=~/.*PRINTER_VENDOR_PRUSA3D.*/ and printer_notes=~/.*PRINTER_MODEL_MK(2.5|3).*/ and single_extruder_multi_material)"
; complete_objects = 0
; cooling = 1
; cooling_tube_length = 5
; cooling_tube_retraction = 91.5
; default_acceleration = 1000
; default_filament_profile = "Prusament PLA"
; default_print_profile = 0.15mm QUALITY @MK3
; deretract_speed = 0
; disable_fan_first_layers = 1
; dont_support_bridges = 0
; draft_shield = disabled
; duplicate_distance = 6
; elefant_foot_compensation = 0.2
; enable_dynamic_fan_speeds = 0
; enable_dynamic_overhang_speeds = 1
; end_filament_gcode = "; Filament-specific end gcode"
; end_gcode = {if max_layer_z < max_print_height}G1 Z{z_offset+min(max_layer_z+1, max_print_height)} F720 ; Move print head up{endif}\nG1 X0 Y200 F3600 ; park\n{if max_layer_z < max_print_height}G1 Z{z_offset+min(max_layer_z+49, max_print_height)} F720 ; Move print head further up{endif}\nG4 ; wait\nM221 S100 ; reset flow\nM900 K0 ; reset LA\n{if print_settings_id=~/.*(DETAIL @MK3|QUALITY @MK3|@0.25 nozzle MK3).*/}M907 E538 ; reset extruder motor current{endif}\nM104 S0 ; turn off temperature\nM140 S0 ; turn off heatbed\nM107 ; turn off fan\nM84 ; disable motors\n; max_layer_z = [max_layer_z]
; external_perimeter_acceleration = 0
; external_perimeter_extrusion_width = 0.45
; external_perimeter_speed = 25
; external_perimeters_first = 0
; extra_loading_move = -2
; extra_perimeters = 0
; extra_perimeters_on_overhangs = 0
; extruder_clearance_height = 20
; extruder_clearance_radius = 45
; extruder_colour = ""
; extruder_offset = 0x0
; extrusion_axis = E
; extrusion_multiplier = 1
; extrusion_width = 0.45
; fan_always_on = 1
; fan_below_layer_time = 100
; filament_abrasive = 0
; filament_colour = #FF8000
; filament_cooling_final_speed = 3.4
; filament_cooling_initial_speed = 2.2
; filament_cooling_moves = 4
; filament_cost = 25.4
; filament_density = 1.24
; filament_deretract_speed = nil
; filament_diameter = 1.75
; filament_infill_max_crossing_speed = 0
; filament_infill_max_speed = 0
; filament_load_time = 0
; filament_loading_speed = 28
; filament_loading_speed_start = 3
; filament_max_volumetric_speed = 15
; filament_minimal_purge_on_wipe_tower = 15
; filament_multitool_ramming = 0
; filament_multitool_ramming_flow = 10
; filament_multitool_ramming_volume = 10
; filament_notes = ""
; filament_purge_multiplier = 100%
; filament_ramming_parameters = "120 100 6.6 6.8 7.2 7.6 7.9 8.2 8.7 9.4 9.9 10.0| 0.05 6.6 0.45 6.8 0.95 7.8 1.45 8.3 1.95 9.7 2.45 10 2.95 7.6 3.45 7.6 3.95 7.6 4.45 7.6 4.95 7.6"
; filament_retract_before_travel = nil
; filament_retract_before_wipe = nil
; filament_retract_layer_change = nil
; filament_retract_length = nil
; filament_retract_length_toolchange = nil
