; generated by PrusaSlicer 2.8.0+win64 on 2024-10-31 at 04:00:07 UTC


;
;

;
;
; 

; external perimeters extrusion width = 0.45mm
; perimeters extrusion width = 0.45mm
; infill extrusion width = 0.45mm
; solid infill extrusion width = 0.45mm
; top infill extrusion width = 0.45mm
; first layer extrusion width = 0.45mm

M73 P0 R9
;TYPE:Custom
M190 S0 ; Prevents prusaslicer from prepending m190 to the gcode interfering with the macro
M109 S0 ; Prevents prusaslicer from prepending m109 to the gcode interfering with the macro
SET_GCODE_VARIABLE MACRO=RatOS VARIABLE=relative_extrusion VALUE=True
START_PRINT EXTRUDER_TEMP=250 BED_TEMP=85 X0=81 Y0=81 X1=99 Y1=99 FIRST_X=97.961 FIRST_Y=97.961 MIN_X=81.225 MAX_X=98.775
G21 ; set units to millimeters
G90 ; use absolute coordinates
M83 ; use relative distances for extrusion
; Filament gcode
SET_PRESSURE_ADVANCE ADVANCE=0.04
M107
;LAYER_CHANGE
;Z:0.2
;HEIGHT:0.2
G1 E-2 F2400
G1 Z.2 F12000
G1 X97.961 Y97.961 F30000
G1 Z.2 F12000
G1 E2 F2400
M204 S2500
;TYPE:Perimeter
;WIDTH:0.449999
G1 F1200
G1 X82.039 Y97.961 E.48505
G1 X82.039 Y82.039 E.48505
G1 X97.961 Y82.039 E.48505
G1 X97.961 Y90 E.24252
G1 X97.961 Y97.901 E.2407
M204 S15000
G1 X97.961 Y97.901 F30000
G1 X98.368 Y98.368
M204 S2500
G1 F1200
G1 X81.632 Y98.368 E.50984
G1 X81.632 Y81.632 E.50984
G1 X98.368 Y81.632 E.50984
M73 P1 R9
G1 X98.368 Y90 E.25492
G1 X98.368 Y98.308 E.25309
M204 S15000
G1 X98.775 Y98.775 F30000
M204 S2500
;TYPE:External perimeter
G1 F1200
G1 X81.225 Y98.775 E.53464
G1 X81.225 Y81.225 E.53464
G1 X98.775 Y81.225 E.53464
G1 X98.775 Y90 E.26732
G1 X98.775 Y98.715 E.26549
M204 S15000
;WIPE_START
G1 F24000
G1 X98.775 Y98.775 E-.0057
G1 X81.225 Y98.775 E-1.66725
G1 X81.225 Y95.332 E-.32705
M73 P2 R9
;WIPE_END
G1 Z1.2 F12000
G1 X97.81 Y83.019 F30000
G1 Z.2 F12000
G1 E2 F2400
M204 S2500
;TYPE:Solid infill
;WIDTH:0.453072
G1 F1200
G1 X97.164 Y82.373 E.02804
G1 X96.584 Y82.373 E.0178
G1 X97.627 Y83.416 E.04527
G1 X97.627 Y83.996 E.0178
G1 X96.004 Y82.373 E.07045
G1 X95.424 Y82.373 E.0178
G1 X97.627 Y84.576 E.09563
G1 X97.627 Y85.156 E.0178
G1 X94.844 Y82.373 E.1208
G1 X94.264 Y82.373 E.0178
G1 X97.627 Y85.736 E.14598
G1 X97.627 Y86.316 E.0178
G1 X93.684 Y82.373 E.17116
G1 X93.104 Y82.373 E.0178
G1 X97.627 Y86.896 E.19633
G1 X97.627 Y87.476 E.0178
G1 X92.524 Y82.373 E.22151
G1 X91.944 Y82.373 E.0178
G1 X97.627 Y88.056 E.24669
G1 X97.627 Y88.636 E.0178
G1 X91.364 Y82.373 E.27186
G1 X90.784 Y82.373 E.0178
G1 X97.627 Y89.216 E.29704
G1 X97.627 Y89.797 E.01783
G1 X90.203 Y82.373 E.32226
G1 X89.623 Y82.373 E.0178
G1 X97.627 Y90.377 E.34743
G1 X97.627 Y90.957 E.0178
M73 P2 R8
G1 X89.043 Y82.373 E.37261
G1 X88.463 Y82.373 E.0178
M73 P3 R8
G1 X97.627 Y91.537 E.39779
G1 X97.627 Y92.117 E.0178
G1 X87.883 Y82.373 E.42296
G1 X87.303 Y82.373 E.0178
G1 X97.627 Y92.697 E.44814
G1 X97.627 Y93.277 E.0178
G1 X86.723 Y82.373 E.47332
G1 X86.143 Y82.373 E.0178
G1 X97.627 Y93.857 E.49849
G1 X97.627 Y94.437 E.0178
G1 X85.563 Y82.373 E.52367
G1 X84.983 Y82.373 E.0178
G1 X97.627 Y95.017 E.54885
G1 X97.627 Y95.597 E.0178
M73 P4 R8
G1 X84.403 Y82.373 E.57402
G1 X83.823 Y82.373 E.0178
G1 X97.627 Y96.177 E.5992
G1 X97.627 Y96.757 E.0178
G1 X83.243 Y82.373 E.62438
G1 X82.663 Y82.373 E.0178
G1 X97.627 Y97.337 E.64955
G1 X97.627 Y97.627 E.0089
G1 X97.337 Y97.627 E.0089
G1 X82.373 Y82.663 E.64955
G1 X82.373 Y83.243 E.0178
M73 P5 R8
G1 X96.757 Y97.627 E.62438
G1 X96.177 Y97.627 E.0178
G1 X82.373 Y83.823 E.5992
G1 X82.373 Y84.403 E.0178
G1 X95.597 Y97.627 E.57402
G1 X95.017 Y97.627 E.0178
G1 X82.373 Y84.983 E.54885
G1 X82.373 Y85.563 E.0178
G1 X94.437 Y97.627 E.52367
G1 X93.857 Y97.627 E.0178
G1 X82.373 Y86.143 E.49849
G1 X82.373 Y86.723 E.0178
M73 P6 R8
G1 X93.277 Y97.627 E.47332
G1 X92.697 Y97.627 E.0178
G1 X82.373 Y87.303 E.44814
G1 X82.373 Y87.883 E.0178
G1 X92.117 Y97.627 E.42296
G1 X91.537 Y97.627 E.0178
G1 X82.373 Y88.463 E.39779
G1 X82.373 Y89.044 E.01783
G1 X90.956 Y97.627 E.37257
G1 X90.376 Y97.627 E.0178
G1 X82.373 Y89.624 E.34739
G1 X82.373 Y90.204 E.0178
G1 X89.796 Y97.627 E.32222
G1 X89.216 Y97.627 E.0178
G1 X82.373 Y90.784 E.29704
G1 X82.373 Y91.364 E.0178
M73 P7 R8
G1 X88.636 Y97.627 E.27186
G1 X88.056 Y97.627 E.0178
G1 X82.373 Y91.944 E.24669
G1 X82.373 Y92.524 E.0178
G1 X87.476 Y97.627 E.22151
G1 X86.896 Y97.627 E.0178
G1 X82.373 Y93.104 E.19633
G1 X82.373 Y93.684 E.0178
G1 X86.316 Y97.627 E.17116
G1 X85.736 Y97.627 E.0178
G1 X82.373 Y94.264 E.14598
G1 X82.373 Y94.844 E.0178
G1 X85.156 Y97.627 E.1208
G1 X84.576 Y97.627 E.0178
G1 X82.373 Y95.424 E.09563
G1 X82.373 Y96.004 E.0178
G1 X83.996 Y97.627 E.07045
G1 X83.416 Y97.627 E.0178
G1 X82.373 Y96.584 E.04527
G1 X82.373 Y97.164 E.0178
G1 X83.019 Y97.81 E.02804
M204 S15000
M106 S127.5
;LAYER_CHANGE
;Z:0.4
;HEIGHT:0.2
;BEFORE_LAYER_CHANGE
;0.4
G92 E0
;


;WIPE_START
G1 F24000
G1 X82.373 Y97.164 E-.08679
G1 X82.373 Y96.584 E-.0551
G1 X83.416 Y97.627 E-.14013
G1 X83.996 Y97.627 E-.0551
G1 X82.373 Y96.004 E-.21805
G1 X82.373 Y95.424 E-.0551
G1 X84.576 Y97.627 E-.29597
G1 X85.156 Y97.627 E-.0551
G1 X82.373 Y94.844 E-.3739
G1 X82.373 Y94.264 E-.0551
G1 X85.736 Y97.627 E-.45182
G1 X86.316 Y97.627 E-.0551
G1 X85.551 Y96.862 E-.10274
;WIPE_END
G1 Z.4 F12000
;AFTER_LAYER_CHANGE
;0.4

M140 S85 ; set bed temperature
G1 Z1.4
G1 X97.961 Y97.961 F30000
G1 Z.4 F12000
G1 E2 F2400
;TYPE:Perimeter
;WIDTH:0.449999
G1 F18000
G1 X82.039 Y97.961 E.48505
G1 X82.039 Y82.039 E.48505
G1 X97.961 Y82.039 E.48505
G1 X97.961 Y90 E.24252
G1 X97.961 Y97.901 E.2407
G1 X97.961 Y97.901 F30000
G1 X98.368 Y98.368
G1 F18000
G1 X81.632 Y98.368 E.50984
G1 X81.632 Y81.632 E.50984
G1 X98.368 Y81.632 E.50984
G1 X98.368 Y90 E.25492
G1 X98.368 Y98.308 E.25309
G1 X98.775 Y98.775 F30000
M204 S10000
;TYPE:External perimeter
G1 F18000
G1 X81.225 Y98.775 E.53464
G1 X81.225 Y81.225 E.53464
M73 P8 R8
G1 X98.775 Y81.225 E.53464
G1 X98.775 Y90 E.26732
G1 X98.775 Y98.715 E.26549
M204 S15000
;WIPE_START
G1 F24000
G1 X98.775 Y98.775 E-.0057
G1 X81.225 Y98.775 E-1.66725
G1 X81.225 Y95.332 E-.32705
;WIPE_END
G1 Z1.4 F12000
G1 X82.483 Y82.406 F30000
G1 Z.4 F12000
G1 E2 F2400
;TYPE:Solid infill
;WIDTH:0.548766
G1 F18000
G1 X82.439 Y82.361 E.00238
G1 X82.378 Y82.378 E.0024
G1 X82.361 Y82.439 E.0024
G1 X82.406 Y82.483 E.00238
G1 X82.467 Y82.467 E.00239
;WIDTH:0.449999
G1 X82.373 Y83.117 E.02001
G1 X83.117 Y82.373 E.03205
G1 X83.693 Y82.373 E.01755
G1 X82.373 Y83.693 E.05687
G1 X82.373 Y84.269 E.01755
G1 X84.269 Y82.373 E.08168
G1 X84.844 Y82.373 E.01752
G1 X82.373 Y84.844 E.10646
G1 X82.373 Y85.42 E.01755
G1 X85.42 Y82.373 E.13127
G1 X85.996 Y82.373 E.01755
G1 X82.373 Y85.996 E.15609
G1 X82.373 Y86.571 E.01752
G1 X86.571 Y82.373 E.18086
G1 X87.147 Y82.373 E.01755
G1 X82.373 Y87.147 E.20568
G1 X82.373 Y87.723 E.01755
G1 X87.723 Y82.373 E.23049
G1 X88.299 Y82.373 E.01755
G1 X82.373 Y88.299 E.25531
G1 X82.373 Y88.874 E.01752
G1 X88.874 Y82.373 E.28008
G1 X89.45 Y82.373 E.01755
G1 X82.373 Y89.45 E.30489
G1 X82.373 Y90.026 E.01755
G1 X90.026 Y82.373 E.32971
G1 X90.601 Y82.373 E.01752
G1 X82.373 Y90.601 E.35448
G1 X82.373 Y91.177 E.01755
G1 X91.177 Y82.373 E.3793
G1 X91.753 Y82.373 E.01755
G1 X82.373 Y91.753 E.40411
G1 X82.373 Y92.328 E.01752
G1 X92.328 Y82.373 E.42889
G1 X92.904 Y82.373 E.01755
G1 X82.373 Y92.904 E.4537
G1 X82.373 Y93.48 E.01755
G1 X93.48 Y82.373 E.47852
G1 X94.056 Y82.373 E.01755
G1 X82.373 Y94.056 E.50333
G1 X82.373 Y94.631 E.01752
G1 X94.631 Y82.373 E.5281
G1 X95.207 Y82.373 E.01755
G1 X82.373 Y95.207 E.55292
G1 X82.373 Y95.783 E.01755
G1 X95.783 Y82.373 E.57774
G1 X96.358 Y82.373 E.01752
G1 X82.373 Y96.358 E.60251
G1 X82.373 Y96.934 E.01755
G1 X96.934 Y82.373 E.62732
G1 X97.51 Y82.373 E.01755
G1 X82.373 Y97.51 E.65214
G1 X82.334 Y97.623 E.00364
;WIDTH:0.41646
G1 X82.294 Y97.736 E.00335
;WIDTH:0.38292
G1 X82.223 Y97.717 E.00187
G1 X82.242 Y97.788 E.00187
G1 X82.283 Y97.777 E.00108
;WIDTH:0.449999
G1 X82.831 Y97.627 E.01731
G1 X97.627 Y82.831 E.63745
G1 X97.627 Y83.407 E.01755
G1 X83.407 Y97.627 E.61263
G1 X83.983 Y97.627 E.01755
G1 X97.627 Y83.983 E.58782
G1 X97.627 Y84.558 E.01752
G1 X84.558 Y97.627 E.56304
G1 X85.134 Y97.627 E.01755
G1 X97.627 Y85.134 E.53823
G1 X97.627 Y85.71 E.01755
G1 X85.71 Y97.627 E.51341
G1 X86.285 Y97.627 E.01752
G1 X97.627 Y86.285 E.48864
G1 X97.627 Y86.861 E.01755
G1 X86.861 Y97.627 E.46383
G1 X87.437 Y97.627 E.01755
M73 P9 R8
G1 X97.627 Y87.437 E.43901
G1 X97.627 Y88.013 E.01755
G1 X88.013 Y97.627 E.41419
G1 X88.588 Y97.627 E.01752
G1 X97.627 Y88.588 E.38942
G1 X97.627 Y89.164 E.01755
G1 X89.164 Y97.627 E.36461
G1 X89.74 Y97.627 E.01755
G1 X97.627 Y89.74 E.33979
G1 X97.627 Y90.315 E.01752
G1 X90.315 Y97.627 E.31502
G1 X90.891 Y97.627 E.01755
G1 X97.627 Y90.891 E.2902
G1 X97.627 Y91.467 E.01755
G1 X91.467 Y97.627 E.26539
G1 X92.042 Y97.627 E.01752
G1 X97.627 Y92.042 E.24062
G1 X97.627 Y92.618 E.01755
G1 X92.618 Y97.627 E.2158
G1 X93.194 Y97.627 E.01755
G1 X97.627 Y93.194 E.19098
G1 X97.627 Y93.77 E.01755
G1 X93.77 Y97.627 E.16617
G1 X94.345 Y97.627 E.01752
G1 X97.627 Y94.345 E.1414
G1 X97.627 Y94.921 E.01755
G1 X94.921 Y97.627 E.11658
G1 X95.497 Y97.627 E.01755
G1 X97.627 Y95.497 E.09177
G1 X97.627 Y96.072 E.01752
G1 X96.072 Y97.627 E.06699
G1 X96.648 Y97.627 E.01755
G1 X97.627 Y96.648 E.04218
G1 X97.627 Y97.224 E.01755
G1 X97.224 Y97.627 E.01736
;LAYER_CHANGE
;Z:0.6
;HEIGHT:0.2
;BEFORE_LAYER_CHANGE
;0.6
G92 E0
;SET_FILAMENT_SENSOR SENSOR=my_sensor ENABLE=1


;WIPE_START
G1 F24000
G1 X97.627 Y97.224 E-.05414
G1 X97.627 Y96.648 E-.05472
G1 X96.648 Y97.627 E-.13153
G1 X96.072 Y97.627 E-.05472
G1 X97.627 Y96.072 E-.20891
G1 X97.627 Y95.497 E-.05463
G1 X95.497 Y97.627 E-.28617
G1 X94.921 Y97.627 E-.05472
G1 X97.627 Y94.921 E-.36355
G1 X97.627 Y94.345 E-.05472
G1 X94.345 Y97.627 E-.44094
G1 X93.77 Y97.627 E-.05463
G1 X95.159 Y96.238 E-.18662
;WIPE_END
G1 Z.6 F12000
;AFTER_LAYER_CHANGE
;0.6

G1 Z1.6
G1 X97.961 Y97.961 F30000
G1 Z.6 F12000
G1 E2 F2400
;TYPE:Perimeter
G1 F18000
G1 X82.039 Y97.961 E.48505
G1 X82.039 Y82.039 E.48505
G1 X97.961 Y82.039 E.48505
G1 X97.961 Y90 E.24252
G1 X97.961 Y97.901 E.2407
G1 X97.961 Y97.901 F30000
G1 X98.368 Y98.368
G1 F18000
G1 X81.632 Y98.368 E.50984
G1 X81.632 Y81.632 E.50984
G1 X98.368 Y81.632 E.50984
G1 X98.368 Y90 E.25492
G1 X98.368 Y98.308 E.25309
G1 X98.775 Y98.775 F30000
M204 S10000
;TYPE:External perimeter
G1 F18000
G1 X81.225 Y98.775 E.53464
G1 X81.225 Y81.225 E.53464
G1 X98.775 Y81.225 E.53464
G1 X98.775 Y90 E.26732
G1 X98.775 Y98.715 E.26549
M204 S15000
;WIPE_START
G1 F24000
G1 X98.775 Y98.775 E-.0057
G1 X81.225 Y98.775 E-1.66725
G1 X81.225 Y95.332 E-.32705
;WIPE_END
G1 Z1.6 F12000
G1 X82.406 Y97.517 F30000
G1 Z.6 F12000
G1 E2 F2400
;TYPE:Solid infill
;WIDTH:0.548766
G1 F18000
G1 X82.361 Y97.561 E.00238
G1 X82.378 Y97.622 E.0024
G1 X82.439 Y97.639 E.0024
G1 X82.483 Y97.594 E.00238
G1 X82.467 Y97.533 E.00239
;WIDTH:0.449999
G1 X83.117 Y97.627 E.02001
G1 X82.373 Y96.883 E.03205
G1 X82.373 Y96.307 E.01755
G1 X83.693 Y97.627 E.05687
G1 X84.269 Y97.627 E.01755
G1 X82.373 Y95.731 E.08168
G1 X82.373 Y95.156 E.01752
M73 P10 R8
G1 X84.844 Y97.627 E.10646
G1 X85.42 Y97.627 E.01755
G1 X82.373 Y94.58 E.13127
G1 X82.373 Y94.004 E.01755
G1 X85.996 Y97.627 E.15609
G1 X86.571 Y97.627 E.01752
G1 X82.373 Y93.429 E.18086
G1 X82.373 Y92.853 E.01755
G1 X87.147 Y97.627 E.20568
G1 X87.723 Y97.627 E.01755
G1 X82.373 Y92.277 E.23049
G1 X82.373 Y91.701 E.01755
G1 X88.299 Y97.627 E.25531
G1 X88.874 Y97.627 E.01752
G1 X82.373 Y91.126 E.28008
G1 X82.373 Y90.55 E.01755
G1 X89.45 Y97.627 E.30489
G1 X90.026 Y97.627 E.01755
G1 X82.373 Y89.974 E.32971
G1 X82.373 Y89.399 E.01752
G1 X90.601 Y97.627 E.35448
G1 X91.177 Y97.627 E.01755
G1 X82.373 Y88.823 E.3793
G1 X82.373 Y88.247 E.01755
G1 X91.753 Y97.627 E.40411
G1 X92.328 Y97.627 E.01752
G1 X82.373 Y87.672 E.42889
G1 X82.373 Y87.096 E.01755
G1 X92.904 Y97.627 E.4537
G1 X93.48 Y97.627 E.01755
G1 X82.373 Y86.52 E.47852
G1 X82.373 Y85.944 E.01755
G1 X94.056 Y97.627 E.50333
G1 X94.631 Y97.627 E.01752
G1 X82.373 Y85.369 E.5281
G1 X82.373 Y84.793 E.01755
G1 X95.207 Y97.627 E.55292
G1 X95.783 Y97.627 E.01755
G1 X82.373 Y84.217 E.57774
G1 X82.373 Y83.642 E.01752
G1 X96.358 Y97.627 E.60251
G1 X96.934 Y97.627 E.01755
G1 X82.373 Y83.066 E.62732
G1 X82.373 Y82.49 E.01755
G1 X97.51 Y97.627 E.65214
G1 X97.623 Y97.666 E.00364
;WIDTH:0.41646
G1 X97.736 Y97.706 E.00335
;WIDTH:0.38292
G1 X97.717 Y97.777 E.00187
G1 X97.788 Y97.758 E.00187
G1 X97.777 Y97.717 E.00108
;WIDTH:0.449999
G1 X97.627 Y97.169 E.01731
G1 X82.831 Y82.373 E.63745
G1 X83.407 Y82.373 E.01755
G1 X97.627 Y96.593 E.61263
G1 X97.627 Y96.017 E.01755
G1 X83.983 Y82.373 E.58782
G1 X84.558 Y82.373 E.01752
G1 X97.627 Y95.442 E.56304
G1 X97.627 Y94.866 E.01755
G1 X85.134 Y82.373 E.53823
G1 X85.71 Y82.373 E.01755
G1 X97.627 Y94.29 E.51341
G1 X97.627 Y93.715 E.01752
G1 X86.285 Y82.373 E.48864
G1 X86.861 Y82.373 E.01755
G1 X97.627 Y93.139 E.46383
G1 X97.627 Y92.563 E.01755
G1 X87.437 Y82.373 E.43901
G1 X88.013 Y82.373 E.01755
G1 X97.627 Y91.987 E.41419
G1 X97.627 Y91.412 E.01752
G1 X88.588 Y82.373 E.38942
G1 X89.164 Y82.373 E.01755
G1 X97.627 Y90.836 E.36461
G1 X97.627 Y90.26 E.01755
G1 X89.74 Y82.373 E.33979
G1 X90.315 Y82.373 E.01752
G1 X97.627 Y89.685 E.31502
G1 X97.627 Y89.109 E.01755
G1 X90.891 Y82.373 E.2902
G1 X91.467 Y82.373 E.01755
G1 X97.627 Y88.533 E.26539
G1 X97.627 Y87.958 E.01752
G1 X92.042 Y82.373 E.24062
G1 X92.618 Y82.373 E.01755
G1 X97.627 Y87.382 E.2158
G1 X97.627 Y86.806 E.01755
G1 X93.194 Y82.373 E.19098
G1 X93.77 Y82.373 E.01755
G1 X97.627 Y86.23 E.16617
G1 X97.627 Y85.655 E.01752
G1 X94.345 Y82.373 E.1414
M73 P11 R8
G1 X94.921 Y82.373 E.01755
G1 X97.627 Y85.079 E.11658
G1 X97.627 Y84.503 E.01755
G1 X95.497 Y82.373 E.09177
G1 X96.072 Y82.373 E.01752
G1 X97.627 Y83.928 E.06699
G1 X97.627 Y83.352 E.01755
G1 X96.648 Y82.373 E.04218
G1 X97.224 Y82.373 E.01755
G1 X97.627 Y82.776 E.01736
;LAYER_CHANGE
;Z:0.8
;HEIGHT:0.2
;BEFORE_LAYER_CHANGE
;0.8
G92 E0
;


;WIPE_START
G1 F24000
G1 X97.224 Y82.373 E-.05414
G1 X96.648 Y82.373 E-.05472
G1 X97.627 Y83.352 E-.13153
G1 X97.627 Y83.928 E-.05472
G1 X96.072 Y82.373 E-.20891
G1 X95.497 Y82.373 E-.05463
G1 X97.627 Y84.503 E-.28617
G1 X97.627 Y85.079 E-.05472
G1 X94.921 Y82.373 E-.36355
G1 X94.345 Y82.373 E-.05472
G1 X97.627 Y85.655 E-.44094
G1 X97.627 Y86.23 E-.05463
G1 X96.238 Y84.841 E-.18662
;WIPE_END
G1 Z.8 F12000
;AFTER_LAYER_CHANGE
;0.8

G1 Z1.8
G1 X97.961 Y97.961 F30000
G1 Z.8 F12000
G1 E2 F2400
;TYPE:Perimeter
G1 F18000
G1 X82.039 Y97.961 E.48505
G1 X82.039 Y82.039 E.48505
G1 X97.961 Y82.039 E.48505
G1 X97.961 Y90 E.24252
G1 X97.961 Y97.901 E.2407
G1 X97.961 Y97.901 F30000
G1 X98.368 Y98.368
G1 F18000
G1 X81.632 Y98.368 E.50984
G1 X81.632 Y81.632 E.50984
G1 X98.368 Y81.632 E.50984
G1 X98.368 Y90 E.25492
G1 X98.368 Y98.308 E.25309
G1 X98.775 Y98.775 F30000
M204 S10000
;TYPE:External perimeter
G1 F18000
G1 X81.225 Y98.775 E.53464
G1 X81.225 Y81.225 E.53464
G1 X98.775 Y81.225 E.53464
G1 X98.775 Y90 E.26732
G1 X98.775 Y98.715 E.26549
M204 S15000
;WIPE_START
G1 F24000
G1 X98.775 Y98.775 E-.0057
G1 X81.225 Y98.775 E-1.66725
G1 X81.225 Y95.332 E-.32705
;WIPE_END
G1 Z1.8 F12000
G1 X82.483 Y82.406 F30000
G1 Z.8 F12000
G1 E2 F2400
;TYPE:Solid infill
;WIDTH:0.548766
G1 F18000
G1 X82.439 Y82.361 E.00238
G1 X82.378 Y82.378 E.0024
G1 X82.361 Y82.439 E.0024
G1 X82.406 Y82.483 E.00238
G1 X82.467 Y82.467 E.00239
;WIDTH:0.449999
G1 X82.373 Y83.117 E.02001
G1 X83.117 Y82.373 E.03205
G1 X83.693 Y82.373 E.01755
G1 X82.373 Y83.693 E.05687
G1 X82.373 Y84.269 E.01755
G1 X84.269 Y82.373 E.08168
G1 X84.844 Y82.373 E.01752
G1 X82.373 Y84.844 E.10646
G1 X82.373 Y85.42 E.01755
G1 X85.42 Y82.373 E.13127
G1 X85.996 Y82.373 E.01755
G1 X82.373 Y85.996 E.15609
G1 X82.373 Y86.571 E.01752
G1 X86.571 Y82.373 E.18086
G1 X87.147 Y82.373 E.01755
G1 X82.373 Y87.147 E.20568
G1 X82.373 Y87.723 E.01755
G1 X87.723 Y82.373 E.23049
G1 X88.299 Y82.373 E.01755
G1 X82.373 Y88.299 E.25531
G1 X82.373 Y88.874 E.01752
G1 X88.874 Y82.373 E.28008
G1 X89.45 Y82.373 E.01755
G1 X82.373 Y89.45 E.30489
G1 X82.373 Y90.026 E.01755
G1 X90.026 Y82.373 E.32971
G1 X90.601 Y82.373 E.01752
