; processed by RatOS 2.0.2-602-g20a427b9 on 2024-11-13 at 12:04:25 UTC
; generated by PrusaSlicer 2.8.1+win64 on 2024-11-13 at 11:40:13 UTC                             


;
;

;
;
; 

; external perimeters extrusion width = 0.45mm
; perimeters extrusion width = 0.45mm
; infill extrusion width = 0.45mm
; solid infill extrusion width = 0.45mm
; top infill extrusion width = 0.45mm
; first layer extrusion width = 0.45mm

; external perimeters extrusion width = 0.45mm
; perimeters extrusion width = 0.45mm
; infill extrusion width = 0.45mm
; solid infill extrusion width = 0.45mm
; top infill extrusion width = 0.45mm
; first layer extrusion width = 0.45mm

M73 P0 R2
;TYPE:Custom
START_PRINT EXTRUDER_TEMP=250,250 EXTRUDER_OTHER_LAYER_TEMP=250,250 BED_TEMP=85 START_CHAMBER_TEMP=0,0 CHAMBER_TEMP=0,0 INITIAL_TOOL=1 TOTAL_LAYER_COUNT=50 X0=145 Y0=145 X1=155 Y1=155 TOTAL_TOOLSHIFTS=13 FIRST_X=153.961 FIRST_Y=153.961 MIN_X=145.225 MAX_X=154.775 USED_TOOLS=1,0                                                                                                                                                           
G21 ; set units to millimeters
G90 ; use absolute coordinates
M83 ; use relative distances for extrusion
; Removed by RatOS post processor: T1
; Filament gcode
SET_PRESSURE_ADVANCE ADVANCE=0.04
M107
;LAYER_CHANGE
;Z:0.2
;HEIGHT:0.2
G1 E-2 F7200
G1 Z.2 F12000
G1 X153.961 Y153.961 F30000
G1 Z.2 F12000
G1 E2 F7200
M204 S2500
;TYPE:Perimeter
;WIDTH:0.449999
G1 F1200
G1 X146.039 Y153.961 E.24133
G1 X146.039 Y146.039 E.24133
G1 X153.961 Y146.039 E.24133
M73 P1 R2
G1 X153.961 Y150 E.12067
G1 X153.961 Y153.901 E.11884
M204 S15000
G1 X153.961 Y153.901 F30000
G1 X154.368 Y154.368
M204 S2500
G1 F1200
G1 X145.632 Y154.368 E.26613
G1 X145.632 Y145.632 E.26613
M73 P2 R2
G1 X154.368 Y145.632 E.26613
G1 X154.368 Y150 E.13307
G1 X154.368 Y154.308 E.13124
M73 P3 R2
M204 S15000
G1 X154.775 Y154.775 F30000
M204 S2500
;TYPE:External perimeter
G1 F1200
G1 X145.225 Y154.775 E.29093
G1 X145.225 Y145.225 E.29093
G1 X154.775 Y145.225 E.29093
G1 X154.775 Y150 E.14547
M73 P4 R2
G1 X154.775 Y154.715 E.14364
M204 S15000
;WIPE_START
G1 F24000
G1 X154.775 Y154.775 E-.0171
G1 X147.817 Y154.775 E-1.9829
;WIPE_END
G1 Z1.2 F12000
G1 X153.81 Y147.033 F30000
G1 Z.2 F12000
G1 E2 F7200
M204 S2500
;TYPE:Solid infill
;WIDTH:0.459631
G1 F1200
G1 X153.15 Y146.373 E.02911
G1 X152.561 Y146.373 E.01837
G1 X153.627 Y147.439 E.04701
G1 X153.627 Y148.029 E.0184
G1 X151.971 Y146.373 E.07303
G1 X151.382 Y146.373 E.01837
M73 P5 R2
G1 X153.627 Y148.618 E.09901
G1 X153.627 Y149.207 E.01837
G1 X150.793 Y146.373 E.12498
G1 X150.203 Y146.373 E.0184
G1 X153.627 Y149.797 E.151
G1 X153.627 Y150.386 E.01837
G1 X149.614 Y146.373 E.17698
G1 X149.025 Y146.373 E.01837
G1 X153.627 Y150.975 E.20296
G1 X153.627 Y151.564 E.01837
M73 P6 R2
G1 X148.436 Y146.373 E.22893
G1 X147.846 Y146.373 E.0184
G1 X153.627 Y152.154 E.25495
G1 X153.627 Y152.743 E.01837
G1 X147.257 Y146.373 E.28093
G1 X146.668 Y146.373 E.01837
M73 P7 R2
G1 X153.627 Y153.332 E.3069
G1 X153.627 Y153.627 E.0092
G1 X153.332 Y153.627 E.0092
G1 X146.373 Y146.668 E.3069
G1 X146.373 Y147.257 E.01837
G1 X152.743 Y153.627 E.28093
G1 X152.154 Y153.627 E.01837
M73 P8 R2
G1 X146.373 Y147.846 E.25495
G1 X146.373 Y148.436 E.0184
G1 X151.564 Y153.627 E.22893
G1 X150.975 Y153.627 E.01837
G1 X146.373 Y149.025 E.20296
G1 X146.373 Y149.614 E.01837
M73 P9 R2
G1 X150.386 Y153.627 E.17698
G1 X149.796 Y153.627 E.0184
G1 X146.373 Y150.204 E.15096
G1 X146.373 Y150.793 E.01837
G1 X149.207 Y153.627 E.12498
G1 X148.618 Y153.627 E.01837
G1 X146.373 Y151.382 E.09901
M73 P9 R1
G1 X146.373 Y151.972 E.0184
G1 X148.028 Y153.627 E.07299
G1 X147.439 Y153.627 E.01837
M73 P10 R1
G1 X146.373 Y152.561 E.04701
G1 X146.373 Y153.15 E.01837
G1 X147.033 Y153.81 E.02911
M204 S15000
M106 S127.5
;LAYER_CHANGE
;Z:0.4
;HEIGHT:0.2
;BEFORE_LAYER_CHANGE
;0.4

;WIPE_START
G1 F24000
G1 X146.373 Y153.15 E-.26601
G1 X146.373 Y152.561 E-.16786
G1 X147.439 Y153.627 E-.42965
G1 X148.028 Y153.627 E-.16786
G1 X146.373 Y151.972 E-.66705
G1 X146.373 Y151.382 E-.16815
G1 X146.704 Y151.713 E-.13342
;WIPE_END
G1 Z.4 F12000
;AFTER_LAYER_CHANGE
;0.4
G92 E0
_ON_LAYER_CHANGE LAYER=2
G1 Z1.4
G1 X153.961 Y153.961 F30000
G1 Z.4 F12000
G1 E2 F7200
;TYPE:Perimeter
;WIDTH:0.449999
G1 F6000
G1 X146.039 Y153.961 E.24133
G1 X146.039 Y146.039 E.24133
G1 X153.961 Y146.039 E.24133
G1 X153.961 Y150 E.12067
G1 X153.961 Y153.901 E.11884
G1 X153.961 Y153.901 F30000
G1 X154.368 Y154.368
G1 F6000
G1 X145.632 Y154.368 E.26613
G1 X145.632 Y145.632 E.26613
G1 X154.368 Y145.632 E.26613
G1 X154.368 Y150 E.13307
G1 X154.368 Y154.308 E.13124
G1 X154.775 Y154.775 F30000
M204 S10000
;TYPE:External perimeter
G1 F6000
G1 X145.225 Y154.775 E.29093
G1 X145.225 Y145.225 E.29093
M73 P11 R1
G1 X154.775 Y145.225 E.29093
G1 X154.775 Y150 E.14547
G1 X154.775 Y154.715 E.14364
M204 S15000
;WIPE_START
G1 F24000
G1 X154.775 Y154.775 E-.0171
G1 X147.817 Y154.775 E-1.9829
;WIPE_END
G1 Z1.4 F12000
G1 X146.483 Y146.406 F30000
G1 Z.4 F12000
G1 E2 F7200
;TYPE:Solid infill
;WIDTH:0.548766
G1 F18000
G1 X146.439 Y146.361 E.00238
G1 X146.378 Y146.378 E.0024
G1 X146.361 Y146.439 E.0024
G1 X146.406 Y146.483 E.00238
G1 X146.467 Y146.467 E.00239
;WIDTH:0.449999
G1 X147.117 Y146.373 E.02001
G1 X146.307 Y147.19 E.03505
;WIDTH:0.41646
G1 X146.24 Y147.263 E.00277
;WIDTH:0.38292
G1 X146.169 Y147.243 E.00188
G1 X146.188 Y147.315 E.00189
G1 X146.229 Y147.304 E.00108
;WIDTH:0.449999
G1 X146.373 Y147.693 E.01264
G1 X147.693 Y146.373 E.05687
G1 X148.269 Y146.373 E.01755
G1 X146.373 Y148.269 E.08168
G1 X146.373 Y148.844 E.01752
G1 X148.844 Y146.373 E.10646
G1 X149.42 Y146.373 E.01755
G1 X146.373 Y149.42 E.13127
G1 X146.373 Y149.996 E.01755
G1 X149.996 Y146.373 E.15609
G1 X150.571 Y146.373 E.01752
G1 X146.373 Y150.571 E.18086
G1 X146.373 Y151.147 E.01755
G1 X151.147 Y146.373 E.20568
G1 X151.723 Y146.373 E.01755
G1 X146.373 Y151.723 E.23049
G1 X146.373 Y152.299 E.01755
G1 X152.299 Y146.373 E.25531
G1 X152.874 Y146.373 E.01752
G1 X146.373 Y152.874 E.28008
G1 X146.373 Y152.874 F30000
G1 X146.314 Y153.716
;WIDTH:0.38292
G1 F18000
G1 X146.243 Y153.697 E.00187
G1 X146.262 Y153.768 E.00187
G1 X146.303 Y153.757 E.00108
;WIDTH:0.41646
G1 X146.338 Y153.603 E.00441
;WIDTH:0.449999
G1 X146.373 Y153.45 E.00478
G1 X153.45 Y146.373 E.30489
G1 X153.627 Y146.772 E.0133
G1 X146.772 Y153.627 E.29533
G1 X147.347 Y153.627 E.01752
G1 X153.627 Y147.347 E.27056
G1 X153.627 Y147.923 E.01755
M73 P12 R1
G1 X147.923 Y153.627 E.24574
G1 X148.499 Y153.627 E.01755
G1 X153.627 Y148.499 E.22093
G1 X153.627 Y149.074 E.01752
G1 X149.074 Y153.627 E.19615
G1 X149.65 Y153.627 E.01755
G1 X153.627 Y149.65 E.17134
G1 X153.627 Y150.226 E.01755
G1 X150.226 Y153.627 E.14652
G1 X150.801 Y153.627 E.01752
G1 X153.627 Y150.801 E.12175
G1 X153.842 Y151.21 E.01408
;WIDTH:0.38292
G1 X153.771 Y151.191 E.00187
G1 X153.79 Y151.262 E.00187
G1 X153.831 Y151.251 E.00108
;WIDTH:0.41646
G1 X153.729 Y151.314 E.00335
;WIDTH:0.449999
G1 X153.627 Y151.377 E.00365
G1 X151.377 Y153.627 E.09694
G1 X151.314 Y153.729 E.00365
;WIDTH:0.41646
G1 X151.251 Y153.831 E.00335
;WIDTH:0.38292
G1 X151.21 Y153.842 E.00108
G1 X151.191 Y153.771 E.00187
G1 X151.262 Y153.79 E.00187
;WIPE_START
G1 F24000
G1 X151.191 Y153.771 E-.02095
G1 X151.21 Y153.842 E-.02095
G1 X151.251 Y153.831 E-.0121
G1 X151.314 Y153.729 E-.03417
G1 X151.377 Y153.627 E-.03417
G1 X153.627 Y151.377 E-.90686
G1 X153.729 Y151.314 E-.03417
G1 X153.831 Y151.251 E-.03417
G1 X153.79 Y151.262 E-.0121
G1 X153.771 Y151.191 E-.02095
G1 X153.842 Y151.21 E-.02095
G1 X153.627 Y150.801 E-.13169
G1 X151.849 Y152.579 E-.71677
;WIPE_END
G1 Z1.4 F12000
G1 X153.483 Y152.097 F30000
G1 Z.4 F12000
G1 E2 F7200
;WIDTH:0.449999
G1 F18000
G1 X151.953 Y153.627 E.06592
G1 X153.627 Y153.627 E.051
G1 X153.627 Y151.953 E.051
;WIPE_START
G1 F24000
G1 X153.627 Y153.627 E-.47709
G1 X151.953 Y153.627 E-.47709
G1 X153.483 Y152.097 E-.61667
;WIPE_END
G1 E-.42915 F7200
G1 Z1.4 F12000
G1 X153.206 Y153.118 F30000
G1 Z.4 F12000
G1 E2 F7200
;WIDTH:0.616562
G1 F18000
G1 X153.155 Y153.067 E.0031
G1 X153.086 Y153.086 E.00307
G1 X153.067 Y153.155 E.00307
G1 X153.118 Y153.206 E.0031
G1 X153.187 Y153.187 E.00307
;LAYER_CHANGE
;Z:0.6
;HEIGHT:0.2
;BEFORE_LAYER_CHANGE
;0.6

;WIPE_START
G1 F24000
G1 X153.118 Y153.206 E-.0204
G1 X153.067 Y153.155 E-.02056
G1 X153.086 Y153.086 E-.0204
G1 X153.155 Y153.067 E-.0204
G1 X153.206 Y153.118 E-.02056
;WIPE_END
G1 E-1.89768 F7200
G1 Z.6 F12000
;AFTER_LAYER_CHANGE
;0.6
G92 E0
_ON_LAYER_CHANGE LAYER=3
G1 Z1.6
G1 X153.961 Y153.961 F30000
G1 Z.6 F12000
G1 E2 F7200
;TYPE:Perimeter
;WIDTH:0.449999
G1 F6000
G1 X146.039 Y153.961 E.24133
G1 X146.039 Y146.039 E.24133
G1 X153.961 Y146.039 E.24133
M73 P13 R1
G1 X153.961 Y150 E.12067
G1 X153.961 Y153.901 E.11884
G1 X153.961 Y153.901 F30000
G1 X154.368 Y154.368
G1 F6000
G1 X145.632 Y154.368 E.26613
G1 X145.632 Y145.632 E.26613
G1 X154.368 Y145.632 E.26613
G1 X154.368 Y150 E.13307
G1 X154.368 Y154.308 E.13124
G1 X154.775 Y154.775 F30000
M204 S10000
;TYPE:External perimeter
G1 F6000
G1 X145.225 Y154.775 E.29093
G1 X145.225 Y145.225 E.29093
G1 X154.775 Y145.225 E.29093
G1 X154.775 Y150 E.14547
G1 X154.775 Y154.715 E.14364
M204 S15000
;WIPE_START
G1 F24000
G1 X154.775 Y154.775 E-.0171
G1 X147.817 Y154.775 E-1.9829
;WIPE_END
G1 Z1.6 F12000
G1 X146.406 Y153.517 F30000
G1 Z.6 F12000
G1 E2 F7200
;TYPE:Solid infill
;WIDTH:0.548766
G1 F18000
G1 X146.361 Y153.561 E.00238
G1 X146.378 Y153.622 E.0024
G1 X146.439 Y153.639 E.0024
G1 X146.483 Y153.594 E.00238
G1 X146.467 Y153.533 E.00239
;WIDTH:0.449999
G1 X146.373 Y152.883 E.02001
G1 X147.117 Y153.627 E.03205
G1 X147.693 Y153.627 E.01755
G1 X146.373 Y152.307 E.05687
G1 X146.373 Y151.731 E.01755
G1 X148.269 Y153.627 E.08168
G1 X148.844 Y153.627 E.01752
G1 X146.373 Y151.156 E.10646
G1 X146.373 Y150.58 E.01755
M73 P14 R1
G1 X149.42 Y153.627 E.13127
G1 X149.996 Y153.627 E.01755
G1 X146.373 Y150.004 E.15609
G1 X146.373 Y149.429 E.01752
G1 X150.571 Y153.627 E.18086
G1 X151.147 Y153.627 E.01755
G1 X146.373 Y148.853 E.20568
G1 X146.373 Y148.277 E.01755
G1 X151.723 Y153.627 E.23049
G1 X152.299 Y153.627 E.01755
G1 X146.373 Y147.701 E.25531
G1 X146.373 Y147.126 E.01752
G1 X152.874 Y153.627 E.28008
G1 X152.874 Y153.627 F30000
G1 X153.757 Y153.697
;WIDTH:0.38292
G1 F18000
G1 X153.768 Y153.738 E.00108
G1 X153.697 Y153.757 E.00187
G1 X153.716 Y153.686 E.00187
;WIDTH:0.41646
G1 X153.583 Y153.656 E.00381
;WIDTH:0.449999
G1 X153.45 Y153.627 E.00415
G1 X146.373 Y146.55 E.30489
G1 X146.772 Y146.373 E.0133
G1 X153.627 Y153.228 E.29533
G1 X153.627 Y152.653 E.01752
G1 X147.347 Y146.373 E.27056
G1 X147.923 Y146.373 E.01755
G1 X153.627 Y152.077 E.24574
G1 X153.627 Y151.501 E.01755
G1 X148.499 Y146.373 E.22093
G1 X149.074 Y146.373 E.01752
G1 X153.627 Y150.926 E.19615
G1 X153.627 Y150.35 E.01755
G1 X149.65 Y146.373 E.17134
G1 X150.226 Y146.373 E.01755
G1 X153.627 Y149.774 E.14652
G1 X153.627 Y149.199 E.01752
G1 X150.801 Y146.373 E.12175
G1 X151.21 Y146.158 E.01408
;WIDTH:0.38292
G1 X151.191 Y146.229 E.00187
G1 X151.262 Y146.21 E.00187
G1 X151.251 Y146.169 E.00108
;WIDTH:0.41646
G1 X151.314 Y146.271 E.00335
;WIDTH:0.449999
G1 X151.377 Y146.373 E.00365
G1 X153.627 Y148.623 E.09694
G1 X153.729 Y148.686 E.00365
;WIDTH:0.41646
G1 X153.831 Y148.749 E.00335
;WIDTH:0.38292
G1 X153.842 Y148.79 E.00108
G1 X153.771 Y148.809 E.00187
G1 X153.79 Y148.738 E.00187
;WIPE_START
G1 F24000
G1 X153.771 Y148.809 E-.02095
G1 X153.842 Y148.79 E-.02095
G1 X153.831 Y148.749 E-.0121
G1 X153.729 Y148.686 E-.03417
G1 X153.627 Y148.623 E-.03417
G1 X151.377 Y146.373 E-.90686
G1 X151.314 Y146.271 E-.03417
G1 X151.251 Y146.169 E-.03417
G1 X151.262 Y146.21 E-.0121
G1 X151.191 Y146.229 E-.02095
G1 X151.21 Y146.158 E-.02095
G1 X150.801 Y146.373 E-.13169
G1 X152.579 Y148.151 E-.71677
;WIPE_END
G1 Z1.6 F12000
G1 X152.097 Y146.517 F30000
G1 Z.6 F12000
G1 E2 F7200
;WIDTH:0.449999
G1 F18000
G1 X153.627 Y148.047 E.06592
G1 X153.627 Y146.373 E.051
G1 X151.953 Y146.373 E.051
;WIPE_START
G1 F24000
G1 X153.627 Y146.373 E-.47709
G1 X153.627 Y148.047 E-.47709
G1 X152.097 Y146.517 E-.61667
;WIPE_END
G1 E-.42915 F7200
G1 Z1.6 F12000
G1 X153.118 Y146.794 F30000
M73 P15 R1
G1 Z.6 F12000
G1 E2 F7200
;WIDTH:0.61656
G1 F18000
G1 X153.067 Y146.845 E.0031
G1 X153.086 Y146.914 E.00307
G1 X153.155 Y146.933 E.00307
G1 X153.206 Y146.882 E.0031
G1 X153.187 Y146.813 E.00307
;LAYER_CHANGE
;Z:0.8
;HEIGHT:0.2
;BEFORE_LAYER_CHANGE
;0.8

;WIPE_START
G1 F24000
G1 X153.206 Y146.882 E-.0204
G1 X153.155 Y146.933 E-.02056
G1 X153.086 Y146.914 E-.0204
G1 X153.067 Y146.845 E-.0204
G1 X153.118 Y146.794 E-.02056
;WIPE_END
G1 E-1.89768 F7200
G1 Z.8 F12000
;AFTER_LAYER_CHANGE
;0.8
G92 E0
_ON_LAYER_CHANGE LAYER=4
G1 Z1.8
G1 X153.961 Y153.961 F30000
G1 Z.8 F12000
G1 E2 F7200
;TYPE:Perimeter
;WIDTH:0.449999
G1 F6000
G1 X146.039 Y153.961 E.24133
G1 X146.039 Y146.039 E.24133
G1 X153.961 Y146.039 E.24133
G1 X153.961 Y150 E.12067
G1 X153.961 Y153.901 E.11884
G1 X153.961 Y153.901 F30000
G1 X154.368 Y154.368
G1 F6000
G1 X145.632 Y154.368 E.26613
G1 X145.632 Y145.632 E.26613
G1 X154.368 Y145.632 E.26613
G1 X154.368 Y150 E.13307
G1 X154.368 Y154.308 E.13124
G1 X154.775 Y154.775 F30000
M204 S10000
;TYPE:External perimeter
G1 F6000
G1 X145.225 Y154.775 E.29093
G1 X145.225 Y145.225 E.29093
G1 X154.775 Y145.225 E.29093
M73 P16 R1
G1 X154.775 Y150 E.14547
G1 X154.775 Y154.715 E.14364
M204 S15000
;WIPE_START
G1 F24000
G1 X154.775 Y154.775 E-.0171
G1 X147.817 Y154.775 E-1.9829
;WIPE_END
G1 Z1.8 F12000
G1 X146.483 Y146.406 F30000
G1 Z.8 F12000
G1 E2 F7200
;TYPE:Solid infill
;WIDTH:0.548766
G1 F18000
G1 X146.439 Y146.361 E.00238
G1 X146.378 Y146.378 E.0024
G1 X146.361 Y146.439 E.0024
G1 X146.406 Y146.483 E.00238
G1 X146.467 Y146.467 E.00239
;WIDTH:0.449999
G1 X147.117 Y146.373 E.02001
G1 X146.307 Y147.19 E.03505
;WIDTH:0.41646
G1 X146.24 Y147.263 E.00277
;WIDTH:0.38292
G1 X146.169 Y147.243 E.00188
G1 X146.188 Y147.315 E.00189
G1 X146.229 Y147.304 E.00108
;WIDTH:0.449999
G1 X146.373 Y147.693 E.01264
G1 X147.693 Y146.373 E.05687
G1 X148.269 Y146.373 E.01755
G1 X146.373 Y148.269 E.08168
G1 X146.373 Y148.844 E.01752
G1 X148.844 Y146.373 E.10646
G1 X149.42 Y146.373 E.01755
G1 X146.373 Y149.42 E.13127
G1 X146.373 Y149.996 E.01755
G1 X149.996 Y146.373 E.15609
G1 X150.571 Y146.373 E.01752
G1 X146.373 Y150.571 E.18086
G1 X146.373 Y151.147 E.01755
G1 X151.147 Y146.373 E.20568
G1 X151.723 Y146.373 E.01755
G1 X146.373 Y151.723 E.23049
G1 X146.373 Y152.299 E.01755
G1 X152.299 Y146.373 E.25531
G1 X152.874 Y146.373 E.01752
G1 X146.373 Y152.874 E.28008
G1 X146.373 Y152.874 F30000
G1 X146.314 Y153.716
;WIDTH:0.38292
G1 F18000
G1 X146.243 Y153.697 E.00187
G1 X146.262 Y153.768 E.00187
G1 X146.303 Y153.757 E.00108
;WIDTH:0.41646
G1 X146.338 Y153.603 E.00441
;WIDTH:0.449999
G1 X146.373 Y153.45 E.00478
G1 X153.45 Y146.373 E.30489
G1 X153.627 Y146.772 E.0133
G1 X146.772 Y153.627 E.29533
G1 X147.347 Y153.627 E.01752
G1 X153.627 Y147.347 E.27056
G1 X153.627 Y147.923 E.01755
G1 X147.923 Y153.627 E.24574
G1 X148.499 Y153.627 E.01755
G1 X153.627 Y148.499 E.22093
G1 X153.627 Y149.074 E.01752
G1 X149.074 Y153.627 E.19615
G1 X149.65 Y153.627 E.01755
M73 P17 R1
G1 X153.627 Y149.65 E.17134
G1 X153.627 Y150.226 E.01755
G1 X150.226 Y153.627 E.14652
G1 X150.801 Y153.627 E.01752
G1 X153.627 Y150.801 E.12175
G1 X153.842 Y151.21 E.01408
;WIDTH:0.38292
G1 X153.771 Y151.191 E.00187
G1 X153.79 Y151.262 E.00187
G1 X153.831 Y151.251 E.00108
;WIDTH:0.41646
G1 X153.729 Y151.314 E.00335
;WIDTH:0.449999
G1 X153.627 Y151.377 E.00365
G1 X151.377 Y153.627 E.09694
G1 X151.314 Y153.729 E.00365
;WIDTH:0.41646
G1 X151.251 Y153.831 E.00335
;WIDTH:0.38292
G1 X151.21 Y153.842 E.00108
G1 X151.191 Y153.771 E.00187
G1 X151.262 Y153.79 E.00187
;WIPE_START
G1 F24000
G1 X151.191 Y153.771 E-.02095
G1 X151.21 Y153.842 E-.02095
G1 X151.251 Y153.831 E-.0121
G1 X151.314 Y153.729 E-.03417
G1 X151.377 Y153.627 E-.03417
G1 X153.627 Y151.377 E-.90686
G1 X153.729 Y151.314 E-.03417
G1 X153.831 Y151.251 E-.03417
G1 X153.79 Y151.262 E-.0121
G1 X153.771 Y151.191 E-.02095
