; generated by SuperSlicer 2.5.60.0 on 2024-10-31 at 03:31:51 UTC


;
;

;
;
; 

; external perimeters extrusion width = 0.45mm
; perimeters extrusion width = 0.45mm
; infill extrusion width = 0.45mm
; solid infill extrusion width = 0.45mm
; top infill extrusion width = 0.45mm
; support material extrusion width = 0.38mm
; first layer extrusion width = 0.45mm


M73 P0 R9
M107
;TYPE:Custom
; custom gcode: start_gcode
; ESTIMATOR_ADD_TIME 300 Print start
START_PRINT EXTRUDER_TEMP=265,265 EXTRUDER_OTHER_LAYER_TEMP=260,260 BED_TEMP=120 INITIAL_TOOL=0 TOTAL_LAYER_COUNT=150 X0=134.925 Y0=134.925 X1=165.075 Y1=165.075
; custom gcode end: start_gcode

; custom gcode: start_filament_gcode
; Filament gcode
SET_PRESSURE_ADVANCE ADVANCE=0.044
; custom gcode end: start_filament_gcode
;LAYER_CHANGE
;Z:0.2
;HEIGHT:0.2
G1 Z0.2 F3000
; custom gcode: layer_gcode
;AFTER_LAYER_CHANGE
;0.2
G92 E0
_ON_LAYER_CHANGE LAYER=1
; custom gcode end: layer_gcode

M104 S265 ; set temperature
M73 P3 R9
G1 E-0.8 F7200
G1 Z0.6 F3000
M204 S2000
G1 X164.85 Y164.85 F30000
G1 Z0.2 F3000
G1 E0.8 F7200
; custom gcode: feature_gcode
;BETWEEN_EXTRUSION_ROLE
G92 E0
; custom gcode end: feature_gcode

;TYPE:External perimeter
;WIDTH:0.45
G1 F2400
G1 X135.15 Y164.85 E0.88972
G1 X135.15 Y135.15 E0.88972
G1 X164.85 Y135.15 E0.88972
G1 X164.85 Y164.79 E0.88793
M73 P4 R9
G1 E-0.8 F7200
M204 S25000
G1 Z0.6 F3000
; acceleration to travel
G1 X163.976 Y137.475 F30000
; decel to extrusion
M204 S2000
G1 X163.905 Y135.272
; end travel
G1 Z0.2 F3000
G1 E0.8 F7200
; custom gcode: feature_gcode
;BETWEEN_EXTRUSION_ROLE
G92 E0
; custom gcode end: feature_gcode

;TYPE:Solid infill
;WIDTH:0.443438
G1 F3600
G1 X164.553 Y135.92 E0.02705
G1 X164.553 Y136.495 E0.01699
G1 X163.505 Y135.447 E0.04377
G1 X162.929 Y135.447 E0.017
G1 X164.553 Y137.071 E0.0678
G1 X164.553 Y137.647 E0.017
G1 X162.353 Y135.447 E0.09183
G1 X161.778 Y135.447 E0.017
G1 X164.553 Y138.222 E0.11587
G1 X164.553 Y138.798 E0.017
G1 X161.202 Y135.447 E0.1399
G1 X160.626 Y135.447 E0.01699
G1 X164.553 Y139.374 E0.16394
G1 X164.553 Y139.949 E0.017
G1 X160.051 Y135.447 E0.18797
G1 X159.475 Y135.447 E0.01699
G1 X164.553 Y140.525 E0.21201
G1 X164.553 Y141.101 E0.01699
G1 X158.899 Y135.447 E0.23604
G1 X158.323 Y135.447 E0.017
G1 X164.553 Y141.677 E0.26007
G1 X164.553 Y142.252 E0.01699
G1 X157.748 Y135.447 E0.28411
G1 X157.172 Y135.447 E0.01699
G1 X164.553 Y142.828 E0.30814
G1 X164.553 Y143.404 E0.017
G1 X156.596 Y135.447 E0.33217
G1 X156.021 Y135.447 E0.017
G1 X164.553 Y143.979 E0.3562
G1 X164.553 Y144.555 E0.017
G1 X155.445 Y135.447 E0.38024
G1 X154.869 Y135.447 E0.01699
G1 X164.553 Y145.131 E0.40427
G1 X164.553 Y145.706 E0.017
G1 X154.294 Y135.447 E0.4283
G1 X153.718 Y135.447 E0.017
G1 X164.553 Y146.282 E0.45234
G1 X164.553 Y146.858 E0.01699
G1 X153.142 Y135.447 E0.47638
G1 X152.566 Y135.447 E0.01699
G1 X164.553 Y147.434 E0.50041
G1 X164.553 Y148.009 E0.01699
G1 X151.991 Y135.447 E0.52444
G1 X151.415 Y135.447 E0.01699
G1 X164.553 Y148.585 E0.54848
G1 X164.553 Y149.161 E0.01699
G1 X150.839 Y135.447 E0.57251
G1 X150.264 Y135.447 E0.01699
G1 X164.553 Y149.736 E0.59654
M73 P5 R9
G1 X164.553 Y150.312 E0.017
G1 X149.688 Y135.447 E0.62057
G1 X149.112 Y135.447 E0.017
G1 X164.553 Y150.888 E0.6446
G1 X164.553 Y151.463 E0.017
G1 X148.537 Y135.447 E0.66864
G1 X147.961 Y135.447 E0.01699
G1 X164.553 Y152.039 E0.69268
G1 X164.553 Y152.615 E0.01699
G1 X147.385 Y135.447 E0.71671
G1 X146.81 Y135.447 E0.01699
G1 X164.553 Y153.19 E0.74074
G1 X164.553 Y153.766 E0.017
G1 X146.234 Y135.447 E0.76477
G1 X145.658 Y135.447 E0.01699
G1 X164.553 Y154.342 E0.78881
G1 X164.553 Y154.918 E0.017
G1 X145.082 Y135.447 E0.81284
G1 X144.507 Y135.447 E0.01699
G1 X164.553 Y155.493 E0.83688
G1 X164.553 Y156.069 E0.01699
G1 X143.931 Y135.447 E0.86091
G1 X143.355 Y135.447 E0.01699
G1 X164.553 Y156.645 E0.88494
G1 X164.553 Y157.22 E0.017
G1 X142.78 Y135.447 E0.90897
M73 P6 R9
G1 X142.204 Y135.447 E0.017
G1 X164.553 Y157.796 E0.933
G1 X164.553 Y158.372 E0.017
G1 X141.628 Y135.447 E0.95704
G1 X141.053 Y135.447 E0.01699
G1 X164.553 Y158.947 E0.98108
G1 X164.553 Y159.523 E0.01699
G1 X140.477 Y135.447 E1.00511
G1 X139.901 Y135.447 E0.017
G1 X164.553 Y160.099 E1.02914
G1 X164.553 Y160.675 E0.01699
G1 X139.325 Y135.447 E1.05318
G1 X138.75 Y135.447 E0.01699
G1 X164.553 Y161.25 E1.07721
G1 X164.553 Y161.826 E0.01699
G1 X138.174 Y135.447 E1.10124
G1 X137.598 Y135.447 E0.017
G1 X164.553 Y162.402 E1.12527
M73 P7 R9
G1 X164.553 Y162.977 E0.017
G1 X137.023 Y135.447 E1.14931
G1 X136.447 Y135.447 E0.01699
G1 X164.553 Y163.553 E1.17334
G1 X164.553 Y164.129 E0.017
G1 X135.871 Y135.447 E1.19737
G1 X135.447 Y135.447 E0.01253
G1 X135.447 Y135.598 E0.00447
G1 X164.402 Y164.553 E1.20878
G1 X163.826 Y164.553 E0.017
G1 X135.447 Y136.174 E1.18475
G1 X135.447 Y136.749 E0.01699
G1 X163.251 Y164.553 E1.16072
G1 X162.675 Y164.553 E0.017
G1 X135.447 Y137.325 E1.13668
M73 P7 R8
G1 X135.447 Y137.901 E0.01699
G1 X162.099 Y164.553 E1.11266
M73 P8 R8
G1 X161.524 Y164.553 E0.01699
G1 X135.447 Y138.476 E1.08862
G1 X135.447 Y139.052 E0.01699
G1 X160.948 Y164.553 E1.06459
G1 X160.372 Y164.553 E0.01699
G1 X135.447 Y139.628 E1.04055
G1 X135.447 Y140.204 E0.017
G1 X159.796 Y164.553 E1.01652
G1 X159.221 Y164.553 E0.01699
G1 X135.447 Y140.779 E0.99248
G1 X135.447 Y141.355 E0.017
G1 X158.645 Y164.553 E0.96845
G1 X158.069 Y164.553 E0.01699
G1 X135.447 Y141.931 E0.94442
G1 X135.447 Y142.506 E0.017
G1 X157.494 Y164.553 E0.92038
G1 X156.918 Y164.553 E0.01699
G1 X135.447 Y143.082 E0.89635
G1 X135.447 Y143.658 E0.017
G1 X156.342 Y164.553 E0.87232
M73 P9 R8
G1 X155.767 Y164.553 E0.01699
G1 X135.447 Y144.233 E0.84829
G1 X135.447 Y144.809 E0.01699
G1 X155.191 Y164.553 E0.82425
G1 X154.615 Y164.553 E0.01699
G1 X135.447 Y145.385 E0.80022
G1 X135.447 Y145.961 E0.017
G1 X154.039 Y164.553 E0.77618
G1 X153.464 Y164.553 E0.01699
G1 X135.447 Y146.536 E0.75215
G1 X135.447 Y147.112 E0.017
G1 X152.888 Y164.553 E0.72812
G1 X152.312 Y164.553 E0.01699
G1 X135.447 Y147.688 E0.70408
G1 X135.447 Y148.263 E0.017
G1 X151.737 Y164.553 E0.68005
G1 X151.161 Y164.553 E0.01699
G1 X135.447 Y148.839 E0.65602
G1 X135.447 Y149.415 E0.01699
G1 X150.585 Y164.553 E0.63199
G1 X150.01 Y164.553 E0.01699
G1 X135.447 Y149.99 E0.60795
G1 X135.447 Y150.566 E0.01699
G1 X149.434 Y164.553 E0.58392
G1 X148.858 Y164.553 E0.017
G1 X135.447 Y151.142 E0.55988
M73 P10 R8
G1 X135.447 Y151.717 E0.01699
G1 X148.283 Y164.553 E0.53585
G1 X147.707 Y164.553 E0.017
G1 X135.447 Y152.293 E0.51181
G1 X135.447 Y152.869 E0.017
G1 X147.131 Y164.553 E0.48778
G1 X146.555 Y164.553 E0.017
G1 X135.447 Y153.445 E0.46374
G1 X135.447 Y154.02 E0.017
G1 X145.98 Y164.553 E0.43972
G1 X145.404 Y164.553 E0.01699
G1 X135.447 Y154.596 E0.41568
G1 X135.447 Y155.172 E0.017
G1 X144.828 Y164.553 E0.39165
G1 X144.253 Y164.553 E0.01699
G1 X135.447 Y155.747 E0.36762
G1 X135.447 Y156.323 E0.01699
G1 X143.677 Y164.553 E0.34358
G1 X143.101 Y164.553 E0.017
G1 X135.447 Y156.899 E0.31955
G1 X135.447 Y157.474 E0.01699
G1 X142.526 Y164.553 E0.29552
G1 X141.95 Y164.553 E0.01699
G1 X135.447 Y158.05 E0.27148
G1 X135.447 Y158.626 E0.017
G1 X141.374 Y164.553 E0.24745
G1 X140.798 Y164.553 E0.01699
G1 X135.447 Y159.202 E0.22342
G1 X135.447 Y159.777 E0.01699
G1 X140.223 Y164.553 E0.19938
G1 X139.647 Y164.553 E0.017
G1 X135.447 Y160.353 E0.17534
G1 X135.447 Y160.929 E0.017
G1 X139.071 Y164.553 E0.15131
G1 X138.496 Y164.553 E0.017
G1 X135.447 Y161.504 E0.12728
G1 X135.447 Y162.08 E0.01699
G1 X137.92 Y164.553 E0.10325
G1 X137.344 Y164.553 E0.017
G1 X135.447 Y162.656 E0.07921
G1 X135.447 Y163.231 E0.017
G1 X136.769 Y164.553 E0.05518
G1 X136.193 Y164.553 E0.01699
G1 X135.447 Y163.807 E0.03115
G1 X135.447 Y164.383 E0.01699
G1 X135.792 Y164.728 E0.01443
M106 S28.05
;LAYER_CHANGE
;Z:0.4
;HEIGHT:0.2
M204 S25000
G1 Z0.4 F3000
; custom gcode: layer_gcode
;AFTER_LAYER_CHANGE
;0.4
G92 E0
_ON_LAYER_CHANGE LAYER=2
; custom gcode end: layer_gcode

M104 S260 ; set temperature
M140 S120 ; set bed temperature
G1 E-0.8 F7200
G1 Z0.8 F3000
G1 X164.036 Y164.036 F30000
G1 Z0.4 F3000
G1 E0.8 F7200
; custom gcode: feature_gcode
;BETWEEN_EXTRUSION_ROLE
G92 E0
; custom gcode end: feature_gcode

;TYPE:Internal perimeter
;WIDTH:0.45
G1 F21000
G1 X135.964 Y164.036 E0.84094
G1 X135.964 Y135.964 E0.84095
G1 X164.036 Y135.964 E0.84094
G1 X164.036 Y163.976 E0.83915
G1 X164.443 Y164.443 F30000
G1 F21000
G1 X135.557 Y164.443 E0.86533
G1 X135.557 Y135.557 E0.86533
G1 X164.443 Y135.557 E0.86534
G1 X164.443 Y164.383 E0.86353
M204 S10000
G1 X164.85 Y164.85 F30000
; custom gcode: feature_gcode
;BETWEEN_EXTRUSION_ROLE
G92 E0
; custom gcode end: feature_gcode

;TYPE:External perimeter
G1 F21000
G1 X135.15 Y164.85 E0.88972
G1 X135.15 Y135.15 E0.88972
G1 X164.85 Y135.15 E0.88973
M73 P11 R8
G1 X164.85 Y164.79 E0.88792
G1 E-0.8 F7200
M204 S25000
G1 X163.195 Y163.917 F30000
G1 E0.8 F7200
; custom gcode: feature_gcode
;BETWEEN_EXTRUSION_ROLE
G92 E0
; custom gcode end: feature_gcode

;TYPE:Solid infill
;WIDTH:0.393861
G1 F21000
G1 X163.763 Y163.348 E0.02079
G1 X163.763 Y162.843 E0.01307
G1 X162.843 Y163.763 E0.03365
G1 X162.338 Y163.763 E0.01307
G1 X163.763 Y162.338 E0.05213
G1 X163.763 Y161.833 E0.01307
G1 X161.833 Y163.763 E0.07061
G1 X161.328 Y163.763 E0.01306
G1 X163.763 Y161.328 E0.08909
G1 X163.763 Y160.823 E0.01306
G1 X160.823 Y163.763 E0.10757
G1 X160.318 Y163.763 E0.01307
G1 X163.763 Y160.318 E0.12604
G1 X163.763 Y159.813 E0.01306
G1 X159.813 Y163.763 E0.14452
G1 X159.308 Y163.763 E0.01307
G1 X163.763 Y159.308 E0.163
G1 X163.763 Y158.803 E0.01306
G1 X158.803 Y163.763 E0.18148
G1 X158.298 Y163.763 E0.01307
G1 X163.763 Y158.298 E0.19995
G1 X163.763 Y157.793 E0.01306
G1 X157.793 Y163.763 E0.21844
G1 X157.288 Y163.763 E0.01306
G1 X163.763 Y157.288 E0.23691
G1 X163.763 Y156.783 E0.01307
G1 X156.783 Y163.763 E0.25538
G1 X156.279 Y163.763 E0.01307
G1 X163.763 Y156.279 E0.27386
G1 X163.763 Y155.774 E0.01307
G1 X155.774 Y163.763 E0.29234
G1 X155.269 Y163.763 E0.01307
G1 X163.763 Y155.269 E0.31082
G1 X163.763 Y154.764 E0.01306
G1 X154.764 Y163.763 E0.3293
G1 X154.259 Y163.763 E0.01307
G1 X163.763 Y154.259 E0.34777
G1 X163.763 Y153.754 E0.01307
G1 X153.754 Y163.763 E0.36625
G1 X153.249 Y163.763 E0.01307
G1 X163.763 Y153.249 E0.38473
G1 X163.763 Y152.744 E0.01307
G1 X152.744 Y163.763 E0.4032
G1 X152.239 Y163.763 E0.01307
G1 X163.763 Y152.239 E0.42169
G1 X163.763 Y151.734 E0.01306
G1 X151.734 Y163.763 E0.44017
G1 X151.229 Y163.763 E0.01306
G1 X163.763 Y151.229 E0.45865
G1 X163.763 Y150.724 E0.01306
G1 X150.724 Y163.763 E0.47712
G1 X150.219 Y163.763 E0.01307
G1 X163.763 Y150.219 E0.4956
G1 X163.763 Y149.714 E0.01306
G1 X149.714 Y163.763 E0.51408
G1 X149.209 Y163.763 E0.01306
G1 X163.763 Y149.209 E0.53256
G1 X163.763 Y148.704 E0.01306
G1 X148.704 Y163.763 E0.55103
G1 X148.199 Y163.763 E0.01307
G1 X163.763 Y148.199 E0.56951
G1 X163.763 Y147.694 E0.01306
G1 X147.694 Y163.763 E0.58799
G1 X147.189 Y163.763 E0.01307
G1 X163.763 Y147.189 E0.60646
G1 X163.763 Y146.684 E0.01307
G1 X146.684 Y163.763 E0.62494
G1 X146.179 Y163.763 E0.01306
G1 X163.763 Y146.179 E0.64342
G1 X163.763 Y145.674 E0.01307
G1 X145.674 Y163.763 E0.6619
G1 X145.169 Y163.763 E0.01306
G1 X163.763 Y145.169 E0.68038
G1 X163.763 Y144.664 E0.01306
G1 X144.664 Y163.763 E0.69886
G1 X144.159 Y163.763 E0.01306
G1 X163.763 Y144.159 E0.71733
G1 X163.763 Y143.654 E0.01307
G1 X143.654 Y163.763 E0.73581
G1 X143.149 Y163.763 E0.01306
G1 X163.763 Y143.149 E0.75429
G1 X163.763 Y142.644 E0.01307
G1 X142.644 Y163.763 E0.77276
G1 X142.139 Y163.763 E0.01307
G1 X163.763 Y142.139 E0.79124
G1 X163.763 Y141.634 E0.01306
G1 X141.634 Y163.763 E0.80972
G1 X141.129 Y163.763 E0.01307
G1 X163.763 Y141.129 E0.8282
G1 X163.763 Y140.624 E0.01306
G1 X140.624 Y163.763 E0.84668
G1 X140.119 Y163.763 E0.01306
G1 X163.763 Y140.119 E0.86516
G1 X163.763 Y139.614 E0.01306
G1 X139.614 Y163.763 E0.88363
G1 X139.109 Y163.763 E0.01307
G1 X163.763 Y139.109 E0.90211
G1 X163.763 Y138.604 E0.01306
G1 X138.604 Y163.763 E0.92059
G1 X138.099 Y163.763 E0.01307
G1 X163.763 Y138.099 E0.93906
G1 X163.763 Y137.594 E0.01307
G1 X137.594 Y163.763 E0.95754
G1 X137.089 Y163.763 E0.01306
G1 X163.763 Y137.089 E0.97602
G1 X163.763 Y136.584 E0.01307
G1 X136.584 Y163.763 E0.9945
G1 X136.237 Y163.763 E0.00898
G1 X136.237 Y163.605 E0.00408
G1 X163.605 Y136.237 E1.00142
G1 X163.1 Y136.237 E0.01307
G1 X136.237 Y163.1 E0.98294
G1 X136.237 Y162.595 E0.01307
G1 X162.595 Y136.237 E0.96447
G1 X162.09 Y136.237 E0.01306
G1 X136.237 Y162.09 E0.94599
G1 X136.237 Y161.585 E0.01307
G1 X161.585 Y136.237 E0.92751
G1 X161.08 Y136.237 E0.01306
G1 X136.237 Y161.08 E0.90904
G1 X136.237 Y160.575 E0.01306
G1 X160.575 Y136.237 E0.89056
G1 X160.07 Y136.237 E0.01306
G1 X136.237 Y160.07 E0.87208
G1 X136.237 Y159.565 E0.01307
G1 X159.565 Y136.237 E0.8536
G1 X159.06 Y136.237 E0.01306
G1 X136.237 Y159.06 E0.83513
G1 X136.237 Y158.555 E0.01306
G1 X158.555 Y136.237 E0.81665
G1 X158.05 Y136.237 E0.01306
G1 X136.237 Y158.05 E0.79817
G1 X136.237 Y157.545 E0.01307
G1 X157.545 Y136.237 E0.77968
M73 P12 R8
G1 X157.04 Y136.237 E0.01307
G1 X136.237 Y157.04 E0.76121
G1 X136.237 Y156.535 E0.01307
G1 X156.535 Y136.237 E0.74273
G1 X156.03 Y136.237 E0.01307
G1 X136.237 Y156.03 E0.72425
G1 X136.237 Y155.525 E0.01307
G1 X155.525 Y136.237 E0.70578
G1 X155.02 Y136.237 E0.01306
G1 X136.237 Y155.02 E0.6873
G1 X136.237 Y154.515 E0.01307
G1 X154.515 Y136.237 E0.66882
G1 X154.01 Y136.237 E0.01307
G1 X136.237 Y154.01 E0.65034
G1 X136.237 Y153.505 E0.01307
G1 X153.505 Y136.237 E0.63186
G1 X153 Y136.237 E0.01307
G1 X136.237 Y153 E0.61339
G1 X136.237 Y152.496 E0.01306
G1 X152.496 Y136.237 E0.59492
G1 X151.991 Y136.237 E0.01306
G1 X136.237 Y151.991 E0.57644
G1 X136.237 Y151.486 E0.01306
G1 X151.486 Y136.237 E0.55796
G1 X150.981 Y136.237 E0.01306
G1 X136.237 Y150.981 E0.53948
G1 X136.237 Y150.476 E0.01307
G1 X150.476 Y136.237 E0.521
G1 X149.971 Y136.237 E0.01306
G1 X136.237 Y149.971 E0.50253
G1 X136.237 Y149.466 E0.01306
G1 X149.466 Y136.237 E0.48405
G1 X148.961 Y136.237 E0.01306
G1 X136.237 Y148.961 E0.46557
G1 X136.237 Y148.456 E0.01307
G1 X148.456 Y136.237 E0.44708
G1 X147.951 Y136.237 E0.01307
G1 X136.237 Y147.951 E0.42861
G1 X136.237 Y147.446 E0.01307
G1 X147.446 Y136.237 E0.41013
G1 X146.941 Y136.237 E0.01307
G1 X136.237 Y146.941 E0.39165
G1 X136.237 Y146.436 E0.01307
G1 X146.436 Y136.237 E0.37318
G1 X145.931 Y136.237 E0.01306
G1 X136.237 Y145.931 E0.3547
G1 X136.237 Y145.426 E0.01307
G1 X145.426 Y136.237 E0.33622
G1 X144.921 Y136.237 E0.01307
G1 X136.237 Y144.921 E0.31774
G1 X136.237 Y144.416 E0.01307
G1 X144.416 Y136.237 E0.29927
G1 X143.911 Y136.237 E0.01306
G1 X136.237 Y143.911 E0.28079
G1 X136.237 Y143.406 E0.01307
G1 X143.406 Y136.237 E0.26231
G1 X142.901 Y136.237 E0.01306
G1 X136.237 Y142.901 E0.24384
G1 X136.237 Y142.396 E0.01306
G1 X142.396 Y136.237 E0.22536
G1 X141.891 Y136.237 E0.01307
G1 X136.237 Y141.891 E0.20688
G1 X136.237 Y141.386 E0.01306
G1 X141.386 Y136.237 E0.1884
G1 X140.881 Y136.237 E0.01307
G1 X136.237 Y140.881 E0.16992
G1 X136.237 Y140.376 E0.01307
G1 X140.376 Y136.237 E0.15144
G1 X139.871 Y136.237 E0.01307
G1 X136.237 Y139.871 E0.13296
G1 X136.237 Y139.366 E0.01307
G1 X139.366 Y136.237 E0.11449
G1 X138.861 Y136.237 E0.01307
G1 X136.237 Y138.861 E0.09601
G1 X136.237 Y138.356 E0.01306
G1 X138.356 Y136.237 E0.07754
G1 X137.851 Y136.237 E0.01306
G1 X136.237 Y137.851 E0.05906
G1 X136.237 Y137.346 E0.01307
G1 X137.346 Y136.237 E0.04057
G1 X136.841 Y136.237 E0.01307
G1 X136.237 Y136.841 E0.0221
G1 X136.237 Y136.336 E0.01307
G1 X136.489 Y136.083 E0.00924
M106 S58.65
;LAYER_CHANGE
;Z:0.6
;HEIGHT:0.2
G1 Z0.6 F3000
; custom gcode: layer_gcode
;AFTER_LAYER_CHANGE
;0.6
G92 E0
_ON_LAYER_CHANGE LAYER=3
; custom gcode end: layer_gcode

G1 E-0.8 F7200
G1 Z1 F3000
G1 X164.036 Y164.036 F30000
G1 Z0.6 F3000
G1 E0.8 F7200
; custom gcode: feature_gcode
;BETWEEN_EXTRUSION_ROLE
G92 E0
; custom gcode end: feature_gcode

;TYPE:Internal perimeter
;WIDTH:0.45
G1 F21000
G1 X135.964 Y164.036 E0.84094
G1 X135.964 Y135.964 E0.84095
G1 X164.036 Y135.964 E0.84094
G1 X164.036 Y163.976 E0.83915
